posts/Davinci-Resolve-thermal-luts/colormaps-as-cube/Accent.cube
TITLE "Colormap Accent"
LUT_1D_SIZE 256
0.4980392 0.7882353 0.4980392
0.4980392 0.7882353 0.4980392
0.4980392 0.7882353 0.4980392
0.4980392 0.7882353 0.4980392
0.4980392 0.7882353 0.4980392
0.4980392 0.7882353 0.4980392
0.4980392 0.7882353 0.4980392
0.4980392 0.7882353 0.4980392
0.4980392 0.7882353 0.4980392
0.4980392 0.7882353 0.4980392
0.4980392 0.7882353 0.4980392
0.4980392 0.7882353 0.4980392
0.4980392 0.7882353 0.4980392
0.4980392 0.7882353 0.4980392
0.4980392 0.7882353 0.4980392
0.4980392 0.7882353 0.4980392
0.4980392 0.7882353 0.4980392
0.4980392 0.7882353 0.4980392
0.4980392 0.7882353 0.4980392
0.4980392 0.7882353 0.4980392
0.4980392 0.7882353 0.4980392
0.4980392 0.7882353 0.4980392
0.4980392 0.7882353 0.4980392
0.4980392 0.7882353 0.4980392
0.4980392 0.7882353 0.4980392
0.4980392 0.7882353 0.4980392
0.4980392 0.7882353 0.4980392
0.4980392 0.7882353 0.4980392
0.4980392 0.7882353 0.4980392
0.4980392 0.7882353 0.4980392
0.4980392 0.7882353 0.4980392
0.4980392 0.7882353 0.4980392
0.7450980 0.6823529 0.8313725
0.7450980 0.6823529 0.8313725
0.7450980 0.6823529 0.8313725
0.7450980 0.6823529 0.8313725
0.7450980 0.6823529 0.8313725
0.7450980 0.6823529 0.8313725
0.7450980 0.6823529 0.8313725
0.7450980 0.6823529 0.8313725
0.7450980 0.6823529 0.8313725
0.7450980 0.6823529 0.8313725
0.7450980 0.6823529 0.8313725
0.7450980 0.6823529 0.8313725
0.7450980 0.6823529 0.8313725
0.7450980 0.6823529 0.8313725
0.7450980 0.6823529 0.8313725
0.7450980 0.6823529 0.8313725
0.7450980 0.6823529 0.8313725
0.7450980 0.6823529 0.8313725
0.7450980 0.6823529 0.8313725
0.7450980 0.6823529 0.8313725
0.7450980 0.6823529 0.8313725
0.7450980 0.6823529 0.8313725
0.7450980 0.6823529 0.8313725
0.7450980 0.6823529 0.8313725
0.7450980 0.6823529 0.8313725
0.7450980 0.6823529 0.8313725
0.7450980 0.6823529 0.8313725
0.7450980 0.6823529 0.8313725
0.7450980 0.6823529 0.8313725
0.7450980 0.6823529 0.8313725
0.7450980 0.6823529 0.8313725
0.7450980 0.6823529 0.8313725
0.9921569 0.7529412 0.5254902
0.9921569 0.7529412 0.5254902
0.9921569 0.7529412 0.5254902
0.9921569 0.7529412 0.5254902
0.9921569 0.7529412 0.5254902
0.9921569 0.7529412 0.5254902
0.9921569 0.7529412 0.5254902
0.9921569 0.7529412 0.5254902
0.9921569 0.7529412 0.5254902
0.9921569 0.7529412 0.5254902
0.9921569 0.7529412 0.5254902
0.9921569 0.7529412 0.5254902
0.9921569 0.7529412 0.5254902
0.9921569 0.7529412 0.5254902
0.9921569 0.7529412 0.5254902
0.9921569 0.7529412 0.5254902
0.9921569 0.7529412 0.5254902
0.9921569 0.7529412 0.5254902
0.9921569 0.7529412 0.5254902
0.9921569 0.7529412 0.5254902
0.9921569 0.7529412 0.5254902
0.9921569 0.7529412 0.5254902
0.9921569 0.7529412 0.5254902
0.9921569 0.7529412 0.5254902
0.9921569 0.7529412 0.5254902
0.9921569 0.7529412 0.5254902
0.9921569 0.7529412 0.5254902
0.9921569 0.7529412 0.5254902
0.9921569 0.7529412 0.5254902
0.9921569 0.7529412 0.5254902
0.9921569 0.7529412 0.5254902
0.9921569 0.7529412 0.5254902
1.0000000 1.0000000 0.6000000
1.0000000 1.0000000 0.6000000
1.0000000 1.0000000 0.6000000
1.0000000 1.0000000 0.6000000
1.0000000 1.0000000 0.6000000
1.0000000 1.0000000 0.6000000
1.0000000 1.0000000 0.6000000
1.0000000 1.0000000 0.6000000
1.0000000 1.0000000 0.6000000
1.0000000 1.0000000 0.6000000
1.0000000 1.0000000 0.6000000
1.0000000 1.0000000 0.6000000
1.0000000 1.0000000 0.6000000
1.0000000 1.0000000 0.6000000
1.0000000 1.0000000 0.6000000
1.0000000 1.0000000 0.6000000
1.0000000 1.0000000 0.6000000
1.0000000 1.0000000 0.6000000
1.0000000 1.0000000 0.6000000
1.0000000 1.0000000 0.6000000
1.0000000 1.0000000 0.6000000
1.0000000 1.0000000 0.6000000
1.0000000 1.0000000 0.6000000
1.0000000 1.0000000 0.6000000
1.0000000 1.0000000 0.6000000
1.0000000 1.0000000 0.6000000
1.0000000 1.0000000 0.6000000
1.0000000 1.0000000 0.6000000
1.0000000 1.0000000 0.6000000
1.0000000 1.0000000 0.6000000
1.0000000 1.0000000 0.6000000
1.0000000 1.0000000 0.6000000
0.2196078 0.4235294 0.6901961
0.2196078 0.4235294 0.6901961
0.2196078 0.4235294 0.6901961
0.2196078 0.4235294 0.6901961
0.2196078 0.4235294 0.6901961
0.2196078 0.4235294 0.6901961
0.2196078 0.4235294 0.6901961
0.2196078 0.4235294 0.6901961
0.2196078 0.4235294 0.6901961
0.2196078 0.4235294 0.6901961
0.2196078 0.4235294 0.6901961
0.2196078 0.4235294 0.6901961
0.2196078 0.4235294 0.6901961
0.2196078 0.4235294 0.6901961
0.2196078 0.4235294 0.6901961
0.2196078 0.4235294 0.6901961
0.2196078 0.4235294 0.6901961
0.2196078 0.4235294 0.6901961
0.2196078 0.4235294 0.6901961
0.2196078 0.4235294 0.6901961
0.2196078 0.4235294 0.6901961
0.2196078 0.4235294 0.6901961
0.2196078 0.4235294 0.6901961
0.2196078 0.4235294 0.6901961
0.2196078 0.4235294 0.6901961
0.2196078 0.4235294 0.6901961
0.2196078 0.4235294 0.6901961
0.2196078 0.4235294 0.6901961
0.2196078 0.4235294 0.6901961
0.2196078 0.4235294 0.6901961
0.2196078 0.4235294 0.6901961
0.2196078 0.4235294 0.6901961
0.9411765 0.0078431 0.4980392
0.9411765 0.0078431 0.4980392
0.9411765 0.0078431 0.4980392
0.9411765 0.0078431 0.4980392
0.9411765 0.0078431 0.4980392
0.9411765 0.0078431 0.4980392
0.9411765 0.0078431 0.4980392
0.9411765 0.0078431 0.4980392
0.9411765 0.0078431 0.4980392
0.9411765 0.0078431 0.4980392
0.9411765 0.0078431 0.4980392
0.9411765 0.0078431 0.4980392
0.9411765 0.0078431 0.4980392
0.9411765 0.0078431 0.4980392
0.9411765 0.0078431 0.4980392
0.9411765 0.0078431 0.4980392
0.9411765 0.0078431 0.4980392
0.9411765 0.0078431 0.4980392
0.9411765 0.0078431 0.4980392
0.9411765 0.0078431 0.4980392
0.9411765 0.0078431 0.4980392
0.9411765 0.0078431 0.4980392
0.9411765 0.0078431 0.4980392
0.9411765 0.0078431 0.4980392
0.9411765 0.0078431 0.4980392
0.9411765 0.0078431 0.4980392
0.9411765 0.0078431 0.4980392
0.9411765 0.0078431 0.4980392
0.9411765 0.0078431 0.4980392
0.9411765 0.0078431 0.4980392
0.9411765 0.0078431 0.4980392
0.9411765 0.0078431 0.4980392
0.7490196 0.3568627 0.0901961
0.7490196 0.3568627 0.0901961
0.7490196 0.3568627 0.0901961
0.7490196 0.3568627 0.0901961
0.7490196 0.3568627 0.0901961
0.7490196 0.3568627 0.0901961
0.7490196 0.3568627 0.0901961
0.7490196 0.3568627 0.0901961
0.7490196 0.3568627 0.0901961
0.7490196 0.3568627 0.0901961
0.7490196 0.3568627 0.0901961
0.7490196 0.3568627 0.0901961
0.7490196 0.3568627 0.0901961
0.7490196 0.3568627 0.0901961
0.7490196 0.3568627 0.0901961
0.7490196 0.3568627 0.0901961
0.7490196 0.3568627 0.0901961
0.7490196 0.3568627 0.0901961
0.7490196 0.3568627 0.0901961
0.7490196 0.3568627 0.0901961
0.7490196 0.3568627 0.0901961
0.7490196 0.3568627 0.0901961
0.7490196 0.3568627 0.0901961
0.7490196 0.3568627 0.0901961
0.7490196 0.3568627 0.0901961
0.7490196 0.3568627 0.0901961
0.7490196 0.3568627 0.0901961
0.7490196 0.3568627 0.0901961
0.7490196 0.3568627 0.0901961
0.7490196 0.3568627 0.0901961
0.7490196 0.3568627 0.0901961
0.7490196 0.3568627 0.0901961
0.4000000 0.4000000 0.4000000
0.4000000 0.4000000 0.4000000
0.4000000 0.4000000 0.4000000
0.4000000 0.4000000 0.4000000
0.4000000 0.4000000 0.4000000
0.4000000 0.4000000 0.4000000
0.4000000 0.4000000 0.4000000
0.4000000 0.4000000 0.4000000
0.4000000 0.4000000 0.4000000
0.4000000 0.4000000 0.4000000
0.4000000 0.4000000 0.4000000
0.4000000 0.4000000 0.4000000
0.4000000 0.4000000 0.4000000
0.4000000 0.4000000 0.4000000
0.4000000 0.4000000 0.4000000
0.4000000 0.4000000 0.4000000
0.4000000 0.4000000 0.4000000
0.4000000 0.4000000 0.4000000
0.4000000 0.4000000 0.4000000
0.4000000 0.4000000 0.4000000
0.4000000 0.4000000 0.4000000
0.4000000 0.4000000 0.4000000
0.4000000 0.4000000 0.4000000
0.4000000 0.4000000 0.4000000
0.4000000 0.4000000 0.4000000
0.4000000 0.4000000 0.4000000
0.4000000 0.4000000 0.4000000
0.4000000 0.4000000 0.4000000
0.4000000 0.4000000 0.4000000
0.4000000 0.4000000 0.4000000
0.4000000 0.4000000 0.4000000
0.4000000 0.4000000 0.4000000
