posts/Davinci-Resolve-thermal-luts/colormaps-as-cube/Blues.cube
TITLE "Colormap Blues"
LUT_1D_SIZE 256
0.9686275 0.9843137 1.0000000
0.9655517 0.9823453 0.9990158
0.9624760 0.9803768 0.9980315
0.9594002 0.9784083 0.9970473
0.9563245 0.9764398 0.9960631
0.9532488 0.9744714 0.9950788
0.9501730 0.9725029 0.9940946
0.9470973 0.9705344 0.9931103
0.9440215 0.9685659 0.9921261
0.9409458 0.9665975 0.9911419
0.9378700 0.9646290 0.9901576
0.9347943 0.9626605 0.9891734
0.9317186 0.9606920 0.9881892
0.9286428 0.9587236 0.9872049
0.9255671 0.9567551 0.9862207
0.9224913 0.9547866 0.9852364
0.9194156 0.9528181 0.9842522
0.9163399 0.9508497 0.9832680
0.9132641 0.9488812 0.9822837
0.9101884 0.9469127 0.9812995
0.9071126 0.9449443 0.9803153
0.9040369 0.9429758 0.9793310
0.9009612 0.9410073 0.9783468
0.8978854 0.9390388 0.9773626
0.8948097 0.9370704 0.9763783
0.8917339 0.9351019 0.9753941
0.8886582 0.9331334 0.9744098
0.8855825 0.9311649 0.9734256
0.8825067 0.9291965 0.9724414
0.8794310 0.9272280 0.9714571
0.8763552 0.9252595 0.9704729
0.8732795 0.9232910 0.9694887
0.8702191 0.9213226 0.9685044
0.8672664 0.9193541 0.9675202
0.8643137 0.9173856 0.9665359
0.8613610 0.9154171 0.9655517
0.8584083 0.9134487 0.9645675
0.8554556 0.9114802 0.9635832
0.8525029 0.9095117 0.9625990
0.8495502 0.9075433 0.9616148
0.8465975 0.9055748 0.9606305
0.8436448 0.9036063 0.9596463
0.8406920 0.9016378 0.9586621
0.8377393 0.8996694 0.9576778
0.8347866 0.8977009 0.9566936
0.8318339 0.8957324 0.9557093
0.8288812 0.8937639 0.9547251
0.8259285 0.8917955 0.9537409
0.8229758 0.8898270 0.9527566
0.8200231 0.8878585 0.9517724
0.8170704 0.8858900 0.9507882
0.8141176 0.8839216 0.9498039
0.8111649 0.8819531 0.9488197
0.8082122 0.8799846 0.9478354
0.8052595 0.8780161 0.9468512
0.8023068 0.8760477 0.9458670
0.7993541 0.8740792 0.9448827
0.7964014 0.8721107 0.9438985
0.7934487 0.8701423 0.9429143
0.7904960 0.8681738 0.9419300
0.7875433 0.8662053 0.9409458
0.7845905 0.8642368 0.9399616
0.7816378 0.8622684 0.9389773
0.7786851 0.8602999 0.9379931
0.7752403 0.8583007 0.9368243
0.7703191 0.8562092 0.9351019
0.7653979 0.8541176 0.9333795
0.7604767 0.8520261 0.9316571
0.7555556 0.8499346 0.9299346
0.7506344 0.8478431 0.9282122
0.7457132 0.8457516 0.9264898
0.7407920 0.8436601 0.9247674
0.7358708 0.8415686 0.9230450
0.7309496 0.8394771 0.9213226
0.7260285 0.8373856 0.9196002
0.7211073 0.8352941 0.9178777
0.7161861 0.8332026 0.9161553
0.7112649 0.8311111 0.9144329
0.7063437 0.8290196 0.9127105
0.7014225 0.8269281 0.9109881
0.6965013 0.8248366 0.9092657
0.6915802 0.8227451 0.9075433
0.6866590 0.8206536 0.9058208
0.6817378 0.8185621 0.9040984
0.6768166 0.8164706 0.9023760
0.6718954 0.8143791 0.9006536
0.6669742 0.8122876 0.8989312
0.6620531 0.8101961 0.8972088
0.6571319 0.8081046 0.8954864
0.6522107 0.8060131 0.8937639
0.6472895 0.8039216 0.8920415
0.6423683 0.8018301 0.8903191
0.6374471 0.7997386 0.8885967
0.6325260 0.7976471 0.8868743
0.6276048 0.7955556 0.8851519
0.6226836 0.7934641 0.8834295
0.6172549 0.7908651 0.8818454
0.6109804 0.7874202 0.8804921
0.6047059 0.7839754 0.8791388
0.5984314 0.7805306 0.8777855
0.5921569 0.7770857 0.8764321
0.5858824 0.7736409 0.8750788
0.5796078 0.7701961 0.8737255
0.5733333 0.7667512 0.8723722
0.5670588 0.7633064 0.8710188
0.5607843 0.7598616 0.8696655
0.5545098 0.7564168 0.8683122
0.5482353 0.7529719 0.8669589
0.5419608 0.7495271 0.8656055
0.5356863 0.7460823 0.8642522
0.5294118 0.7426374 0.8628989
0.5231373 0.7391926 0.8615456
0.5168627 0.7357478 0.8601922
0.5105882 0.7323030 0.8588389
0.5043137 0.7288581 0.8574856
0.4980392 0.7254133 0.8561323
0.4917647 0.7219685 0.8547789
0.4854902 0.7185236 0.8534256
0.4792157 0.7150788 0.8520723
0.4729412 0.7116340 0.8507190
0.4666667 0.7081892 0.8493656
0.4603922 0.7047443 0.8480123
0.4541176 0.7012995 0.8466590
0.4478431 0.6978547 0.8453057
0.4415686 0.6944098 0.8439523
0.4352941 0.6909650 0.8425990
0.4290196 0.6875202 0.8412457
0.4227451 0.6840754 0.8398923
0.4170857 0.6806305 0.8382314
0.4120415 0.6771857 0.8362630
0.4069973 0.6737409 0.8342945
0.4019531 0.6702960 0.8323260
0.3969089 0.6668512 0.8303576
0.3918647 0.6634064 0.8283891
0.3868205 0.6599616 0.8264206
0.3817762 0.6565167 0.8244521
0.3767320 0.6530719 0.8224837
0.3716878 0.6496271 0.8205152
0.3666436 0.6461822 0.8185467
0.3615994 0.6427374 0.8165782
0.3565552 0.6392926 0.8146098
0.3515110 0.6358478 0.8126413
0.3464667 0.6324029 0.8106728
0.3414225 0.6289581 0.8087043
0.3363783 0.6255133 0.8067359
0.3313341 0.6220684 0.8047674
0.3262899 0.6186236 0.8027989
0.3212457 0.6151788 0.8008304
0.3162015 0.6117339 0.7988620
0.3111572 0.6082891 0.7968935
0.3061130 0.6048443 0.7949250
0.3010688 0.6013995 0.7929566
0.2960246 0.5979546 0.7909881
0.2909804 0.5945098 0.7890196
0.2859362 0.5910650 0.7870511
0.2808920 0.5876201 0.7850827
0.2758478 0.5841753 0.7831142
0.2708035 0.5807305 0.7811457
0.2657593 0.5772857 0.7791772
0.2607151 0.5738408 0.7772088
0.2562860 0.5700115 0.7751634
0.2522261 0.5659516 0.7730719
0.2481661 0.5618916 0.7709804
0.2441061 0.5578316 0.7688889
0.2400461 0.5537716 0.7667974
0.2359862 0.5497116 0.7647059
0.2319262 0.5456517 0.7626144
0.2278662 0.5415917 0.7605229
0.2238062 0.5375317 0.7584314
0.2197463 0.5334717 0.7563399
0.2156863 0.5294118 0.7542484
0.2116263 0.5253518 0.7521569
0.2075663 0.5212918 0.7500654
0.2035063 0.5172318 0.7479739
0.1994464 0.5131719 0.7458824
0.1953864 0.5091119 0.7437908
0.1913264 0.5050519 0.7416993
0.1872664 0.5009919 0.7396078
0.1832065 0.4969319 0.7375163
0.1791465 0.4928720 0.7354248
0.1750865 0.4888120 0.7333333
0.1710265 0.4847520 0.7312418
0.1669666 0.4806920 0.7291503
0.1629066 0.4766321 0.7270588
0.1588466 0.4725721 0.7249673
0.1547866 0.4685121 0.7228758
0.1507266 0.4644521 0.7207843
0.1466667 0.4603922 0.7186928
0.1426067 0.4563322 0.7166013
0.1385467 0.4522722 0.7145098
0.1344867 0.4482122 0.7124183
0.1304268 0.4441522 0.7103268
0.1271050 0.4401845 0.7074971
0.1240292 0.4362476 0.7044214
0.1209535 0.4323106 0.7013456
0.1178777 0.4283737 0.6982699
0.1148020 0.4244368 0.6951942
0.1117263 0.4204998 0.6921184
0.1086505 0.4165629 0.6890427
0.1055748 0.4126259 0.6859669
0.1024990 0.4086890 0.6828912
0.0994233 0.4047520 0.6798155
0.0963476 0.4008151 0.6767397
0.0932718 0.3968781 0.6736640
0.0901961 0.3929412 0.6705882
0.0871203 0.3890042 0.6675125
0.0840446 0.3850673 0.6644368
0.0809689 0.3811303 0.6613610
0.0778931 0.3771934 0.6582853
0.0748174 0.3732564 0.6552095
0.0717416 0.3693195 0.6521338
0.0686659 0.3653825 0.6490581
0.0655902 0.3614456 0.6459823
0.0625144 0.3575087 0.6429066
0.0594387 0.3535717 0.6398308
0.0563629 0.3496348 0.6367551
0.0532872 0.3456978 0.6336794
0.0502115 0.3417609 0.6306036
0.0471357 0.3378239 0.6275279
0.0440600 0.3338870 0.6244521
0.0409842 0.3299500 0.6213764
0.0379085 0.3260131 0.6183007
0.0348328 0.3220761 0.6152249
0.0317570 0.3181392 0.6121492
0.0313725 0.3140946 0.6064898
0.0313725 0.3100346 0.6004614
0.0313725 0.3059746 0.5944329
0.0313725 0.3019146 0.5884045
0.0313725 0.2978547 0.5823760
0.0313725 0.2937947 0.5763476
0.0313725 0.2897347 0.5703191
0.0313725 0.2856747 0.5642907
0.0313725 0.2816148 0.5582622
0.0313725 0.2775548 0.5522338
0.0313725 0.2734948 0.5462053
0.0313725 0.2694348 0.5401769
0.0313725 0.2653749 0.5341484
0.0313725 0.2613149 0.5281200
0.0313725 0.2572549 0.5220915
0.0313725 0.2531949 0.5160631
0.0313725 0.2491349 0.5100346
0.0313725 0.2450750 0.5040062
0.0313725 0.2410150 0.4979777
0.0313725 0.2369550 0.4919493
0.0313725 0.2328950 0.4859208
0.0313725 0.2288351 0.4798923
0.0313725 0.2247751 0.4738639
0.0313725 0.2207151 0.4678354
0.0313725 0.2166551 0.4618070
0.0313725 0.2125952 0.4557785
0.0313725 0.2085352 0.4497501
0.0313725 0.2044752 0.4437216
0.0313725 0.2004152 0.4376932
0.0313725 0.1963552 0.4316647
0.0313725 0.1922953 0.4256363
0.0313725 0.1882353 0.4196078
