posts/Davinci-Resolve-thermal-luts/colormaps-as-cube/bone.cube
TITLE "Colormap bone"
LUT_1D_SIZE 256
0.0000000 0.0000000 0.0000000
0.0034314 0.0034314 0.0047741
0.0068627 0.0068627 0.0095482
0.0102941 0.0102941 0.0143223
0.0137255 0.0137255 0.0190963
0.0171569 0.0171569 0.0238704
0.0205882 0.0205882 0.0286445
0.0240196 0.0240196 0.0334186
0.0274510 0.0274510 0.0381927
0.0308824 0.0308823 0.0429668
0.0343137 0.0343137 0.0477408
0.0377451 0.0377451 0.0525149
0.0411765 0.0411765 0.0572890
0.0446078 0.0446078 0.0620631
0.0480392 0.0480392 0.0668372
0.0514706 0.0514706 0.0716113
0.0549020 0.0549019 0.0763853
0.0583333 0.0583333 0.0811594
0.0617647 0.0617647 0.0859335
0.0651961 0.0651961 0.0907076
0.0686275 0.0686274 0.0954817
0.0720588 0.0720588 0.1002558
0.0754902 0.0754902 0.1050298
0.0789216 0.0789215 0.1098039
0.0823529 0.0823529 0.1145780
0.0857843 0.0857843 0.1193521
0.0892157 0.0892157 0.1241262
0.0926471 0.0926470 0.1289003
0.0960784 0.0960784 0.1336743
0.0995098 0.0995098 0.1384484
0.1029412 0.1029411 0.1432225
0.1063725 0.1063725 0.1479966
0.1098039 0.1098039 0.1527707
0.1132353 0.1132352 0.1575448
0.1166667 0.1166666 0.1623188
0.1200980 0.1200980 0.1670929
0.1235294 0.1235294 0.1718670
0.1269608 0.1269607 0.1766411
0.1303922 0.1303921 0.1814152
0.1338235 0.1338235 0.1861893
0.1372549 0.1372548 0.1909633
0.1406863 0.1406862 0.1957374
0.1441176 0.1441176 0.2005115
0.1475490 0.1475490 0.2052856
0.1509804 0.1509803 0.2100597
0.1544118 0.1544117 0.2148338
0.1578431 0.1578431 0.2196078
0.1612745 0.1612744 0.2243819
0.1647059 0.1647058 0.2291560
0.1681373 0.1681372 0.2339301
0.1715686 0.1715686 0.2387042
0.1750000 0.1749999 0.2434783
0.1784314 0.1784313 0.2482523
0.1818627 0.1818627 0.2530264
0.1852941 0.1852940 0.2578005
0.1887255 0.1887254 0.2625746
0.1921569 0.1921568 0.2673487
0.1955882 0.1955882 0.2721228
0.1990196 0.1990195 0.2768968
0.2024510 0.2024509 0.2816709
0.2058824 0.2058823 0.2864450
0.2093137 0.2093136 0.2912191
0.2127451 0.2127450 0.2959932
0.2161765 0.2161764 0.3007673
0.2196078 0.2196078 0.3055413
0.2230392 0.2230391 0.3103154
0.2264706 0.2264705 0.3150895
0.2299020 0.2299019 0.3198636
0.2333333 0.2333332 0.3246377
0.2367647 0.2367646 0.3294118
0.2401961 0.2401960 0.3341858
0.2436275 0.2436274 0.3389599
0.2470588 0.2470587 0.3437340
0.2504902 0.2504901 0.3485081
0.2539216 0.2539215 0.3532822
0.2573529 0.2573528 0.3580563
0.2607843 0.2607842 0.3628303
0.2642157 0.2642156 0.3676044
0.2676471 0.2676470 0.3723785
0.2710784 0.2710783 0.3771526
0.2745098 0.2745097 0.3819267
0.2779412 0.2779411 0.3867008
0.2813725 0.2813724 0.3914749
0.2848039 0.2848038 0.3962489
0.2882353 0.2882352 0.4010230
0.2916667 0.2916666 0.4057971
0.2950980 0.2950979 0.4105712
0.2985294 0.2985293 0.4153453
0.3019608 0.3019607 0.4201194
0.3053922 0.3053920 0.4248934
0.3088235 0.3088234 0.4296675
0.3122549 0.3122548 0.4344416
0.3156863 0.3156862 0.4392157
0.3191176 0.3191175 0.4439898
0.3225490 0.3237132 0.4475489
0.3259804 0.3284314 0.4509803
0.3294118 0.3331495 0.4544116
0.3328431 0.3378676 0.4578430
0.3362745 0.3425858 0.4612744
0.3397059 0.3473039 0.4647058
0.3431373 0.3520220 0.4681371
0.3465686 0.3567402 0.4715685
0.3500000 0.3614583 0.4749999
0.3534314 0.3661765 0.4784313
0.3568627 0.3708946 0.4818626
0.3602941 0.3756127 0.4852940
0.3637255 0.3803309 0.4887254
0.3671569 0.3850490 0.4921567
0.3705882 0.3897671 0.4955881
0.3740196 0.3944853 0.4990195
0.3774510 0.3992034 0.5024509
0.3808824 0.4039215 0.5058822
0.3843137 0.4086397 0.5093136
0.3877451 0.4133578 0.5127450
0.3911765 0.4180760 0.5161764
0.3946078 0.4227941 0.5196077
0.3980392 0.4275122 0.5230391
0.4014706 0.4322304 0.5264705
0.4049020 0.4369485 0.5299019
0.4083333 0.4416666 0.5333332
0.4117647 0.4463848 0.5367646
0.4151961 0.4511029 0.5401960
0.4186275 0.4558210 0.5436273
0.4220588 0.4605392 0.5470587
0.4254902 0.4652573 0.5504901
0.4289216 0.4699755 0.5539215
0.4323529 0.4746936 0.5573528
0.4357843 0.4794117 0.5607842
0.4392157 0.4841299 0.5642156
0.4426471 0.4888480 0.5676470
0.4460784 0.4935661 0.5710783
0.4495098 0.4982843 0.5745097
0.4529412 0.5030024 0.5779411
0.4563725 0.5077206 0.5813725
0.4598039 0.5124387 0.5848038
0.4632353 0.5171568 0.5882352
0.4666667 0.5218750 0.5916666
0.4700980 0.5265931 0.5950979
0.4735294 0.5313112 0.5985293
0.4769608 0.5360294 0.6019607
0.4803922 0.5407475 0.6053921
0.4838235 0.5454656 0.6088234
0.4872549 0.5501838 0.6122548
0.4906863 0.5549019 0.6156862
0.4941176 0.5596201 0.6191176
0.4975490 0.5643382 0.6225489
0.5009804 0.5690563 0.6259803
0.5044118 0.5737745 0.6294117
0.5078431 0.5784926 0.6328431
0.5112745 0.5832107 0.6362744
0.5147059 0.5879289 0.6397058
0.5181373 0.5926470 0.6431372
0.5215686 0.5973651 0.6465685
0.5250000 0.6020833 0.6499999
0.5284314 0.6068014 0.6534313
0.5318627 0.6115196 0.6568627
0.5352941 0.6162377 0.6602940
0.5387255 0.6209558 0.6637254
0.5421569 0.6256740 0.6671568
0.5455882 0.6303921 0.6705882
0.5490196 0.6351102 0.6740195
0.5524510 0.6398284 0.6774509
0.5558824 0.6445465 0.6808823
0.5593137 0.6492646 0.6843137
0.5627451 0.6539828 0.6877450
0.5661765 0.6587009 0.6911764
0.5696078 0.6634191 0.6946078
0.5730392 0.6681372 0.6980391
0.5764706 0.6728553 0.7014705
0.5799020 0.6775735 0.7049019
0.5833333 0.6822916 0.7083333
0.5867647 0.6870097 0.7117646
0.5901961 0.6917279 0.7151960
0.5936275 0.6964460 0.7186274
0.5970588 0.7011641 0.7220588
0.6004902 0.7058823 0.7254901
0.6039216 0.7106004 0.7289215
0.6073529 0.7153186 0.7323529
0.6107843 0.7200367 0.7357843
0.6142157 0.7247548 0.7392156
0.6176471 0.7294730 0.7426470
0.6210784 0.7341911 0.7460784
0.6245098 0.7389092 0.7495097
0.6279412 0.7436274 0.7529411
0.6313725 0.7483455 0.7563725
0.6348039 0.7530636 0.7598039
0.6382353 0.7577818 0.7632352
0.6416667 0.7624999 0.7666666
0.6450980 0.7672181 0.7700980
0.6485294 0.7719362 0.7735294
0.6519608 0.7766543 0.7769607
0.6568626 0.7803922 0.7803921
0.6622241 0.7838235 0.7838235
0.6675857 0.7872549 0.7872549
0.6729472 0.7906863 0.7906862
0.6783087 0.7941176 0.7941176
0.6836702 0.7975490 0.7975490
0.6890318 0.8009804 0.8009803
0.6943933 0.8044118 0.8044117
0.6997548 0.8078431 0.8078431
0.7051163 0.8112745 0.8112745
0.7104778 0.8147059 0.8147058
0.7158394 0.8181373 0.8181372
0.7212009 0.8215686 0.8215686
0.7265624 0.8250000 0.8250000
0.7319239 0.8284314 0.8284313
0.7372854 0.8318627 0.8318627
0.7426470 0.8352941 0.8352941
0.7480085 0.8387255 0.8387255
0.7533700 0.8421569 0.8421568
0.7587315 0.8455882 0.8455882
0.7640931 0.8490196 0.8490196
0.7694546 0.8524510 0.8524509
0.7748161 0.8558824 0.8558823
0.7801776 0.8593137 0.8593137
0.7855391 0.8627451 0.8627451
0.7909007 0.8661765 0.8661764
0.7962622 0.8696078 0.8696078
0.8016237 0.8730392 0.8730392
0.8069852 0.8764706 0.8764706
0.8123467 0.8799020 0.8799019
0.8177083 0.8833333 0.8833333
0.8230698 0.8867647 0.8867647
0.8284313 0.8901961 0.8901961
0.8337928 0.8936275 0.8936274
0.8391544 0.8970588 0.8970588
0.8445159 0.9004902 0.9004902
0.8498774 0.9039216 0.9039215
0.8552389 0.9073529 0.9073529
0.8606004 0.9107843 0.9107843
0.8659620 0.9142157 0.9142157
0.8713235 0.9176471 0.9176470
0.8766850 0.9210784 0.9210784
0.8820465 0.9245098 0.9245098
0.8874080 0.9279412 0.9279412
0.8927696 0.9313725 0.9313725
0.8981311 0.9348039 0.9348039
0.9034926 0.9382353 0.9382353
0.9088541 0.9416667 0.9416667
0.9142157 0.9450980 0.9450980
0.9195772 0.9485294 0.9485294
0.9249387 0.9519608 0.9519608
0.9303002 0.9553922 0.9553921
0.9356617 0.9588235 0.9588235
0.9410233 0.9622549 0.9622549
0.9463848 0.9656863 0.9656863
0.9517463 0.9691176 0.9691176
0.9571078 0.9725490 0.9725490
0.9624693 0.9759804 0.9759804
0.9678309 0.9794118 0.9794118
0.9731924 0.9828431 0.9828431
0.9785539 0.9862745 0.9862745
0.9839154 0.9897059 0.9897059
0.9892770 0.9931373 0.9931373
0.9946385 0.9965686 0.9965686
1.0000000 1.0000000 1.0000000
