posts/Davinci-Resolve-thermal-luts/colormaps-as-cube/BrBG_r.cube
TITLE "Colormap BrBG_r"
LUT_1D_SIZE 256
0.0000000 0.2352941 0.1882353
0.0001538 0.2417532 0.1953095
0.0003076 0.2482122 0.2023837
0.0004614 0.2546713 0.2094579
0.0006151 0.2611303 0.2165321
0.0007689 0.2675894 0.2236063
0.0009227 0.2740484 0.2306805
0.0010765 0.2805075 0.2377547
0.0012303 0.2869666 0.2448289
0.0013841 0.2934256 0.2519031
0.0015379 0.2998847 0.2589773
0.0016917 0.3063437 0.2660515
0.0018454 0.3128028 0.2731257
0.0019992 0.3192618 0.2801999
0.0021530 0.3257209 0.2872741
0.0023068 0.3321799 0.2943483
0.0024606 0.3386390 0.3014225
0.0026144 0.3450980 0.3084967
0.0027682 0.3515571 0.3155709
0.0029220 0.3580161 0.3226451
0.0030757 0.3644752 0.3297193
0.0032295 0.3709343 0.3367935
0.0033833 0.3773933 0.3438677
0.0035371 0.3838524 0.3509419
0.0036909 0.3903114 0.3580161
0.0038447 0.3967705 0.3650903
0.0079200 0.4037678 0.3723952
0.0159170 0.4113033 0.3799308
0.0239139 0.4188389 0.3874664
0.0319108 0.4263745 0.3950019
0.0399077 0.4339100 0.4025375
0.0479047 0.4414456 0.4100730
0.0559016 0.4489812 0.4176086
0.0638985 0.4565167 0.4251442
0.0718954 0.4640523 0.4326797
0.0798923 0.4715879 0.4402153
0.0878893 0.4791234 0.4477509
0.0958862 0.4866590 0.4552864
0.1038831 0.4941945 0.4628220
0.1118800 0.5017301 0.4703576
0.1198770 0.5092657 0.4778931
0.1278739 0.5168012 0.4854287
0.1358708 0.5243368 0.4929642
0.1438677 0.5318724 0.5004998
0.1518647 0.5394079 0.5080354
0.1598616 0.5469435 0.5155709
0.1678585 0.5544790 0.5231065
0.1758554 0.5620146 0.5306421
0.1838524 0.5695502 0.5381776
0.1918493 0.5770857 0.5457132
0.1998462 0.5846213 0.5532488
0.2078431 0.5921569 0.5607843
0.2193772 0.6004614 0.5684737
0.2309112 0.6087659 0.5761630
0.2424452 0.6170704 0.5838524
0.2539792 0.6253749 0.5915417
0.2655133 0.6336794 0.5992311
0.2770473 0.6419839 0.6069204
0.2885813 0.6502884 0.6146098
0.3001153 0.6585928 0.6222991
0.3116494 0.6668973 0.6299885
0.3231834 0.6752018 0.6376778
0.3347174 0.6835063 0.6453672
0.3462514 0.6918108 0.6530565
0.3577855 0.7001153 0.6607459
0.3693195 0.7084198 0.6684352
0.3808535 0.7167243 0.6761246
0.3923875 0.7250288 0.6838139
0.4039216 0.7333333 0.6915033
0.4154556 0.7416378 0.6991926
0.4269896 0.7499423 0.7068820
0.4385236 0.7582468 0.7145713
0.4500577 0.7665513 0.7222607
0.4615917 0.7748558 0.7299500
0.4731257 0.7831603 0.7376394
0.4846597 0.7914648 0.7453287
0.4961938 0.7997693 0.7530181
0.5074202 0.8061515 0.7596309
0.5183391 0.8106113 0.7651672
0.5292580 0.8150711 0.7707036
0.5401769 0.8195309 0.7762399
0.5510957 0.8239908 0.7817762
0.5620146 0.8284506 0.7873126
0.5729335 0.8329104 0.7928489
0.5838524 0.8373702 0.7983852
0.5947712 0.8418301 0.8039216
0.6056901 0.8462899 0.8094579
0.6166090 0.8507497 0.8149942
0.6275279 0.8552095 0.8205306
0.6384468 0.8596694 0.8260669
0.6493656 0.8641292 0.8316032
0.6602845 0.8685890 0.8371396
0.6712034 0.8730488 0.8426759
0.6821223 0.8775087 0.8482122
0.6930411 0.8819685 0.8537486
0.7039600 0.8864283 0.8592849
0.7148789 0.8908881 0.8648212
0.7257978 0.8953479 0.8703576
0.7367166 0.8998078 0.8758939
0.7476355 0.9042676 0.8814302
0.7585544 0.9087274 0.8869666
0.7694733 0.9131872 0.8925029
0.7803922 0.9176471 0.8980392
0.7874664 0.9193387 0.9004998
0.7945406 0.9210304 0.9029604
0.8016148 0.9227220 0.9054210
0.8086890 0.9244137 0.9078816
0.8157632 0.9261053 0.9103422
0.8228374 0.9277970 0.9128028
0.8299116 0.9294887 0.9152634
0.8369858 0.9311803 0.9177240
0.8440600 0.9328720 0.9201845
0.8511342 0.9345636 0.9226451
0.8582084 0.9362553 0.9251057
0.8652826 0.9379469 0.9275663
0.8723568 0.9396386 0.9300269
0.8794310 0.9413303 0.9324875
0.8865052 0.9430219 0.9349481
0.8935794 0.9447136 0.9374087
0.9006536 0.9464052 0.9398693
0.9077278 0.9480969 0.9423299
0.9148020 0.9497885 0.9447905
0.9218762 0.9514802 0.9472511
0.9289504 0.9531719 0.9497116
0.9360246 0.9548635 0.9521722
0.9430988 0.9565552 0.9546328
0.9501730 0.9582468 0.9570934
0.9572472 0.9599385 0.9595540
0.9608612 0.9597847 0.9569396
0.9610150 0.9577855 0.9492503
0.9611688 0.9557862 0.9415609
0.9613226 0.9537870 0.9338716
0.9614764 0.9517878 0.9261822
0.9616301 0.9497885 0.9184929
0.9617839 0.9477893 0.9108035
0.9619377 0.9457901 0.9031142
0.9620915 0.9437908 0.8954248
0.9622453 0.9417916 0.8877355
0.9623991 0.9397924 0.8800461
0.9625529 0.9377932 0.8723568
0.9627067 0.9357939 0.8646674
0.9628604 0.9337947 0.8569781
0.9630142 0.9317955 0.8492887
0.9631680 0.9297962 0.8415994
0.9633218 0.9277970 0.8339100
0.9634756 0.9257978 0.8262207
0.9636294 0.9237985 0.8185313
0.9637832 0.9217993 0.8108420
0.9639369 0.9198001 0.8031526
0.9640907 0.9178008 0.7954633
0.9642445 0.9158016 0.7877739
0.9643983 0.9138024 0.7800846
0.9645521 0.9118032 0.7723952
0.9647059 0.9098039 0.7647059
0.9611688 0.9039600 0.7539408
0.9576317 0.8981161 0.7431757
0.9540946 0.8922722 0.7324106
0.9505575 0.8864283 0.7216455
0.9470204 0.8805844 0.7108804
0.9434833 0.8747405 0.7001153
0.9399462 0.8688966 0.6893502
0.9364091 0.8630527 0.6785852
0.9328720 0.8572088 0.6678201
0.9293349 0.8513649 0.6570550
0.9257978 0.8455210 0.6462899
0.9222607 0.8396770 0.6355248
0.9187236 0.8338331 0.6247597
0.9151865 0.8279892 0.6139946
0.9116494 0.8221453 0.6032295
0.9081123 0.8163014 0.5924644
0.9045752 0.8104575 0.5816993
0.9010381 0.8046136 0.5709343
0.8975010 0.7987697 0.5601692
0.8939639 0.7929258 0.5494041
0.8904268 0.7870819 0.5386390
0.8868897 0.7812380 0.5278739
0.8833526 0.7753941 0.5171088
0.8798155 0.7695502 0.5063437
0.8762784 0.7637063 0.4955786
0.8720492 0.7557862 0.4840446
0.8671280 0.7457901 0.4717416
0.8622068 0.7357939 0.4594387
0.8572857 0.7257978 0.4471357
0.8523645 0.7158016 0.4348328
0.8474433 0.7058055 0.4225298
0.8425221 0.6958093 0.4102268
0.8376009 0.6858131 0.3979239
0.8326797 0.6758170 0.3856209
0.8277586 0.6658208 0.3733180
0.8228374 0.6558247 0.3610150
0.8179162 0.6458285 0.3487120
0.8129950 0.6358324 0.3364091
0.8080738 0.6258362 0.3241061
0.8031526 0.6158401 0.3118032
0.7982314 0.6058439 0.2995002
0.7933103 0.5958478 0.2871972
0.7883891 0.5858516 0.2748943
0.7834679 0.5758554 0.2625913
0.7785467 0.5658593 0.2502884
0.7736255 0.5558631 0.2379854
0.7687043 0.5458670 0.2256824
0.7637832 0.5358708 0.2133795
0.7588620 0.5258747 0.2010765
0.7539408 0.5158785 0.1887735
0.7490196 0.5058824 0.1764706
0.7411765 0.4985006 0.1710880
0.7333333 0.4911188 0.1657055
0.7254902 0.4837370 0.1603230
0.7176471 0.4763552 0.1549404
0.7098039 0.4689735 0.1495579
0.7019608 0.4615917 0.1441753
0.6941176 0.4542099 0.1387928
0.6862745 0.4468281 0.1334102
0.6784314 0.4394464 0.1280277
0.6705882 0.4320646 0.1226451
0.6627451 0.4246828 0.1172626
0.6549020 0.4173010 0.1118800
0.6470588 0.4099193 0.1064975
0.6392157 0.4025375 0.1011150
0.6313725 0.3951557 0.0957324
0.6235294 0.3877739 0.0903499
0.6156863 0.3803922 0.0849673
0.6078431 0.3730104 0.0795848
0.6000000 0.3656286 0.0742022
0.5921569 0.3582468 0.0688197
0.5843137 0.3508651 0.0634371
0.5764706 0.3434833 0.0580546
0.5686275 0.3361015 0.0526720
0.5607843 0.3287197 0.0472895
0.5529412 0.3213379 0.0419070
0.5447136 0.3151096 0.0388312
0.5361015 0.3100346 0.0380623
0.5274894 0.3049596 0.0372933
0.5188774 0.2998847 0.0365244
0.5102653 0.2948097 0.0357555
0.5016532 0.2897347 0.0349865
0.4930411 0.2846597 0.0342176
0.4844291 0.2795848 0.0334487
0.4758170 0.2745098 0.0326797
0.4672049 0.2694348 0.0319108
0.4585928 0.2643599 0.0311419
0.4499808 0.2592849 0.0303729
0.4413687 0.2542099 0.0296040
0.4327566 0.2491349 0.0288351
0.4241446 0.2440600 0.0280661
0.4155325 0.2389850 0.0272972
0.4069204 0.2339100 0.0265283
0.3983083 0.2288351 0.0257593
0.3896963 0.2237601 0.0249904
0.3810842 0.2186851 0.0242215
0.3724721 0.2136101 0.0234525
0.3638601 0.2085352 0.0226836
0.3552480 0.2034602 0.0219146
0.3466359 0.1983852 0.0211457
0.3380238 0.1933103 0.0203768
0.3294118 0.1882353 0.0196078
