posts/Davinci-Resolve-thermal-luts/colormaps-as-cube/BuGn_r.cube
TITLE "Colormap BuGn_r"
LUT_1D_SIZE 256
0.0000000 0.2666667 0.1058824
0.0000000 0.2717109 0.1079739
0.0000000 0.2767551 0.1100654
0.0000000 0.2817993 0.1121569
0.0000000 0.2868435 0.1142484
0.0000000 0.2918877 0.1163399
0.0000000 0.2969319 0.1184314
0.0000000 0.3019762 0.1205229
0.0000000 0.3070204 0.1226144
0.0000000 0.3120646 0.1247059
0.0000000 0.3171088 0.1267974
0.0000000 0.3221530 0.1288889
0.0000000 0.3271972 0.1309804
0.0000000 0.3322414 0.1330719
0.0000000 0.3372857 0.1351634
0.0000000 0.3423299 0.1372549
0.0000000 0.3473741 0.1393464
0.0000000 0.3524183 0.1414379
0.0000000 0.3574625 0.1435294
0.0000000 0.3625067 0.1456209
0.0000000 0.3675509 0.1477124
0.0000000 0.3725952 0.1498039
0.0000000 0.3776394 0.1518954
0.0000000 0.3826836 0.1539869
0.0000000 0.3877278 0.1560784
0.0000000 0.3927720 0.1581699
0.0000000 0.3978162 0.1602614
0.0000000 0.4028604 0.1623529
0.0000000 0.4079047 0.1644444
0.0000000 0.4129489 0.1665359
0.0000000 0.4179931 0.1686275
0.0000000 0.4230373 0.1707190
0.0005383 0.4279123 0.1729335
0.0048443 0.4316032 0.1760092
0.0091503 0.4352941 0.1790850
0.0134564 0.4389850 0.1821607
0.0177624 0.4426759 0.1852364
0.0220684 0.4463668 0.1883122
0.0263745 0.4500577 0.1913879
0.0306805 0.4537486 0.1944637
0.0349865 0.4574394 0.1975394
0.0392926 0.4611303 0.2006151
0.0435986 0.4648212 0.2036909
0.0479047 0.4685121 0.2067666
0.0522107 0.4722030 0.2098424
0.0565167 0.4758939 0.2129181
0.0608228 0.4795848 0.2159938
0.0651288 0.4832757 0.2190696
0.0694348 0.4869666 0.2221453
0.0737409 0.4906574 0.2252211
0.0780469 0.4943483 0.2282968
0.0823529 0.4980392 0.2313725
0.0866590 0.5017301 0.2344483
0.0909650 0.5054210 0.2375240
0.0952710 0.5091119 0.2405998
0.0995771 0.5128028 0.2436755
0.1038831 0.5164937 0.2467512
0.1081892 0.5201845 0.2498270
0.1124952 0.5238754 0.2529027
0.1168012 0.5275663 0.2559785
0.1211073 0.5312572 0.2590542
0.1254133 0.5349481 0.2621300
0.1297193 0.5386390 0.2652057
0.1340254 0.5423299 0.2682814
0.1381776 0.5461745 0.2720953
0.1418685 0.5504806 0.2781238
0.1455594 0.5547866 0.2841522
0.1492503 0.5590927 0.2901807
0.1529412 0.5633987 0.2962092
0.1566321 0.5677047 0.3022376
0.1603230 0.5720108 0.3082661
0.1640138 0.5763168 0.3142945
0.1677047 0.5806228 0.3203230
0.1713956 0.5849289 0.3263514
0.1750865 0.5892349 0.3323799
0.1787774 0.5935409 0.3384083
0.1824683 0.5978470 0.3444368
0.1861592 0.6021530 0.3504652
0.1898501 0.6064591 0.3564937
0.1935409 0.6107651 0.3625221
0.1972318 0.6150711 0.3685506
0.2009227 0.6193772 0.3745790
0.2046136 0.6236832 0.3806075
0.2083045 0.6279892 0.3866359
0.2119954 0.6322953 0.3926644
0.2156863 0.6366013 0.3986928
0.2193772 0.6409073 0.4047213
0.2230681 0.6452134 0.4107497
0.2267589 0.6495194 0.4167782
0.2304498 0.6538255 0.4228066
0.2341407 0.6581315 0.4288351
0.2378316 0.6624375 0.4348635
0.2415225 0.6667436 0.4408920
0.2452134 0.6710496 0.4469204
0.2489043 0.6753556 0.4529489
0.2525952 0.6796617 0.4589773
0.2566090 0.6832757 0.4648674
0.2611611 0.6857363 0.4705267
0.2657132 0.6881968 0.4761861
0.2702653 0.6906574 0.4818454
0.2748174 0.6931180 0.4875048
0.2793695 0.6955786 0.4931642
0.2839216 0.6980392 0.4988235
0.2884737 0.7004998 0.5044829
0.2930258 0.7029604 0.5101423
0.2975779 0.7054210 0.5158016
0.3021300 0.7078816 0.5214610
0.3066820 0.7103422 0.5271203
0.3112341 0.7128028 0.5327797
0.3157862 0.7152634 0.5384391
0.3203383 0.7177240 0.5440984
0.3248904 0.7201845 0.5497578
0.3294425 0.7226451 0.5554171
0.3339946 0.7251057 0.5610765
0.3385467 0.7275663 0.5667359
0.3430988 0.7300269 0.5723952
0.3476509 0.7324875 0.5780546
0.3522030 0.7349481 0.5837140
0.3567551 0.7374087 0.5893733
0.3613072 0.7398693 0.5950327
0.3658593 0.7423299 0.6006920
0.3704114 0.7447905 0.6063514
0.3749635 0.7472511 0.6120108
0.3795156 0.7497116 0.6176701
0.3840677 0.7521722 0.6233295
0.3886198 0.7546328 0.6289889
0.3931719 0.7570934 0.6346482
0.3977240 0.7595540 0.6403076
0.4031373 0.7621376 0.6454133
0.4094118 0.7648443 0.6499654
0.4156863 0.7675509 0.6545175
0.4219608 0.7702576 0.6590696
0.4282353 0.7729642 0.6636217
0.4345098 0.7756709 0.6681738
0.4407843 0.7783775 0.6727259
0.4470588 0.7810842 0.6772780
0.4533333 0.7837908 0.6818301
0.4596078 0.7864975 0.6863822
0.4658824 0.7892042 0.6909343
0.4721569 0.7919108 0.6954864
0.4784314 0.7946175 0.7000384
0.4847059 0.7973241 0.7045905
0.4909804 0.8000308 0.7091426
0.4972549 0.8027374 0.7136947
0.5035294 0.8054441 0.7182468
0.5098039 0.8081507 0.7227989
0.5160784 0.8108574 0.7273510
0.5223529 0.8135640 0.7319031
0.5286275 0.8162707 0.7364552
0.5349020 0.8189773 0.7410073
0.5411765 0.8216840 0.7455594
0.5474510 0.8243906 0.7501115
0.5537255 0.8270973 0.7546636
0.5600000 0.8298039 0.7592157
0.5662745 0.8325106 0.7637678
0.5725490 0.8352172 0.7683199
0.5788235 0.8379239 0.7728720
0.5850980 0.8406305 0.7774241
0.5913725 0.8433372 0.7819762
0.5976471 0.8460438 0.7865283
0.6039216 0.8485967 0.7904652
0.6101961 0.8510573 0.7940331
0.6164706 0.8535179 0.7976009
0.6227451 0.8559785 0.8011688
0.6290196 0.8584391 0.8047366
0.6352941 0.8608997 0.8083045
0.6415686 0.8633602 0.8118724
0.6478431 0.8658208 0.8154402
0.6541176 0.8682814 0.8190081
0.6603922 0.8707420 0.8225759
0.6666667 0.8732026 0.8261438
0.6729412 0.8756632 0.8297116
0.6792157 0.8781238 0.8332795
0.6854902 0.8805844 0.8368474
0.6917647 0.8830450 0.8404152
0.6980392 0.8855056 0.8439831
0.7043137 0.8879662 0.8475509
0.7105882 0.8904268 0.8511188
0.7168627 0.8928874 0.8546867
0.7231373 0.8953479 0.8582545
0.7294118 0.8978085 0.8618224
0.7356863 0.9002691 0.8653902
0.7419608 0.9027297 0.8689581
0.7482353 0.9051903 0.8725260
0.7545098 0.9076509 0.8760938
0.7607843 0.9101115 0.8796617
0.7670588 0.9125721 0.8832295
0.7733333 0.9150327 0.8867974
0.7796078 0.9174933 0.8903652
0.7858824 0.9199539 0.8939331
0.7921569 0.9224145 0.8975010
0.7984314 0.9248750 0.9010688
0.8023068 0.9263206 0.9037140
0.8053825 0.9274279 0.9060515
0.8084583 0.9285352 0.9083891
0.8115340 0.9296424 0.9107266
0.8146098 0.9307497 0.9130642
0.8176855 0.9318570 0.9154018
0.8207612 0.9329642 0.9177393
0.8238370 0.9340715 0.9200769
0.8269127 0.9351788 0.9224145
0.8299885 0.9362860 0.9247520
0.8330642 0.9373933 0.9270896
0.8361399 0.9385006 0.9294271
0.8392157 0.9396078 0.9317647
0.8422914 0.9407151 0.9341023
0.8453672 0.9418224 0.9364398
0.8484429 0.9429296 0.9387774
0.8515186 0.9440369 0.9411150
0.8545944 0.9451442 0.9434525
0.8576701 0.9462514 0.9457901
0.8607459 0.9473587 0.9481276
0.8638216 0.9484660 0.9504652
0.8668973 0.9495732 0.9528028
0.8699731 0.9506805 0.9551403
0.8730488 0.9517878 0.9574779
0.8761246 0.9528950 0.9598155
0.8792003 0.9540023 0.9621530
0.8822760 0.9551096 0.9644906
0.8853518 0.9562168 0.9668281
0.8884275 0.9573241 0.9691657
0.8915033 0.9584314 0.9715033
0.8945790 0.9595386 0.9738408
0.8976547 0.9606459 0.9761784
0.8999769 0.9615379 0.9769012
0.9021915 0.9623991 0.9773933
0.9044060 0.9632603 0.9778854
0.9066205 0.9641215 0.9783775
0.9088351 0.9649827 0.9788697
0.9110496 0.9658439 0.9793618
0.9132641 0.9667051 0.9798539
0.9154787 0.9675663 0.9803460
0.9176932 0.9684275 0.9808381
0.9199077 0.9692887 0.9813303
0.9221223 0.9701499 0.9818224
0.9243368 0.9710111 0.9823145
0.9265513 0.9718724 0.9828066
0.9287659 0.9727336 0.9832987
0.9309804 0.9735948 0.9837908
0.9331949 0.9744560 0.9842830
0.9354095 0.9753172 0.9847751
0.9376240 0.9761784 0.9852672
0.9398385 0.9770396 0.9857593
0.9420531 0.9779008 0.9862514
0.9442676 0.9787620 0.9867436
0.9464821 0.9796232 0.9872357
0.9486967 0.9804844 0.9877278
0.9509112 0.9813456 0.9882199
0.9531257 0.9822068 0.9887120
0.9553403 0.9830681 0.9892042
0.9575548 0.9839293 0.9896963
0.9597693 0.9847905 0.9901884
0.9619839 0.9856517 0.9906805
0.9641984 0.9865129 0.9911726
0.9664129 0.9873741 0.9916647
0.9686275 0.9882353 0.9921569
