posts/Davinci-Resolve-thermal-luts/colormaps-as-cube/BuPu_r.cube
TITLE "Colormap BuPu_r"
LUT_1D_SIZE 256
0.3019608 0.0000000 0.2941176
0.3083583 0.0018454 0.3001461
0.3147559 0.0036909 0.3061745
0.3211534 0.0055363 0.3122030
0.3275509 0.0073818 0.3182314
0.3339485 0.0092272 0.3242599
0.3403460 0.0110727 0.3302884
0.3467436 0.0129181 0.3363168
0.3531411 0.0147636 0.3423453
0.3595386 0.0166090 0.3483737
0.3659362 0.0184544 0.3544022
0.3723337 0.0202999 0.3604306
0.3787313 0.0221453 0.3664591
0.3851288 0.0239908 0.3724875
0.3915263 0.0258362 0.3785160
0.3979239 0.0276817 0.3845444
0.4043214 0.0295271 0.3905729
0.4107190 0.0313725 0.3966013
0.4171165 0.0332180 0.4026298
0.4235140 0.0350634 0.4086582
0.4299116 0.0369089 0.4146867
0.4363091 0.0387543 0.4207151
0.4427067 0.0405998 0.4267436
0.4491042 0.0424452 0.4327720
0.4555017 0.0442907 0.4388005
0.4618993 0.0461361 0.4448289
0.4682968 0.0479815 0.4508574
0.4746943 0.0498270 0.4568858
0.4810919 0.0516724 0.4629143
0.4874894 0.0535179 0.4689427
0.4938870 0.0553633 0.4749712
0.5002845 0.0572088 0.4809996
0.5059900 0.0595925 0.4867820
0.5068512 0.0657439 0.4908420
0.5077124 0.0718954 0.4949020
0.5085736 0.0780469 0.4989619
0.5094348 0.0841984 0.5030219
0.5102960 0.0903499 0.5070819
0.5111572 0.0965013 0.5111419
0.5120185 0.1026528 0.5152018
0.5128797 0.1088043 0.5192618
0.5137409 0.1149558 0.5233218
0.5146021 0.1211073 0.5273818
0.5154633 0.1272587 0.5314418
0.5163245 0.1334102 0.5355017
0.5171857 0.1395617 0.5395617
0.5180469 0.1457132 0.5436217
0.5189081 0.1518647 0.5476817
0.5197693 0.1580161 0.5517416
0.5206305 0.1641676 0.5558016
0.5214917 0.1703191 0.5598616
0.5223529 0.1764706 0.5639216
0.5232141 0.1826221 0.5679815
0.5240754 0.1887735 0.5720415
0.5249366 0.1949250 0.5761015
0.5257978 0.2010765 0.5801615
0.5266590 0.2072280 0.5842215
0.5275202 0.2133795 0.5882814
0.5283814 0.2195309 0.5923414
0.5292426 0.2256824 0.5964014
0.5301038 0.2318339 0.6004614
0.5309650 0.2379854 0.6045213
0.5318262 0.2441369 0.6085813
0.5326874 0.2502884 0.6126413
0.5334564 0.2561938 0.6163014
0.5339485 0.2613610 0.6187620
0.5344406 0.2665283 0.6212226
0.5349327 0.2716955 0.6236832
0.5354248 0.2768627 0.6261438
0.5359170 0.2820300 0.6286044
0.5364091 0.2871972 0.6310650
0.5369012 0.2923645 0.6335256
0.5373933 0.2975317 0.6359862
0.5378854 0.3026990 0.6384468
0.5383775 0.3078662 0.6409073
0.5388697 0.3130334 0.6433679
0.5393618 0.3182007 0.6458285
0.5398539 0.3233679 0.6482891
0.5403460 0.3285352 0.6507497
0.5408381 0.3337024 0.6532103
0.5413303 0.3388697 0.6556709
0.5418224 0.3440369 0.6581315
0.5423145 0.3492042 0.6605921
0.5428066 0.3543714 0.6630527
0.5432987 0.3595386 0.6655133
0.5437908 0.3647059 0.6679739
0.5442830 0.3698731 0.6704344
0.5447751 0.3750404 0.6728950
0.5452672 0.3802076 0.6753556
0.5457593 0.3853749 0.6778162
0.5462514 0.3905421 0.6802768
0.5467436 0.3957093 0.6827374
0.5472357 0.4008766 0.6851980
0.5477278 0.4060438 0.6876586
0.5482199 0.4112111 0.6901192
0.5487120 0.4163783 0.6925798
0.5490196 0.4215917 0.6950865
0.5490196 0.4268820 0.6976701
0.5490196 0.4321722 0.7002537
0.5490196 0.4374625 0.7028374
0.5490196 0.4427528 0.7054210
0.5490196 0.4480431 0.7080046
0.5490196 0.4533333 0.7105882
0.5490196 0.4586236 0.7131719
0.5490196 0.4639139 0.7157555
0.5490196 0.4692042 0.7183391
0.5490196 0.4744944 0.7209227
0.5490196 0.4797847 0.7235063
0.5490196 0.4850750 0.7260900
0.5490196 0.4903652 0.7286736
0.5490196 0.4956555 0.7312572
0.5490196 0.5009458 0.7338408
0.5490196 0.5062361 0.7364245
0.5490196 0.5115263 0.7390081
0.5490196 0.5168166 0.7415917
0.5490196 0.5221069 0.7441753
0.5490196 0.5273972 0.7467589
0.5490196 0.5326874 0.7493426
0.5490196 0.5379777 0.7519262
0.5490196 0.5432680 0.7545098
0.5490196 0.5485582 0.7570934
0.5490196 0.5538485 0.7596770
0.5490196 0.5591388 0.7622607
0.5490196 0.5644291 0.7648443
0.5490196 0.5697193 0.7674279
0.5490196 0.5750096 0.7700115
0.5490196 0.5802999 0.7725952
0.5490196 0.5855902 0.7751788
0.5501269 0.5905729 0.7777009
0.5523414 0.5952480 0.7801615
0.5545559 0.5999231 0.7826221
0.5567705 0.6045982 0.7850827
0.5589850 0.6092734 0.7875433
0.5611995 0.6139485 0.7900038
0.5634141 0.6186236 0.7924644
0.5656286 0.6232987 0.7949250
0.5678431 0.6279739 0.7973856
0.5700577 0.6326490 0.7998462
0.5722722 0.6373241 0.8023068
0.5744867 0.6419992 0.8047674
0.5767013 0.6466744 0.8072280
0.5789158 0.6513495 0.8096886
0.5811303 0.6560246 0.8121492
0.5833449 0.6606997 0.8146098
0.5855594 0.6653749 0.8170704
0.5877739 0.6700500 0.8195309
0.5899885 0.6747251 0.8219915
0.5922030 0.6794002 0.8244521
0.5944175 0.6840754 0.8269127
0.5966321 0.6887505 0.8293733
0.5988466 0.6934256 0.8318339
0.6010611 0.6981007 0.8342945
0.6032757 0.7027759 0.8367551
0.6054902 0.7074510 0.8392157
0.6077047 0.7121261 0.8416763
0.6099193 0.7168012 0.8441369
0.6121338 0.7214764 0.8465975
0.6143483 0.7261515 0.8490581
0.6165629 0.7308266 0.8515186
0.6187774 0.7355017 0.8539792
0.6221453 0.7390235 0.8558247
0.6262053 0.7418531 0.8573010
0.6302653 0.7446828 0.8587774
0.6343253 0.7475125 0.8602537
0.6383852 0.7503422 0.8617301
0.6424452 0.7531719 0.8632065
0.6465052 0.7560015 0.8646828
0.6505652 0.7588312 0.8661592
0.6546251 0.7616609 0.8676355
0.6586851 0.7644906 0.8691119
0.6627451 0.7673203 0.8705882
0.6668051 0.7701499 0.8720646
0.6708651 0.7729796 0.8735409
0.6749250 0.7758093 0.8750173
0.6789850 0.7786390 0.8764937
0.6830450 0.7814687 0.8779700
0.6871050 0.7842983 0.8794464
0.6911649 0.7871280 0.8809227
0.6952249 0.7899577 0.8823991
0.6992849 0.7927874 0.8838754
0.7033449 0.7956171 0.8853518
0.7074048 0.7984468 0.8868281
0.7114648 0.8012764 0.8883045
0.7155248 0.8041061 0.8897809
0.7195848 0.8069358 0.8912572
0.7236448 0.8097655 0.8927336
0.7277047 0.8125952 0.8942099
0.7317647 0.8154248 0.8956863
0.7358247 0.8182545 0.8971626
0.7398847 0.8210842 0.8986390
0.7439446 0.8239139 0.9001153
0.7480046 0.8267436 0.9015917
0.7520646 0.8297578 0.9032526
0.7561246 0.8328335 0.9049750
0.7601845 0.8359093 0.9066974
0.7642445 0.8389850 0.9084198
0.7683045 0.8420607 0.9101423
0.7723645 0.8451365 0.9118647
0.7764245 0.8482122 0.9135871
0.7804844 0.8512880 0.9153095
0.7845444 0.8543637 0.9170319
0.7886044 0.8574394 0.9187543
0.7926644 0.8605152 0.9204767
0.7967243 0.8635909 0.9221992
0.8007843 0.8666667 0.9239216
0.8048443 0.8697424 0.9256440
0.8089043 0.8728181 0.9273664
0.8129642 0.8758939 0.9290888
0.8170242 0.8789696 0.9308112
0.8210842 0.8820454 0.9325336
0.8251442 0.8851211 0.9342561
0.8292042 0.8881968 0.9359785
0.8332641 0.8912726 0.9377009
0.8373241 0.8943483 0.9394233
0.8413841 0.8974241 0.9411457
0.8454441 0.9004998 0.9428681
0.8495040 0.9035755 0.9445905
0.8535640 0.9066513 0.9463130
0.8576240 0.9097270 0.9480354
0.8616840 0.9128028 0.9497578
0.8657439 0.9158785 0.9514802
0.8698039 0.9189542 0.9532026
0.8738639 0.9220300 0.9549250
0.8779239 0.9251057 0.9566474
0.8809073 0.9272126 0.9578316
0.8837370 0.9291811 0.9589389
0.8865667 0.9311496 0.9600461
0.8893964 0.9331180 0.9611534
0.8922261 0.9350865 0.9622607
0.8950557 0.9370550 0.9633679
0.8978854 0.9390235 0.9644752
0.9007151 0.9409919 0.9655825
0.9035448 0.9429604 0.9666897
0.9063745 0.9449289 0.9677970
0.9092042 0.9468973 0.9689043
0.9120338 0.9488658 0.9700115
0.9148635 0.9508343 0.9711188
0.9176932 0.9528028 0.9722261
0.9205229 0.9547712 0.9733333
0.9233526 0.9567397 0.9744406
0.9261822 0.9587082 0.9755479
0.9290119 0.9606767 0.9766551
0.9318416 0.9626451 0.9777624
0.9346713 0.9646136 0.9788697
0.9375010 0.9665821 0.9799769
0.9403306 0.9685506 0.9810842
0.9431603 0.9705190 0.9821915
0.9459900 0.9724875 0.9832987
0.9488197 0.9744560 0.9844060
0.9516494 0.9764245 0.9855133
0.9544790 0.9783929 0.9866205
0.9573087 0.9803614 0.9877278
0.9601384 0.9823299 0.9888351
0.9629681 0.9842983 0.9899423
0.9657978 0.9862668 0.9910496
0.9686275 0.9882353 0.9921569
