posts/Davinci-Resolve-thermal-luts/colormaps-as-cube/bwr_r.cube
TITLE "Colormap bwr_r"
LUT_1D_SIZE 256
1.0000000 0.0000000 0.0000000
1.0000000 0.0078431 0.0078431
1.0000000 0.0156863 0.0156863
1.0000000 0.0235294 0.0235294
1.0000000 0.0313725 0.0313725
1.0000000 0.0392157 0.0392157
1.0000000 0.0470588 0.0470588
1.0000000 0.0549020 0.0549020
1.0000000 0.0627451 0.0627451
1.0000000 0.0705882 0.0705882
1.0000000 0.0784314 0.0784314
1.0000000 0.0862745 0.0862745
1.0000000 0.0941176 0.0941176
1.0000000 0.1019608 0.1019608
1.0000000 0.1098039 0.1098039
1.0000000 0.1176471 0.1176471
1.0000000 0.1254902 0.1254902
1.0000000 0.1333333 0.1333333
1.0000000 0.1411765 0.1411765
1.0000000 0.1490196 0.1490196
1.0000000 0.1568627 0.1568627
1.0000000 0.1647059 0.1647059
1.0000000 0.1725490 0.1725490
1.0000000 0.1803922 0.1803922
1.0000000 0.1882353 0.1882353
1.0000000 0.1960784 0.1960784
1.0000000 0.2039216 0.2039216
1.0000000 0.2117647 0.2117647
1.0000000 0.2196078 0.2196078
1.0000000 0.2274510 0.2274510
1.0000000 0.2352941 0.2352941
1.0000000 0.2431373 0.2431373
1.0000000 0.2509804 0.2509804
1.0000000 0.2588235 0.2588235
1.0000000 0.2666667 0.2666667
1.0000000 0.2745098 0.2745098
1.0000000 0.2823529 0.2823529
1.0000000 0.2901961 0.2901961
1.0000000 0.2980392 0.2980392
1.0000000 0.3058824 0.3058824
1.0000000 0.3137255 0.3137255
1.0000000 0.3215686 0.3215686
1.0000000 0.3294118 0.3294118
1.0000000 0.3372549 0.3372549
1.0000000 0.3450980 0.3450980
1.0000000 0.3529412 0.3529412
1.0000000 0.3607843 0.3607843
1.0000000 0.3686275 0.3686275
1.0000000 0.3764706 0.3764706
1.0000000 0.3843137 0.3843137
1.0000000 0.3921569 0.3921569
1.0000000 0.4000000 0.4000000
1.0000000 0.4078431 0.4078431
1.0000000 0.4156863 0.4156863
1.0000000 0.4235294 0.4235294
1.0000000 0.4313725 0.4313725
1.0000000 0.4392157 0.4392157
1.0000000 0.4470588 0.4470588
1.0000000 0.4549020 0.4549020
1.0000000 0.4627451 0.4627451
1.0000000 0.4705882 0.4705882
1.0000000 0.4784314 0.4784314
1.0000000 0.4862745 0.4862745
1.0000000 0.4941176 0.4941176
1.0000000 0.5019608 0.5019608
1.0000000 0.5098039 0.5098039
1.0000000 0.5176471 0.5176471
1.0000000 0.5254902 0.5254902
1.0000000 0.5333333 0.5333333
1.0000000 0.5411765 0.5411765
1.0000000 0.5490196 0.5490196
1.0000000 0.5568627 0.5568627
1.0000000 0.5647059 0.5647059
1.0000000 0.5725490 0.5725490
1.0000000 0.5803922 0.5803922
1.0000000 0.5882353 0.5882353
1.0000000 0.5960784 0.5960784
1.0000000 0.6039216 0.6039216
1.0000000 0.6117647 0.6117647
1.0000000 0.6196078 0.6196078
1.0000000 0.6274510 0.6274510
1.0000000 0.6352941 0.6352941
1.0000000 0.6431373 0.6431373
1.0000000 0.6509804 0.6509804
1.0000000 0.6588235 0.6588235
1.0000000 0.6666667 0.6666667
1.0000000 0.6745098 0.6745098
1.0000000 0.6823529 0.6823529
1.0000000 0.6901961 0.6901961
1.0000000 0.6980392 0.6980392
1.0000000 0.7058824 0.7058824
1.0000000 0.7137255 0.7137255
1.0000000 0.7215686 0.7215686
1.0000000 0.7294118 0.7294118
1.0000000 0.7372549 0.7372549
1.0000000 0.7450980 0.7450980
1.0000000 0.7529412 0.7529412
1.0000000 0.7607843 0.7607843
1.0000000 0.7686275 0.7686275
1.0000000 0.7764706 0.7764706
1.0000000 0.7843137 0.7843137
1.0000000 0.7921569 0.7921569
1.0000000 0.8000000 0.8000000
1.0000000 0.8078431 0.8078431
1.0000000 0.8156863 0.8156863
1.0000000 0.8235294 0.8235294
1.0000000 0.8313725 0.8313725
1.0000000 0.8392157 0.8392157
1.0000000 0.8470588 0.8470588
1.0000000 0.8549020 0.8549020
1.0000000 0.8627451 0.8627451
1.0000000 0.8705882 0.8705882
1.0000000 0.8784314 0.8784314
1.0000000 0.8862745 0.8862745
1.0000000 0.8941176 0.8941176
1.0000000 0.9019608 0.9019608
1.0000000 0.9098039 0.9098039
1.0000000 0.9176471 0.9176471
1.0000000 0.9254902 0.9254902
1.0000000 0.9333333 0.9333333
1.0000000 0.9411765 0.9411765
1.0000000 0.9490196 0.9490196
1.0000000 0.9568627 0.9568627
1.0000000 0.9647059 0.9647059
1.0000000 0.9725490 0.9725490
1.0000000 0.9803922 0.9803922
1.0000000 0.9882353 0.9882353
1.0000000 0.9960784 0.9960784
0.9960784 0.9960784 1.0000000
0.9882353 0.9882353 1.0000000
0.9803922 0.9803922 1.0000000
0.9725490 0.9725490 1.0000000
0.9647059 0.9647059 1.0000000
0.9568627 0.9568627 1.0000000
0.9490196 0.9490196 1.0000000
0.9411765 0.9411765 1.0000000
0.9333333 0.9333333 1.0000000
0.9254902 0.9254902 1.0000000
0.9176471 0.9176471 1.0000000
0.9098039 0.9098039 1.0000000
0.9019608 0.9019608 1.0000000
0.8941176 0.8941176 1.0000000
0.8862745 0.8862745 1.0000000
0.8784314 0.8784314 1.0000000
0.8705882 0.8705882 1.0000000
0.8627451 0.8627451 1.0000000
0.8549020 0.8549020 1.0000000
0.8470588 0.8470588 1.0000000
0.8392157 0.8392157 1.0000000
0.8313725 0.8313725 1.0000000
0.8235294 0.8235294 1.0000000
0.8156863 0.8156863 1.0000000
0.8078431 0.8078431 1.0000000
0.8000000 0.8000000 1.0000000
0.7921569 0.7921569 1.0000000
0.7843137 0.7843137 1.0000000
0.7764706 0.7764706 1.0000000
0.7686275 0.7686275 1.0000000
0.7607843 0.7607843 1.0000000
0.7529412 0.7529412 1.0000000
0.7450980 0.7450980 1.0000000
0.7372549 0.7372549 1.0000000
0.7294118 0.7294118 1.0000000
0.7215686 0.7215686 1.0000000
0.7137255 0.7137255 1.0000000
0.7058824 0.7058824 1.0000000
0.6980392 0.6980392 1.0000000
0.6901961 0.6901961 1.0000000
0.6823529 0.6823529 1.0000000
0.6745098 0.6745098 1.0000000
0.6666667 0.6666667 1.0000000
0.6588235 0.6588235 1.0000000
0.6509804 0.6509804 1.0000000
0.6431373 0.6431373 1.0000000
0.6352941 0.6352941 1.0000000
0.6274510 0.6274510 1.0000000
0.6196078 0.6196078 1.0000000
0.6117647 0.6117647 1.0000000
0.6039216 0.6039216 1.0000000
0.5960784 0.5960784 1.0000000
0.5882353 0.5882353 1.0000000
0.5803922 0.5803922 1.0000000
0.5725490 0.5725490 1.0000000
0.5647059 0.5647059 1.0000000
0.5568627 0.5568627 1.0000000
0.5490196 0.5490196 1.0000000
0.5411765 0.5411765 1.0000000
0.5333333 0.5333333 1.0000000
0.5254902 0.5254902 1.0000000
0.5176471 0.5176471 1.0000000
0.5098039 0.5098039 1.0000000
0.5019608 0.5019608 1.0000000
0.4941176 0.4941176 1.0000000
0.4862745 0.4862745 1.0000000
0.4784314 0.4784314 1.0000000
0.4705882 0.4705882 1.0000000
0.4627451 0.4627451 1.0000000
0.4549020 0.4549020 1.0000000
0.4470588 0.4470588 1.0000000
0.4392157 0.4392157 1.0000000
0.4313725 0.4313725 1.0000000
0.4235294 0.4235294 1.0000000
0.4156863 0.4156863 1.0000000
0.4078431 0.4078431 1.0000000
0.4000000 0.4000000 1.0000000
0.3921569 0.3921569 1.0000000
0.3843137 0.3843137 1.0000000
0.3764706 0.3764706 1.0000000
0.3686275 0.3686275 1.0000000
0.3607843 0.3607843 1.0000000
0.3529412 0.3529412 1.0000000
0.3450980 0.3450980 1.0000000
0.3372549 0.3372549 1.0000000
0.3294118 0.3294118 1.0000000
0.3215686 0.3215686 1.0000000
0.3137255 0.3137255 1.0000000
0.3058824 0.3058824 1.0000000
0.2980392 0.2980392 1.0000000
0.2901961 0.2901961 1.0000000
0.2823529 0.2823529 1.0000000
0.2745098 0.2745098 1.0000000
0.2666667 0.2666667 1.0000000
0.2588235 0.2588235 1.0000000
0.2509804 0.2509804 1.0000000
0.2431373 0.2431373 1.0000000
0.2352941 0.2352941 1.0000000
0.2274510 0.2274510 1.0000000
0.2196078 0.2196078 1.0000000
0.2117647 0.2117647 1.0000000
0.2039216 0.2039216 1.0000000
0.1960784 0.1960784 1.0000000
0.1882353 0.1882353 1.0000000
0.1803922 0.1803922 1.0000000
0.1725490 0.1725490 1.0000000
0.1647059 0.1647059 1.0000000
0.1568627 0.1568627 1.0000000
0.1490196 0.1490196 1.0000000
0.1411765 0.1411765 1.0000000
0.1333333 0.1333333 1.0000000
0.1254902 0.1254902 1.0000000
0.1176471 0.1176471 1.0000000
0.1098039 0.1098039 1.0000000
0.1019608 0.1019608 1.0000000
0.0941176 0.0941176 1.0000000
0.0862745 0.0862745 1.0000000
0.0784314 0.0784314 1.0000000
0.0705882 0.0705882 1.0000000
0.0627451 0.0627451 1.0000000
0.0549020 0.0549020 1.0000000
0.0470588 0.0470588 1.0000000
0.0392157 0.0392157 1.0000000
0.0313725 0.0313725 1.0000000
0.0235294 0.0235294 1.0000000
0.0156863 0.0156863 1.0000000
0.0078431 0.0078431 1.0000000
0.0000000 0.0000000 1.0000000
