posts/Davinci-Resolve-thermal-luts/colormaps-as-cube/cividis_r.cube
TITLE "Colormap cividis_r"
LUT_1D_SIZE 256
0.9957370 0.9093440 0.2177720
0.9955030 0.9038660 0.2123700
0.9952490 0.8983840 0.2075610
0.9948470 0.8929540 0.2034450
0.9922180 0.8883850 0.2054680
0.9872930 0.8847180 0.2133360
0.9824970 0.8810080 0.2208780
0.9777800 0.8772810 0.2279540
0.9731140 0.8735500 0.2346770
0.9684690 0.8698190 0.2413100
0.9638720 0.8660890 0.2474450
0.9592840 0.8623650 0.2535630
0.9547250 0.8586460 0.2593650
0.9501780 0.8549330 0.2650850
0.9456540 0.8512280 0.2705320
0.9411470 0.8475300 0.2758150
0.9366600 0.8438410 0.2808760
0.9321800 0.8401590 0.2858800
0.9277240 0.8364860 0.2906110
0.9232790 0.8328220 0.2952440
0.9188280 0.8291680 0.2999600
0.9144070 0.8255220 0.3043480
0.9100000 0.8218850 0.3085940
0.9055890 0.8182570 0.3128890
0.9011950 0.8146390 0.3170210
0.8968180 0.8110300 0.3209820
0.8924400 0.8074300 0.3249680
0.8880810 0.8038390 0.3287700
0.8837200 0.8002580 0.3325990
0.8793780 0.7966870 0.3362410
0.8750570 0.7931250 0.3396850
0.8707170 0.7895720 0.3433330
0.8664210 0.7860280 0.3465710
0.8621050 0.7824940 0.3500110
0.8578090 0.7789690 0.3532590
0.8535150 0.7754540 0.3565000
0.8492230 0.7719470 0.3597290
0.8449570 0.7684500 0.3627410
0.8406930 0.7649620 0.3657460
0.8364290 0.7614830 0.3687470
0.8321920 0.7580140 0.3715290
0.8279590 0.7545530 0.3742920
0.8237290 0.7511010 0.3770430
0.8194990 0.7476590 0.3797850
0.8152740 0.7442260 0.3825040
0.8110540 0.7408010 0.3851980
0.8068590 0.7373850 0.3876840
0.8026670 0.7339780 0.3901530
0.7984800 0.7305800 0.3925970
0.7942980 0.7271900 0.3950160
0.7901160 0.7238100 0.3974230
0.7859650 0.7204380 0.3996130
0.7817950 0.7170740 0.4019660
0.7776510 0.7137190 0.4041120
0.7734860 0.7103730 0.4064220
0.7693530 0.7070350 0.4085160
0.7652230 0.7037050 0.4105870
0.7610960 0.7003840 0.4126380
0.7569750 0.6970710 0.4146590
0.7528860 0.6937660 0.4164720
0.7487720 0.6904700 0.4184480
0.7446640 0.6871810 0.4203930
0.7405890 0.6839000 0.4221310
0.7364880 0.6806290 0.4240280
0.7324220 0.6773640 0.4257170
0.7283340 0.6741070 0.4275540
0.7242740 0.6708590 0.4291940
0.7202220 0.6676180 0.4308050
0.7161770 0.6643840 0.4323860
0.7121050 0.6611600 0.4341170
0.7080670 0.6579420 0.4356470
0.7040370 0.6547310 0.4371470
0.7000080 0.6515290 0.4386240
0.6959850 0.6483340 0.4400720
0.6919710 0.6451450 0.4414910
0.6879570 0.6419660 0.4428860
0.6839500 0.6387930 0.4442510
0.6799790 0.6356260 0.4454240
0.6759810 0.6324680 0.4467360
0.6719910 0.6293160 0.4480180
0.6680080 0.6261710 0.4492700
0.6640550 0.6230340 0.4503380
0.6600820 0.6199040 0.4515340
0.6561140 0.6167800 0.4527020
0.6521780 0.6136640 0.4536890
0.6482220 0.6105530 0.4548010
0.6442700 0.6074500 0.4558860
0.6403520 0.6043540 0.4567910
0.6364120 0.6012640 0.4578180
0.6325060 0.5981800 0.4586680
0.6285760 0.5951040 0.4596410
0.6246540 0.5920340 0.4605830
0.6207650 0.5889700 0.4613510
0.6168520 0.5859130 0.4622370
0.6129770 0.5828610 0.4629500
0.6091050 0.5798160 0.4636380
0.6052110 0.5767770 0.4644410
0.6013540 0.5737430 0.4650740
0.5974690 0.5707180 0.4658210
0.5936220 0.5676970 0.4664010
0.5897530 0.5646820 0.4670900
0.5859160 0.5616740 0.4676180
0.5820870 0.5586700 0.4681180
0.5782360 0.5556730 0.4687240
0.5744170 0.5526820 0.4691720
0.5706070 0.5496950 0.4695930
0.5668020 0.5467150 0.4699880
0.5629720 0.5437410 0.4704880
0.5591810 0.5407710 0.4708290
0.5553930 0.5378070 0.4711470
0.5516120 0.5348490 0.4714390
0.5478400 0.5318950 0.4717040
0.5440690 0.5289480 0.4719470
0.5403070 0.5260050 0.4721630
0.5365530 0.5230670 0.4723520
0.5328290 0.5201350 0.4724010
0.5290860 0.5172070 0.4725430
0.5253480 0.5142850 0.4726600
0.5216430 0.5113670 0.4726390
0.5179200 0.5084540 0.4727070
0.5142260 0.5055460 0.4726400
0.5105400 0.5026430 0.4725500
0.5068660 0.4997430 0.4724320
0.5031850 0.4968510 0.4723050
0.4995520 0.4939600 0.4720320
0.4959130 0.4910760 0.4717510
0.4922780 0.4881980 0.4714530
0.4886970 0.4853180 0.4710080
0.4851410 0.4824510 0.4703840
0.4816220 0.4795730 0.4697670
0.4781860 0.4766990 0.4688450
0.4748120 0.4738320 0.4676810
0.4715010 0.4709600 0.4663570
0.4682540 0.4680830 0.4649080
0.4649470 0.4652410 0.4633950
0.4616160 0.4624050 0.4619690
0.4583660 0.4595520 0.4604570
0.4550720 0.4567180 0.4589760
0.4517590 0.4538870 0.4575820
0.4484470 0.4510530 0.4562640
0.4451480 0.4482260 0.4548850
0.4418100 0.4454020 0.4536590
0.4385040 0.4425800 0.4523410
0.4351680 0.4397630 0.4511340
0.4318170 0.4369500 0.4499820
0.4284620 0.4341400 0.4488640
0.4251200 0.4313340 0.4476920
0.4217480 0.4285310 0.4466400
0.4183830 0.4257330 0.4455600
0.4149920 0.4229370 0.4445780
0.4116070 0.4201450 0.4435770
0.4082260 0.4173570 0.4425700
0.4048200 0.4145720 0.4416420
0.4014180 0.4117900 0.4407080
0.3979910 0.4090110 0.4398480
0.3945680 0.4062360 0.4389860
0.3911510 0.4034640 0.4380960
0.3877050 0.4006940 0.4373050
0.3842680 0.3979280 0.4364750
0.3808300 0.3951640 0.4356530
0.3773710 0.3924040 0.4348900
0.3738840 0.3896460 0.4342090
0.3704300 0.3868900 0.4334280
0.3669230 0.3841390 0.4327960
0.3634460 0.3813880 0.4320750
0.3599160 0.3786410 0.4315010
0.3564180 0.3758960 0.4308230
0.3528920 0.3731530 0.4302260
0.3493410 0.3704140 0.4296850
0.3457930 0.3676760 0.4291270
0.3422460 0.3649390 0.4285590
0.3386730 0.3622060 0.4280530
0.3350730 0.3594740 0.4276050
0.3314740 0.3567440 0.4271440
0.3278750 0.3540160 0.4266700
0.3242500 0.3512890 0.4262500
0.3205950 0.3485650 0.4258890
0.3169410 0.3458420 0.4255120
0.3132870 0.3431200 0.4251200
0.3096010 0.3403990 0.4247900
0.3058860 0.3376810 0.4245120
0.3021690 0.3349630 0.4242130
0.2984210 0.3322470 0.4239730
0.2946690 0.3295310 0.4237160
0.2908840 0.3268160 0.4235170
0.2870650 0.3241030 0.4233730
0.2832400 0.3213900 0.4232110
0.2794110 0.3186770 0.4230310
0.2755130 0.3159650 0.4229790
0.2716390 0.3132530 0.4228370
0.2676930 0.3105420 0.4228210
0.2637380 0.3078310 0.4227890
0.2597400 0.3051200 0.4228100
0.2557310 0.3024090 0.4228140
0.2516750 0.2996980 0.4228730
0.2476050 0.2969860 0.4229170
0.2434850 0.2942740 0.4230140
0.2393120 0.2915620 0.4231670
0.2351200 0.2888480 0.4233040
0.2308710 0.2861340 0.4234980
0.2265980 0.2834190 0.4236780
0.2222640 0.2807020 0.4239140
0.2178630 0.2779850 0.4242060
0.2134310 0.2752660 0.4244800
0.2089260 0.2725460 0.4248090
0.2043850 0.2698230 0.4251260
0.1997640 0.2670990 0.4254970
0.1950570 0.2643720 0.4259240
0.1903030 0.2616440 0.4263290
0.1854530 0.2589140 0.4267880
0.1805030 0.2561800 0.4272990
0.1754900 0.2534440 0.4277900
0.1703620 0.2507070 0.4283250
0.1651130 0.2479650 0.4289080
0.1597330 0.2452210 0.4295280
0.1542610 0.2424750 0.4301200
0.1486380 0.2397240 0.4307520
0.1428520 0.2369720 0.4314040
0.1368300 0.2342160 0.4321480
0.1306690 0.2314580 0.4328400
0.1242910 0.2286970 0.4335470
0.1176120 0.2259350 0.4343080
0.1106580 0.2231700 0.4350670
0.1034010 0.2204060 0.4357900
0.0956450 0.2176430 0.4365930
0.0874650 0.2148790 0.4373420
0.0786240 0.2121220 0.4381050
0.0689680 0.2093720 0.4388630
0.0583780 0.2066290 0.4395310
0.0462050 0.2039030 0.4401960
0.0321100 0.2011990 0.4407850
0.0178520 0.1985280 0.4412480
0.0036020 0.1959110 0.4415640
0.0000000 0.1933660 0.4415610
0.0000000 0.1909500 0.4410850
0.0000000 0.1887690 0.4395630
0.0000000 0.1869150 0.4355320
0.0000000 0.1845500 0.4288020
0.0000000 0.1816100 0.4218590
0.0000000 0.1788020 0.4147640
0.0000000 0.1760820 0.4075770
0.0000000 0.1734200 0.4003530
0.0000000 0.1708000 0.3931000
0.0000000 0.1682040 0.3859020
0.0000000 0.1656210 0.3787690
0.0000000 0.1630580 0.3716080
0.0000000 0.1604950 0.3645340
0.0000000 0.1579320 0.3575210
0.0000000 0.1553770 0.3505000
0.0000000 0.1526730 0.3437040
0.0000000 0.1497910 0.3370650
0.0000000 0.1468770 0.3304790
0.0000000 0.1439510 0.3239820
0.0000000 0.1410130 0.3175790
0.0000000 0.1380680 0.3111050
0.0000000 0.1351120 0.3047510
