posts/Davinci-Resolve-thermal-luts/colormaps-as-cube/CMRmap.cube
TITLE "Colormap CMRmap"
LUT_1D_SIZE 256
0.0000000 0.0000000 0.0000000
0.0047059 0.0047059 0.0156863
0.0094118 0.0094118 0.0313725
0.0141176 0.0141176 0.0470588
0.0188235 0.0188235 0.0627451
0.0235294 0.0235294 0.0784314
0.0282353 0.0282353 0.0941176
0.0329412 0.0329412 0.1098039
0.0376471 0.0376471 0.1254902
0.0423529 0.0423529 0.1411765
0.0470588 0.0470588 0.1568627
0.0517647 0.0517647 0.1725490
0.0564706 0.0564706 0.1882353
0.0611765 0.0611765 0.2039216
0.0658824 0.0658824 0.2196078
0.0705882 0.0705882 0.2352941
0.0752941 0.0752941 0.2509804
0.0800000 0.0800000 0.2666667
0.0847059 0.0847059 0.2823529
0.0894118 0.0894118 0.2980392
0.0941176 0.0941176 0.3137255
0.0988235 0.0988235 0.3294118
0.1035294 0.1035294 0.3450980
0.1082353 0.1082353 0.3607843
0.1129412 0.1129412 0.3764706
0.1176471 0.1176471 0.3921569
0.1223529 0.1223529 0.4078431
0.1270588 0.1270588 0.4235294
0.1317647 0.1317647 0.4392157
0.1364706 0.1364706 0.4549020
0.1411765 0.1411765 0.4705882
0.1458824 0.1458824 0.4862745
0.1505882 0.1500000 0.5009804
0.1552941 0.1500000 0.5088235
0.1600000 0.1500000 0.5166667
0.1647059 0.1500000 0.5245098
0.1694118 0.1500000 0.5323529
0.1741176 0.1500000 0.5401961
0.1788235 0.1500000 0.5480392
0.1835294 0.1500000 0.5558824
0.1882353 0.1500000 0.5637255
0.1929412 0.1500000 0.5715686
0.1976471 0.1500000 0.5794118
0.2023529 0.1500000 0.5872549
0.2070588 0.1500000 0.5950980
0.2117647 0.1500000 0.6029412
0.2164706 0.1500000 0.6107843
0.2211765 0.1500000 0.6186275
0.2258824 0.1500000 0.6264706
0.2305882 0.1500000 0.6343137
0.2352941 0.1500000 0.6421569
0.2400000 0.1500000 0.6500000
0.2447059 0.1500000 0.6578431
0.2494118 0.1500000 0.6656863
0.2541176 0.1500000 0.6735294
0.2588235 0.1500000 0.6813725
0.2635294 0.1500000 0.6892157
0.2682353 0.1500000 0.6970588
0.2729412 0.1500000 0.7049020
0.2776471 0.1500000 0.7127451
0.2823529 0.1500000 0.7205882
0.2870588 0.1500000 0.7284314
0.2917647 0.1500000 0.7362745
0.2964706 0.1500000 0.7441176
0.3023529 0.1503922 0.7480392
0.3117647 0.1519608 0.7401961
0.3211765 0.1535294 0.7323529
0.3305882 0.1550980 0.7245098
0.3400000 0.1566667 0.7166667
0.3494118 0.1582353 0.7088235
0.3588235 0.1598039 0.7009804
0.3682353 0.1613725 0.6931373
0.3776471 0.1629412 0.6852941
0.3870588 0.1645098 0.6774510
0.3964706 0.1660784 0.6696078
0.4058824 0.1676471 0.6617647
0.4152941 0.1692157 0.6539216
0.4247059 0.1707843 0.6460784
0.4341176 0.1723529 0.6382353
0.4435294 0.1739216 0.6303922
0.4529412 0.1754902 0.6225490
0.4623529 0.1770588 0.6147059
0.4717647 0.1786275 0.6068627
0.4811765 0.1801961 0.5990196
0.4905882 0.1817647 0.5911765
0.5000000 0.1833333 0.5833333
0.5094118 0.1849020 0.5754902
0.5188235 0.1864706 0.5676471
0.5282353 0.1880392 0.5598039
0.5376471 0.1896078 0.5519608
0.5470588 0.1911765 0.5441176
0.5564706 0.1927451 0.5362745
0.5658824 0.1943137 0.5284314
0.5752941 0.1958824 0.5205882
0.5847059 0.1974510 0.5127451
0.5941176 0.1990196 0.5049020
0.6047059 0.2005882 0.4958824
0.6172549 0.2021569 0.4849020
0.6298039 0.2037255 0.4739216
0.6423529 0.2052941 0.4629412
0.6549020 0.2068627 0.4519608
0.6674510 0.2084314 0.4409804
0.6800000 0.2100000 0.4300000
0.6925490 0.2115686 0.4190196
0.7050980 0.2131373 0.4080392
0.7176471 0.2147059 0.3970588
0.7301961 0.2162745 0.3860784
0.7427451 0.2178431 0.3750980
0.7552941 0.2194118 0.3641176
0.7678431 0.2209804 0.3531373
0.7803922 0.2225490 0.3421569
0.7929412 0.2241176 0.3311765
0.8054902 0.2256863 0.3201961
0.8180392 0.2272549 0.3092157
0.8305882 0.2288235 0.2982353
0.8431373 0.2303922 0.2872549
0.8556863 0.2319608 0.2762745
0.8682353 0.2335294 0.2652941
0.8807843 0.2350980 0.2543137
0.8933333 0.2366667 0.2433333
0.9058824 0.2382353 0.2323529
0.9184314 0.2398039 0.2213725
0.9309804 0.2413725 0.2103922
0.9435294 0.2429412 0.1994118
0.9560784 0.2445098 0.1884314
0.9686275 0.2460784 0.1774510
0.9811765 0.2476471 0.1664706
0.9937255 0.2492157 0.1554902
0.9984314 0.2539216 0.1476471
0.9952941 0.2617647 0.1429412
0.9921569 0.2696078 0.1382353
0.9890196 0.2774510 0.1335294
0.9858824 0.2852941 0.1288235
0.9827451 0.2931373 0.1241176
0.9796078 0.3009804 0.1194118
0.9764706 0.3088235 0.1147059
0.9733333 0.3166667 0.1100000
0.9701961 0.3245098 0.1052941
0.9670588 0.3323529 0.1005882
0.9639216 0.3401961 0.0958824
0.9607843 0.3480392 0.0911765
0.9576471 0.3558824 0.0864706
0.9545098 0.3637255 0.0817647
0.9513725 0.3715686 0.0770588
0.9482353 0.3794118 0.0723529
0.9450980 0.3872549 0.0676471
0.9419608 0.3950980 0.0629412
0.9388235 0.4029412 0.0582353
0.9356863 0.4107843 0.0535294
0.9325490 0.4186275 0.0488235
0.9294118 0.4264706 0.0441176
0.9262745 0.4343137 0.0394118
0.9231373 0.4421569 0.0347059
0.9200000 0.4500000 0.0300000
0.9168627 0.4578431 0.0252941
0.9137255 0.4656863 0.0205882
0.9105882 0.4735294 0.0158824
0.9074510 0.4813725 0.0111765
0.9043137 0.4892157 0.0064706
0.9011765 0.4970588 0.0017647
0.9000000 0.5049020 0.0019608
0.9000000 0.5127451 0.0050980
0.9000000 0.5205882 0.0082353
0.9000000 0.5284314 0.0113725
0.9000000 0.5362745 0.0145098
0.9000000 0.5441176 0.0176471
0.9000000 0.5519608 0.0207843
0.9000000 0.5598039 0.0239216
0.9000000 0.5676471 0.0270588
0.9000000 0.5754902 0.0301961
0.9000000 0.5833333 0.0333333
0.9000000 0.5911765 0.0364706
0.9000000 0.5990196 0.0396078
0.9000000 0.6068627 0.0427451
0.9000000 0.6147059 0.0458824
0.9000000 0.6225490 0.0490196
0.9000000 0.6303922 0.0521569
0.9000000 0.6382353 0.0552941
0.9000000 0.6460784 0.0584314
0.9000000 0.6539216 0.0615686
0.9000000 0.6617647 0.0647059
0.9000000 0.6696078 0.0678431
0.9000000 0.6774510 0.0709804
0.9000000 0.6852941 0.0741176
0.9000000 0.6931373 0.0772549
0.9000000 0.7009804 0.0803922
0.9000000 0.7088235 0.0835294
0.9000000 0.7166667 0.0866667
0.9000000 0.7245098 0.0898039
0.9000000 0.7323529 0.0929412
0.9000000 0.7401961 0.0960784
0.9000000 0.7480392 0.0992157
0.9000000 0.7535294 0.1094118
0.9000000 0.7582353 0.1219608
0.9000000 0.7629412 0.1345098
0.9000000 0.7676471 0.1470588
0.9000000 0.7723529 0.1596078
0.9000000 0.7770588 0.1721569
0.9000000 0.7817647 0.1847059
0.9000000 0.7864706 0.1972549
0.9000000 0.7911765 0.2098039
0.9000000 0.7958824 0.2223529
0.9000000 0.8005882 0.2349020
0.9000000 0.8052941 0.2474510
0.9000000 0.8100000 0.2600000
0.9000000 0.8147059 0.2725490
0.9000000 0.8194118 0.2850980
0.9000000 0.8241176 0.2976471
0.9000000 0.8288235 0.3101961
0.9000000 0.8335294 0.3227451
0.9000000 0.8382353 0.3352941
0.9000000 0.8429412 0.3478431
0.9000000 0.8476471 0.3603922
0.9000000 0.8523529 0.3729412
0.9000000 0.8570588 0.3854902
0.9000000 0.8617647 0.3980392
0.9000000 0.8664706 0.4105882
0.9000000 0.8711765 0.4231373
0.9000000 0.8758824 0.4356863
0.9000000 0.8805882 0.4482353
0.9000000 0.8852941 0.4607843
0.9000000 0.8900000 0.4733333
0.9000000 0.8947059 0.4858824
0.9000000 0.8994118 0.4984314
0.9027451 0.9027451 0.5137255
0.9058824 0.9058824 0.5294118
0.9090196 0.9090196 0.5450980
0.9121569 0.9121569 0.5607843
0.9152941 0.9152941 0.5764706
0.9184314 0.9184314 0.5921569
0.9215686 0.9215686 0.6078431
0.9247059 0.9247059 0.6235294
0.9278431 0.9278431 0.6392157
0.9309804 0.9309804 0.6549020
0.9341176 0.9341176 0.6705882
0.9372549 0.9372549 0.6862745
0.9403922 0.9403922 0.7019608
0.9435294 0.9435294 0.7176471
0.9466667 0.9466667 0.7333333
0.9498039 0.9498039 0.7490196
0.9529412 0.9529412 0.7647059
0.9560784 0.9560784 0.7803922
0.9592157 0.9592157 0.7960784
0.9623529 0.9623529 0.8117647
0.9654902 0.9654902 0.8274510
0.9686275 0.9686275 0.8431373
0.9717647 0.9717647 0.8588235
0.9749020 0.9749020 0.8745098
0.9780392 0.9780392 0.8901961
0.9811765 0.9811765 0.9058824
0.9843137 0.9843137 0.9215686
0.9874510 0.9874510 0.9372549
0.9905882 0.9905882 0.9529412
0.9937255 0.9937255 0.9686275
0.9968627 0.9968627 0.9843137
1.0000000 1.0000000 1.0000000
