posts/Davinci-Resolve-thermal-luts/colormaps-as-cube/coolwarm_r.cube
TITLE "Colormap coolwarm_r"
LUT_1D_SIZE 256
0.7056732 0.0155562 0.1502328
0.7115539 0.0333369 0.1544847
0.7174345 0.0511175 0.1587366
0.7233152 0.0688982 0.1629885
0.7291959 0.0866789 0.1672404
0.7350766 0.1044596 0.1714923
0.7409573 0.1222403 0.1757442
0.7468380 0.1400210 0.1799961
0.7527039 0.1575756 0.1842579
0.7581122 0.1681215 0.1888271
0.7635204 0.1786674 0.1933962
0.7689286 0.1892134 0.1979654
0.7743369 0.1997593 0.2025346
0.7797451 0.2103052 0.2071037
0.7851533 0.2208511 0.2116729
0.7905615 0.2313970 0.2162420
0.7959375 0.2418453 0.2208297
0.8008303 0.2508292 0.2256957
0.8057230 0.2598131 0.2305617
0.8106157 0.2687971 0.2354276
0.8155084 0.2777810 0.2402936
0.8204011 0.2867649 0.2451595
0.8252938 0.2957488 0.2500255
0.8301865 0.3047328 0.2548914
0.8350272 0.3136443 0.2597832
0.8393649 0.3218562 0.2649240
0.8437027 0.3300681 0.2700648
0.8480404 0.3382800 0.2752056
0.8523781 0.3464919 0.2803465
0.8567159 0.3547039 0.2854873
0.8610536 0.3629158 0.2906281
0.8653913 0.3711277 0.2957690
0.8696552 0.3792738 0.3009411
0.8734023 0.3869596 0.3063325
0.8771493 0.3946455 0.3117238
0.8808964 0.4023313 0.3171152
0.8846434 0.4100171 0.3225065
0.8883905 0.4177029 0.3278979
0.8921375 0.4253887 0.3332893
0.8958846 0.4330746 0.3386806
0.8995344 0.4406918 0.3441069
0.9026589 0.4479387 0.3497214
0.9057835 0.4551857 0.3553359
0.9089080 0.4624326 0.3609504
0.9120326 0.4696796 0.3665649
0.9151571 0.4769265 0.3721794
0.9182817 0.4841735 0.3777939
0.9214062 0.4914204 0.3834084
0.9244088 0.4985896 0.3890590
0.9268830 0.5054215 0.3948659
0.9293571 0.5122535 0.4006727
0.9318313 0.5190855 0.4064796
0.9343055 0.5259175 0.4122865
0.9367796 0.5327495 0.4180933
0.9392538 0.5395815 0.4239002
0.9417279 0.5464135 0.4297071
0.9440546 0.5531535 0.4355485
0.9458544 0.5595650 0.4415133
0.9476542 0.5659764 0.4474781
0.9494540 0.5723879 0.4534430
0.9512538 0.5787994 0.4594078
0.9530536 0.5852109 0.4653726
0.9548534 0.5916223 0.4713375
0.9566532 0.5980338 0.4773023
0.9582794 0.6043351 0.4832971
0.9593847 0.6103058 0.4893819
0.9604901 0.6162764 0.4954666
0.9615954 0.6222471 0.5015514
0.9627007 0.6282178 0.5076361
0.9638061 0.6341884 0.5137208
0.9649114 0.6401591 0.5198056
0.9660167 0.6461297 0.5258903
0.9669221 0.6519686 0.5319971
0.9673165 0.6574708 0.5381602
0.9677109 0.6629730 0.5443232
0.9681053 0.6684752 0.5504862
0.9684997 0.6739774 0.5566493
0.9688942 0.6794796 0.5628123
0.9692886 0.6849817 0.5689753
0.9696830 0.6904839 0.5751384
0.9698512 0.6958301 0.5813118
0.9695216 0.7008329 0.5875080
0.9691921 0.7058357 0.5937043
0.9688625 0.7108385 0.5999005
0.9685329 0.7158413 0.6060967
0.9682034 0.7208441 0.6122930
0.9678738 0.7258469 0.6184892
0.9675443 0.7308497 0.6246855
0.9669624 0.7356700 0.6308765
0.9658989 0.7401418 0.6370577
0.9648354 0.7446137 0.6432389
0.9637718 0.7490855 0.6494200
0.9627083 0.7535573 0.6556012
0.9616447 0.7580292 0.6617824
0.9605812 0.7625010 0.6679635
0.9595177 0.7669729 0.6741447
0.9581760 0.7712341 0.6803010
0.9563709 0.7751443 0.6864159
0.9545658 0.7790546 0.6925309
0.9527607 0.7829648 0.6986458
0.9509556 0.7868750 0.7047607
0.9491505 0.7907853 0.7108756
0.9473454 0.7946955 0.7169905
0.9455403 0.7986057 0.7231054
0.9434315 0.8022763 0.7291716
0.9408789 0.8055964 0.7351666
0.9383264 0.8089166 0.7411615
0.9357738 0.8122367 0.7471565
0.9332212 0.8155569 0.7531514
0.9306686 0.8188770 0.7591464
0.9281160 0.8221971 0.7651413
0.9255634 0.8255173 0.7711363
0.9226815 0.8285681 0.7770544
0.9193760 0.8312727 0.7828736
0.9160705 0.8339773 0.7886929
0.9127651 0.8366819 0.7945121
0.9094596 0.8393865 0.8003314
0.9061541 0.8420911 0.8061506
0.9028487 0.8447957 0.8119698
0.8995432 0.8475002 0.8177891
0.8958818 0.8499061 0.8234991
0.8918169 0.8519733 0.8290853
0.8877520 0.8540405 0.8346715
0.8836871 0.8561077 0.8402577
0.8796223 0.8581749 0.8458439
0.8755574 0.8602422 0.8514301
0.8714925 0.8623094 0.8570163
0.8674276 0.8643766 0.8626025
0.8633918 0.8650838 0.8676339
0.8593851 0.8644310 0.8721105
0.8553784 0.8637781 0.8765872
0.8513716 0.8631253 0.8810638
0.8473649 0.8624725 0.8855405
0.8433582 0.8618197 0.8900171
0.8393514 0.8611668 0.8944938
0.8353447 0.8605140 0.8989704
0.8311482 0.8595132 0.9031102
0.8267843 0.8582054 0.9069526
0.8224204 0.8568975 0.9107951
0.8180565 0.8555897 0.9146376
0.8136926 0.8542818 0.9184801
0.8093287 0.8529740 0.9223226
0.8049648 0.8516662 0.9261651
0.8006008 0.8503583 0.9300076
0.7960639 0.8486932 0.9334715
0.7913923 0.8467502 0.9366409
0.7867207 0.8448072 0.9398104
0.7820491 0.8428642 0.9429798
0.7773775 0.8409212 0.9461493
0.7727059 0.8389782 0.9493188
0.7680344 0.8370352 0.9524882
0.7633628 0.8350922 0.9556577
0.7585388 0.8327866 0.9584079
0.7536106 0.8302329 0.9608712
0.7486824 0.8276791 0.9633345
0.7437542 0.8251254 0.9657978
0.7388260 0.8225716 0.9682611
0.7338978 0.8200179 0.9707244
0.7289696 0.8174641 0.9731877
0.7240414 0.8149104 0.9756510
0.7189853 0.8119929 0.9776562
0.7138525 0.8088571 0.9793865
0.7087197 0.8057214 0.9811168
0.7035869 0.8025856 0.9828471
0.6984541 0.7994499 0.9845775
0.6933213 0.7963141 0.9863078
0.6881885 0.7931784 0.9880381
0.6830557 0.7900426 0.9897684
0.6778230 0.7865464 0.9910046
0.6725380 0.7828614 0.9919819
0.6672529 0.7791765 0.9929592
0.6619679 0.7754915 0.9939365
0.6566829 0.7718065 0.9949138
0.6513978 0.7681215 0.9958912
0.6461128 0.7644365 0.9968685
0.6408278 0.7607515 0.9978458
0.6354738 0.7567140 0.9982966
0.6300885 0.7525162 0.9985080
0.6247032 0.7483185 0.9987195
0.6193179 0.7441207 0.9989309
0.6139327 0.7399230 0.9991424
0.6085474 0.7357252 0.9993538
0.6031621 0.7315275 0.9995653
0.5977768 0.7273297 0.9997767
0.5923559 0.7227920 0.9994339
0.5869210 0.7181213 0.9988741
0.5814861 0.7134506 0.9983144
0.5760513 0.7087799 0.9977546
0.5706164 0.7041092 0.9971948
0.5651816 0.6994384 0.9966351
0.5597467 0.6947677 0.9960753
0.5543119 0.6900970 0.9955155
0.5488762 0.6851036 0.9943791
0.5434402 0.6800026 0.9930505
0.5380042 0.6749016 0.9917219
0.5325682 0.6698006 0.9903933
0.5271323 0.6646996 0.9890646
0.5216963 0.6595986 0.9877360
0.5162603 0.6544976 0.9864074
0.5108243 0.6493966 0.9850788
0.5054226 0.6439947 0.9831574
0.5000306 0.6385085 0.9810701
0.4946385 0.6330223 0.9789828
0.4892464 0.6275361 0.9768955
0.4838543 0.6220498 0.9748082
0.4784623 0.6165636 0.9727209
0.4730702 0.6110774 0.9706336
0.4676781 0.6055912 0.9685463
0.4623544 0.5998301 0.9658572
0.4570465 0.5940055 0.9630292
0.4517386 0.5881810 0.9602013
0.4464306 0.5823564 0.9573733
0.4411227 0.5765319 0.9545453
0.4358148 0.5707073 0.9517174
0.4305069 0.5648827 0.9488894
0.4251990 0.5590582 0.9460615
0.4199907 0.5529885 0.9426303
0.4148009 0.5468735 0.9390875
0.4096111 0.5407585 0.9355447
0.4044213 0.5346435 0.9320019
0.3992315 0.5285285 0.9284591
0.3940417 0.5224135 0.9249163
0.3888519 0.5162984 0.9213735
0.3836621 0.5101834 0.9178307
0.3785982 0.5038562 0.9136916
0.3735524 0.4974987 0.9094674
0.3685066 0.4911412 0.9052431
0.3634608 0.4847837 0.9010189
0.3584150 0.4784262 0.8967946
0.3533692 0.4720687 0.8925704
0.3483233 0.4657111 0.8883462
0.3432775 0.4593536 0.8841219
0.3383765 0.4528186 0.8793171
0.3334905 0.4462652 0.8744522
0.3286044 0.4397118 0.8695873
0.3237184 0.4331584 0.8647224
0.3188324 0.4266051 0.8598574
0.3139464 0.4200517 0.8549925
0.3090603 0.4134983 0.8501276
0.3041743 0.4069449 0.8452627
0.2994413 0.4002482 0.8398420
0.2947184 0.3935419 0.8343842
0.2899956 0.3868357 0.8289264
0.2852728 0.3801294 0.8234686
0.2805500 0.3734232 0.8180107
0.2758271 0.3667169 0.8125529
0.2711043 0.3600107 0.8070951
0.2663815 0.3533044 0.8016373
0.2618054 0.3464843 0.7956578
0.2572340 0.3396606 0.7896614
0.2526626 0.3328368 0.7836650
0.2480912 0.3260130 0.7776687
0.2435198 0.3191893 0.7716723
0.2389485 0.3123655 0.7656759
0.2343771 0.3055417 0.7596795
0.2298057 0.2987180 0.7536832
