posts/Davinci-Resolve-thermal-luts/colormaps-as-cube/copper_r.cube
TITLE "Colormap copper_r"
LUT_1D_SIZE 256
1.0000000 0.7812000 0.4975000
1.0000000 0.7781365 0.4955490
1.0000000 0.7750729 0.4935980
1.0000000 0.7720094 0.4916471
1.0000000 0.7689459 0.4896961
1.0000000 0.7658824 0.4877451
1.0000000 0.7628188 0.4857941
1.0000000 0.7597553 0.4838431
1.0000000 0.7566918 0.4818922
1.0000000 0.7536282 0.4799412
1.0000000 0.7505647 0.4779902
1.0000000 0.7475012 0.4760392
1.0000000 0.7444376 0.4740882
1.0000000 0.7413741 0.4721373
1.0000000 0.7383106 0.4701863
1.0000000 0.7352471 0.4682353
1.0000000 0.7321835 0.4662843
1.0000000 0.7291200 0.4643333
1.0000000 0.7260565 0.4623824
1.0000000 0.7229929 0.4604314
1.0000000 0.7199294 0.4584804
1.0000000 0.7168659 0.4565294
1.0000000 0.7138024 0.4545784
1.0000000 0.7107388 0.4526275
1.0000000 0.7076753 0.4506765
1.0000000 0.7046118 0.4487255
1.0000000 0.7015482 0.4467745
1.0000000 0.6984847 0.4448235
1.0000000 0.6954212 0.4428725
1.0000000 0.6923576 0.4409216
1.0000000 0.6892941 0.4389706
1.0000000 0.6862306 0.4370196
1.0000000 0.6831671 0.4350686
1.0000000 0.6801035 0.4331176
1.0000000 0.6770400 0.4311667
1.0000000 0.6739765 0.4292157
1.0000000 0.6709129 0.4272647
1.0000000 0.6678494 0.4253137
1.0000000 0.6647859 0.4233627
1.0000000 0.6617224 0.4214118
1.0000000 0.6586588 0.4194608
1.0000000 0.6555953 0.4175098
1.0000000 0.6525318 0.4155588
1.0000000 0.6494682 0.4136078
1.0000000 0.6464047 0.4116569
1.0000000 0.6433412 0.4097059
1.0000000 0.6402776 0.4077549
1.0000000 0.6372141 0.4058039
1.0000000 0.6341506 0.4038529
0.9979236 0.6310871 0.4019020
0.9930794 0.6280235 0.3999510
0.9882351 0.6249600 0.3980000
0.9833908 0.6218965 0.3960490
0.9785465 0.6188329 0.3940980
0.9737022 0.6157694 0.3921471
0.9688579 0.6127059 0.3901961
0.9640136 0.6096424 0.3882451
0.9591693 0.6065788 0.3862941
0.9543250 0.6035153 0.3843431
0.9494807 0.6004518 0.3823922
0.9446365 0.5973882 0.3804412
0.9397922 0.5943247 0.3784902
0.9349479 0.5912612 0.3765392
0.9301036 0.5881976 0.3745882
0.9252593 0.5851341 0.3726373
0.9204150 0.5820706 0.3706863
0.9155707 0.5790071 0.3687353
0.9107264 0.5759435 0.3667843
0.9058821 0.5728800 0.3648333
0.9010379 0.5698165 0.3628824
0.8961936 0.5667529 0.3609314
0.8913493 0.5636894 0.3589804
0.8865050 0.5606259 0.3570294
0.8816607 0.5575624 0.3550784
0.8768164 0.5544988 0.3531275
0.8719721 0.5514353 0.3511765
0.8671278 0.5483718 0.3492255
0.8622835 0.5453082 0.3472745
0.8574392 0.5422447 0.3453235
0.8525950 0.5391812 0.3433725
0.8477507 0.5361176 0.3414216
0.8429064 0.5330541 0.3394706
0.8380621 0.5299906 0.3375196
0.8332178 0.5269271 0.3355686
0.8283735 0.5238635 0.3336176
0.8235292 0.5208000 0.3316667
0.8186849 0.5177365 0.3297157
0.8138406 0.5146729 0.3277647
0.8089963 0.5116094 0.3258137
0.8041521 0.5085459 0.3238627
0.7993078 0.5054824 0.3219118
0.7944635 0.5024188 0.3199608
0.7896192 0.4993553 0.3180098
0.7847749 0.4962918 0.3160588
0.7799306 0.4932282 0.3141078
0.7750863 0.4901647 0.3121569
0.7702420 0.4871012 0.3102059
0.7653977 0.4840376 0.3082549
0.7605535 0.4809741 0.3063039
0.7557092 0.4779106 0.3043529
0.7508649 0.4748471 0.3024020
0.7460206 0.4717835 0.3004510
0.7411763 0.4687200 0.2985000
0.7363320 0.4656565 0.2965490
0.7314877 0.4625929 0.2945980
0.7266434 0.4595294 0.2926471
0.7217991 0.4564659 0.2906961
0.7169548 0.4534024 0.2887451
0.7121106 0.4503388 0.2867941
0.7072663 0.4472753 0.2848431
0.7024220 0.4442118 0.2828922
0.6975777 0.4411482 0.2809412
0.6927334 0.4380847 0.2789902
0.6878891 0.4350212 0.2770392
0.6830448 0.4319576 0.2750882
0.6782005 0.4288941 0.2731373
0.6733562 0.4258306 0.2711863
0.6685120 0.4227671 0.2692353
0.6636677 0.4197035 0.2672843
0.6588234 0.4166400 0.2653333
0.6539791 0.4135765 0.2633824
0.6491348 0.4105129 0.2614314
0.6442905 0.4074494 0.2594804
0.6394462 0.4043859 0.2575294
0.6346019 0.4013224 0.2555784
0.6297576 0.3982588 0.2536275
0.6249133 0.3951953 0.2516765
0.6200691 0.3921318 0.2497255
0.6152248 0.3890682 0.2477745
0.6103805 0.3860047 0.2458235
0.6055362 0.3829412 0.2438725
0.6006919 0.3798776 0.2419216
0.5958476 0.3768141 0.2399706
0.5910033 0.3737506 0.2380196
0.5861590 0.3706871 0.2360686
0.5813147 0.3676235 0.2341176
0.5764705 0.3645600 0.2321667
0.5716262 0.3614965 0.2302157
0.5667819 0.3584329 0.2282647
0.5619376 0.3553694 0.2263137
0.5570933 0.3523059 0.2243627
0.5522490 0.3492424 0.2224118
0.5474047 0.3461788 0.2204608
0.5425604 0.3431153 0.2185098
0.5377161 0.3400518 0.2165588
0.5328718 0.3369882 0.2146078
0.5280276 0.3339247 0.2126569
0.5231833 0.3308612 0.2107059
0.5183390 0.3277976 0.2087549
0.5134947 0.3247341 0.2068039
0.5086504 0.3216706 0.2048529
0.5038061 0.3186071 0.2029020
0.4989618 0.3155435 0.2009510
0.4941175 0.3124800 0.1990000
0.4892732 0.3094165 0.1970490
0.4844290 0.3063529 0.1950980
0.4795847 0.3032894 0.1931471
0.4747404 0.3002259 0.1911961
0.4698961 0.2971624 0.1892451
0.4650518 0.2940988 0.1872941
0.4602075 0.2910353 0.1853431
0.4553632 0.2879718 0.1833922
0.4505189 0.2849082 0.1814412
0.4456746 0.2818447 0.1794902
0.4408303 0.2787812 0.1775392
0.4359861 0.2757176 0.1755882
0.4311418 0.2726541 0.1736373
0.4262975 0.2695906 0.1716863
0.4214532 0.2665271 0.1697353
0.4166089 0.2634635 0.1677843
0.4117646 0.2604000 0.1658333
0.4069203 0.2573365 0.1638824
0.4020760 0.2542729 0.1619314
0.3972317 0.2512094 0.1599804
0.3923875 0.2481459 0.1580294
0.3875432 0.2450824 0.1560784
0.3826989 0.2420188 0.1541275
0.3778546 0.2389553 0.1521765
0.3730103 0.2358918 0.1502255
0.3681660 0.2328282 0.1482745
0.3633217 0.2297647 0.1463235
0.3584774 0.2267012 0.1443725
0.3536331 0.2236376 0.1424216
0.3487888 0.2205741 0.1404706
0.3439446 0.2175106 0.1385196
0.3391003 0.2144471 0.1365686
0.3342560 0.2113835 0.1346176
0.3294117 0.2083200 0.1326667
0.3245674 0.2052565 0.1307157
0.3197231 0.2021929 0.1287647
0.3148788 0.1991294 0.1268137
0.3100345 0.1960659 0.1248627
0.3051902 0.1930024 0.1229118
0.3003460 0.1899388 0.1209608
0.2955017 0.1868753 0.1190098
0.2906574 0.1838118 0.1170588
0.2858131 0.1807482 0.1151078
0.2809688 0.1776847 0.1131569
0.2761245 0.1746212 0.1112059
0.2712802 0.1715576 0.1092549
0.2664359 0.1684941 0.1073039
0.2615916 0.1654306 0.1053529
0.2567473 0.1623671 0.1034020
0.2519031 0.1593035 0.1014510
0.2470588 0.1562400 0.0995000
0.2422145 0.1531765 0.0975490
0.2373702 0.1501129 0.0955980
0.2325259 0.1470494 0.0936471
0.2276816 0.1439859 0.0916961
0.2228373 0.1409224 0.0897451
0.2179930 0.1378588 0.0877941
0.2131487 0.1347953 0.0858431
0.2083044 0.1317318 0.0838922
0.2034602 0.1286682 0.0819412
0.1986159 0.1256047 0.0799902
0.1937716 0.1225412 0.0780392
0.1889273 0.1194776 0.0760882
0.1840830 0.1164141 0.0741373
0.1792387 0.1133506 0.0721863
0.1743944 0.1102871 0.0702353
0.1695501 0.1072235 0.0682843
0.1647058 0.1041600 0.0663333
0.1598616 0.1010965 0.0643824
0.1550173 0.0980329 0.0624314
0.1501730 0.0949694 0.0604804
0.1453287 0.0919059 0.0585294
0.1404844 0.0888424 0.0565784
0.1356401 0.0857788 0.0546275
0.1307958 0.0827153 0.0526765
0.1259515 0.0796518 0.0507255
0.1211072 0.0765882 0.0487745
0.1162629 0.0735247 0.0468235
0.1114187 0.0704612 0.0448725
0.1065744 0.0673976 0.0429216
0.1017301 0.0643341 0.0409706
0.0968858 0.0612706 0.0390196
0.0920415 0.0582071 0.0370686
0.0871972 0.0551435 0.0351176
0.0823529 0.0520800 0.0331667
0.0775086 0.0490165 0.0312157
0.0726643 0.0459529 0.0292647
0.0678201 0.0428894 0.0273137
0.0629758 0.0398259 0.0253627
0.0581315 0.0367624 0.0234118
0.0532872 0.0336988 0.0214608
0.0484429 0.0306353 0.0195098
0.0435986 0.0275718 0.0175588
0.0387543 0.0245082 0.0156078
0.0339100 0.0214447 0.0136569
0.0290657 0.0183812 0.0117059
0.0242214 0.0153176 0.0097549
0.0193772 0.0122541 0.0078039
0.0145329 0.0091906 0.0058529
0.0096886 0.0061271 0.0039020
0.0048443 0.0030635 0.0019510
0.0000000 0.0000000 0.0000000
