posts/Davinci-Resolve-thermal-luts/colormaps-as-cube/cubehelix.cube
TITLE "Colormap cubehelix"
LUT_1D_SIZE 256
0.0000000 0.0000000 0.0000000
0.0067163 0.0021186 0.0059702
0.0132524 0.0042875 0.0121618
0.0195992 0.0065136 0.0185630
0.0257481 0.0088035 0.0251619
0.0316912 0.0111635 0.0319457
0.0374213 0.0135998 0.0389016
0.0429318 0.0161181 0.0460160
0.0482168 0.0187241 0.0532755
0.0532711 0.0214231 0.0606657
0.0580900 0.0242199 0.0681726
0.0626699 0.0271193 0.0757814
0.0670076 0.0301255 0.0834775
0.0711006 0.0332427 0.0912459
0.0749472 0.0364745 0.0990716
0.0785464 0.0398243 0.1069394
0.0818980 0.0432949 0.1148340
0.0850022 0.0468892 0.1227404
0.0878602 0.0506093 0.1306433
0.0904737 0.0544572 0.1385275
0.0928452 0.0584344 0.1463780
0.0949779 0.0625421 0.1541799
0.0968754 0.0667812 0.1619184
0.0985423 0.0711522 0.1695789
0.0999835 0.0756550 0.1771472
0.1012048 0.0802895 0.1846092
0.1022125 0.0850551 0.1919510
0.1030133 0.0899507 0.1991594
0.1036148 0.0949749 0.2062211
0.1040249 0.1001262 0.2131236
0.1042521 0.1054025 0.2198546
0.1043053 0.1108014 0.2264022
0.1041942 0.1163202 0.2327552
0.1039285 0.1219558 0.2389027
0.1035188 0.1277050 0.2448344
0.1029756 0.1335640 0.2505406
0.1023103 0.1395290 0.2560120
0.1015341 0.1455956 0.2612401
0.1006591 0.1517594 0.2662170
0.0996972 0.1580155 0.2709351
0.0986609 0.1643590 0.2753878
0.0975627 0.1707846 0.2795691
0.0964154 0.1772867 0.2834736
0.0952321 0.1838597 0.2870966
0.0940258 0.1904975 0.2904340
0.0928097 0.1971942 0.2934826
0.0915973 0.2039434 0.2962397
0.0904018 0.2107386 0.2987034
0.0892366 0.2175734 0.3008727
0.0881151 0.2244409 0.3027469
0.0870506 0.2313344 0.3043265
0.0860563 0.2382469 0.3056124
0.0851455 0.2451715 0.3066062
0.0843311 0.2521010 0.3073104
0.0836260 0.2590284 0.3077282
0.0830427 0.2659465 0.3078632
0.0825939 0.2728481 0.3077201
0.0822915 0.2797261 0.3073040
0.0821475 0.2865734 0.3066208
0.0821736 0.2933829 0.3056770
0.0823809 0.3001474 0.3044797
0.0827804 0.3068600 0.3030367
0.0833826 0.3135138 0.3013563
0.0841976 0.3201020 0.2994476
0.0852351 0.3266178 0.2973201
0.0865043 0.3330547 0.2949839
0.0880140 0.3394063 0.2924495
0.0897725 0.3456663 0.2897281
0.0917874 0.3518285 0.2868312
0.0940661 0.3578871 0.2837710
0.0966152 0.3638364 0.2805598
0.0994409 0.3696707 0.2772105
0.1025487 0.3753849 0.2737365
0.1059436 0.3809739 0.2701511
0.1096299 0.3864328 0.2664684
0.1136115 0.3917572 0.2627025
0.1178913 0.3969426 0.2588678
0.1224721 0.4019851 0.2549790
0.1273556 0.4068811 0.2510510
0.1325432 0.4116269 0.2470986
0.1380353 0.4162196 0.2431371
0.1438321 0.4206563 0.2391816
0.1499328 0.4249345 0.2352474
0.1563362 0.4290519 0.2313498
0.1630402 0.4330068 0.2275041
0.1700423 0.4367976 0.2237256
0.1773394 0.4404231 0.2200294
0.1849274 0.4438824 0.2164306
0.1928021 0.4471751 0.2129442
0.2009584 0.4503009 0.2095849
0.2093905 0.4532599 0.2063674
0.2180923 0.4560528 0.2033060
0.2270568 0.4586803 0.2004147
0.2362769 0.4611437 0.1977073
0.2457444 0.4634444 0.1951974
0.2554510 0.4655842 0.1928981
0.2653876 0.4675655 0.1908221
0.2755449 0.4693906 0.1889817
0.2859129 0.4710625 0.1873889
0.2964811 0.4725842 0.1860552
0.3072388 0.4739592 0.1849915
0.3181748 0.4751913 0.1842083
0.3292773 0.4762846 0.1837156
0.3405344 0.4772433 0.1835227
0.3519339 0.4780721 0.1836385
0.3634629 0.4787759 0.1840713
0.3751087 0.4793599 0.1848286
0.3868579 0.4798294 0.1859176
0.3986973 0.4801901 0.1873446
0.4106130 0.4804478 0.1891154
0.4225914 0.4806087 0.1912351
0.4346184 0.4806789 0.1937080
0.4466800 0.4806650 0.1965379
0.4587620 0.4805737 0.1997279
0.4708500 0.4804116 0.2032802
0.4829300 0.4801859 0.2071966
0.4949874 0.4799035 0.2114779
0.5070081 0.4795717 0.2161244
0.5189779 0.4791978 0.2211357
0.5308826 0.4787892 0.2265105
0.5427083 0.4783534 0.2322469
0.5544409 0.4778980 0.2383424
0.5660669 0.4774304 0.2447937
0.5775726 0.4769584 0.2515967
0.5889449 0.4764896 0.2587468
0.6001706 0.4760316 0.2662388
0.6112369 0.4755919 0.2740665
0.6221315 0.4751783 0.2822234
0.6328422 0.4747981 0.2907021
0.6433573 0.4744589 0.2994948
0.6536652 0.4741681 0.3085929
0.6637551 0.4739329 0.3179873
0.6736163 0.4737605 0.3276684
0.6832387 0.4736580 0.3376260
0.6926126 0.4736323 0.3478493
0.7017290 0.4736901 0.3583270
0.7105790 0.4738381 0.3690474
0.7191546 0.4740827 0.3799984
0.7274482 0.4744300 0.3911672
0.7354527 0.4748862 0.4025409
0.7431615 0.4754570 0.4141061
0.7505688 0.4761479 0.4258489
0.7576694 0.4769644 0.4377552
0.7644584 0.4779115 0.4498107
0.7709317 0.4789939 0.4620007
0.7770860 0.4802164 0.4743104
0.7829183 0.4815830 0.4867245
0.7884265 0.4830979 0.4992279
0.7936089 0.4847646 0.5118051
0.7984646 0.4865865 0.5244405
0.8029934 0.4885668 0.5371187
0.8071956 0.4907081 0.5498239
0.8110720 0.4930129 0.5625404
0.8146245 0.4954832 0.5752526
0.8178553 0.4981208 0.5879449
0.8207671 0.5009272 0.6006018
0.8233636 0.5039033 0.6132080
0.8256489 0.5070501 0.6257480
0.8276277 0.5103678 0.6382069
0.8293053 0.5138566 0.6505698
0.8306876 0.5175161 0.6628221
0.8317811 0.5213458 0.6749494
0.8325929 0.5253447 0.6869377
0.8331304 0.5295114 0.6987732
0.8334019 0.5338445 0.7104426
0.8334159 0.5383418 0.7219330
0.8331815 0.5430012 0.7332317
0.8327083 0.5478200 0.7443266
0.8320062 0.5527954 0.7552060
0.8310857 0.5579240 0.7658589
0.8299577 0.5632024 0.7762744
0.8286333 0.5686268 0.7864426
0.8271241 0.5741930 0.7963538
0.8254421 0.5798968 0.8059990
0.8235994 0.5857333 0.8153699
0.8216085 0.5916979 0.8244585
0.8194821 0.5977853 0.8332578
0.8172332 0.6039901 0.8417613
0.8148750 0.6103068 0.8499629
0.8124208 0.6167296 0.8578576
0.8098839 0.6232524 0.8654408
0.8072781 0.6298691 0.8727086
0.8046168 0.6365734 0.8796578
0.8019139 0.6433587 0.8862861
0.7991830 0.6502183 0.8925917
0.7964379 0.6571457 0.8985735
0.7936921 0.6641337 0.9042312
0.7909592 0.6711755 0.9095651
0.7882529 0.6782641 0.9145763
0.7855863 0.6853922 0.9192667
0.7829728 0.6925527 0.9236386
0.7804252 0.6997385 0.9276953
0.7779565 0.7069422 0.9314406
0.7755791 0.7141567 0.9348791
0.7733054 0.7213747 0.9380159
0.7711472 0.7285891 0.9408569
0.7691163 0.7357928 0.9434086
0.7672239 0.7429786 0.9456782
0.7654809 0.7501396 0.9476733
0.7638979 0.7572689 0.9494023
0.7624848 0.7643597 0.9508741
0.7612515 0.7714053 0.9520982
0.7602069 0.7783993 0.9530844
0.7593598 0.7853352 0.9538434
0.7587183 0.7922069 0.9543861
0.7582901 0.7990084 0.9547239
0.7580822 0.8057338 0.9548688
0.7581011 0.8123776 0.9548329
0.7583527 0.8189344 0.9546289
0.7588425 0.8253990 0.9542699
0.7595750 0.8317666 0.9537692
0.7605545 0.8380325 0.9531403
0.7617844 0.8441925 0.9523972
0.7632674 0.8502423 0.9515540
0.7650060 0.8561782 0.9506249
0.7670014 0.8619968 0.9496243
0.7692548 0.8676949 0.9485670
0.7717662 0.8732697 0.9474674
0.7745352 0.8787185 0.9463405
0.7775608 0.8840393 0.9452008
0.7808412 0.8892301 0.9440632
0.7843740 0.8942894 0.9429423
0.7881561 0.8992162 0.9418527
0.7921838 0.9040095 0.9408089
0.7964528 0.9086690 0.9398254
0.8009580 0.9131944 0.9389161
0.8056940 0.9175861 0.9380950
0.8106543 0.9218447 0.9373759
0.8158323 0.9259711 0.9367721
0.8212206 0.9299667 0.9362966
0.8268111 0.9338331 0.9359622
0.8325955 0.9375724 0.9357812
0.8385645 0.9411869 0.9357656
0.8447088 0.9446794 0.9359266
0.8510181 0.9480530 0.9362755
0.8574821 0.9513110 0.9368225
0.8640897 0.9544571 0.9375776
0.8708296 0.9574954 0.9385503
0.8776899 0.9604303 0.9397493
0.8846586 0.9632664 0.9411828
0.8917232 0.9660086 0.9428583
0.8988707 0.9686622 0.9447827
0.9060882 0.9712326 0.9469623
0.9133623 0.9737257 0.9494024
0.9206794 0.9761475 0.9521080
0.9280258 0.9785041 0.9550830
0.9353875 0.9808020 0.9583309
0.9427505 0.9830480 0.9618541
0.9501006 0.9852488 0.9656544
0.9574237 0.9874116 0.9697328
0.9647055 0.9895434 0.9740896
0.9719318 0.9916517 0.9787242
0.9790885 0.9937439 0.9836351
0.9861613 0.9958275 0.9888201
0.9931365 0.9979103 0.9942764
1.0000000 1.0000000 1.0000000
