posts/Davinci-Resolve-thermal-luts/colormaps-as-cube/Dark2.cube
TITLE "Colormap Dark2"
LUT_1D_SIZE 256
0.1058824 0.6196078 0.4666667
0.1058824 0.6196078 0.4666667
0.1058824 0.6196078 0.4666667
0.1058824 0.6196078 0.4666667
0.1058824 0.6196078 0.4666667
0.1058824 0.6196078 0.4666667
0.1058824 0.6196078 0.4666667
0.1058824 0.6196078 0.4666667
0.1058824 0.6196078 0.4666667
0.1058824 0.6196078 0.4666667
0.1058824 0.6196078 0.4666667
0.1058824 0.6196078 0.4666667
0.1058824 0.6196078 0.4666667
0.1058824 0.6196078 0.4666667
0.1058824 0.6196078 0.4666667
0.1058824 0.6196078 0.4666667
0.1058824 0.6196078 0.4666667
0.1058824 0.6196078 0.4666667
0.1058824 0.6196078 0.4666667
0.1058824 0.6196078 0.4666667
0.1058824 0.6196078 0.4666667
0.1058824 0.6196078 0.4666667
0.1058824 0.6196078 0.4666667
0.1058824 0.6196078 0.4666667
0.1058824 0.6196078 0.4666667
0.1058824 0.6196078 0.4666667
0.1058824 0.6196078 0.4666667
0.1058824 0.6196078 0.4666667
0.1058824 0.6196078 0.4666667
0.1058824 0.6196078 0.4666667
0.1058824 0.6196078 0.4666667
0.1058824 0.6196078 0.4666667
0.8509804 0.3725490 0.0078431
0.8509804 0.3725490 0.0078431
0.8509804 0.3725490 0.0078431
0.8509804 0.3725490 0.0078431
0.8509804 0.3725490 0.0078431
0.8509804 0.3725490 0.0078431
0.8509804 0.3725490 0.0078431
0.8509804 0.3725490 0.0078431
0.8509804 0.3725490 0.0078431
0.8509804 0.3725490 0.0078431
0.8509804 0.3725490 0.0078431
0.8509804 0.3725490 0.0078431
0.8509804 0.3725490 0.0078431
0.8509804 0.3725490 0.0078431
0.8509804 0.3725490 0.0078431
0.8509804 0.3725490 0.0078431
0.8509804 0.3725490 0.0078431
0.8509804 0.3725490 0.0078431
0.8509804 0.3725490 0.0078431
0.8509804 0.3725490 0.0078431
0.8509804 0.3725490 0.0078431
0.8509804 0.3725490 0.0078431
0.8509804 0.3725490 0.0078431
0.8509804 0.3725490 0.0078431
0.8509804 0.3725490 0.0078431
0.8509804 0.3725490 0.0078431
0.8509804 0.3725490 0.0078431
0.8509804 0.3725490 0.0078431
0.8509804 0.3725490 0.0078431
0.8509804 0.3725490 0.0078431
0.8509804 0.3725490 0.0078431
0.8509804 0.3725490 0.0078431
0.4588235 0.4392157 0.7019608
0.4588235 0.4392157 0.7019608
0.4588235 0.4392157 0.7019608
0.4588235 0.4392157 0.7019608
0.4588235 0.4392157 0.7019608
0.4588235 0.4392157 0.7019608
0.4588235 0.4392157 0.7019608
0.4588235 0.4392157 0.7019608
0.4588235 0.4392157 0.7019608
0.4588235 0.4392157 0.7019608
0.4588235 0.4392157 0.7019608
0.4588235 0.4392157 0.7019608
0.4588235 0.4392157 0.7019608
0.4588235 0.4392157 0.7019608
0.4588235 0.4392157 0.7019608
0.4588235 0.4392157 0.7019608
0.4588235 0.4392157 0.7019608
0.4588235 0.4392157 0.7019608
0.4588235 0.4392157 0.7019608
0.4588235 0.4392157 0.7019608
0.4588235 0.4392157 0.7019608
0.4588235 0.4392157 0.7019608
0.4588235 0.4392157 0.7019608
0.4588235 0.4392157 0.7019608
0.4588235 0.4392157 0.7019608
0.4588235 0.4392157 0.7019608
0.4588235 0.4392157 0.7019608
0.4588235 0.4392157 0.7019608
0.4588235 0.4392157 0.7019608
0.4588235 0.4392157 0.7019608
0.4588235 0.4392157 0.7019608
0.4588235 0.4392157 0.7019608
0.9058824 0.1607843 0.5411765
0.9058824 0.1607843 0.5411765
0.9058824 0.1607843 0.5411765
0.9058824 0.1607843 0.5411765
0.9058824 0.1607843 0.5411765
0.9058824 0.1607843 0.5411765
0.9058824 0.1607843 0.5411765
0.9058824 0.1607843 0.5411765
0.9058824 0.1607843 0.5411765
0.9058824 0.1607843 0.5411765
0.9058824 0.1607843 0.5411765
0.9058824 0.1607843 0.5411765
0.9058824 0.1607843 0.5411765
0.9058824 0.1607843 0.5411765
0.9058824 0.1607843 0.5411765
0.9058824 0.1607843 0.5411765
0.9058824 0.1607843 0.5411765
0.9058824 0.1607843 0.5411765
0.9058824 0.1607843 0.5411765
0.9058824 0.1607843 0.5411765
0.9058824 0.1607843 0.5411765
0.9058824 0.1607843 0.5411765
0.9058824 0.1607843 0.5411765
0.9058824 0.1607843 0.5411765
0.9058824 0.1607843 0.5411765
0.9058824 0.1607843 0.5411765
0.9058824 0.1607843 0.5411765
0.9058824 0.1607843 0.5411765
0.9058824 0.1607843 0.5411765
0.9058824 0.1607843 0.5411765
0.9058824 0.1607843 0.5411765
0.9058824 0.1607843 0.5411765
0.4000000 0.6509804 0.1176471
0.4000000 0.6509804 0.1176471
0.4000000 0.6509804 0.1176471
0.4000000 0.6509804 0.1176471
0.4000000 0.6509804 0.1176471
0.4000000 0.6509804 0.1176471
0.4000000 0.6509804 0.1176471
0.4000000 0.6509804 0.1176471
0.4000000 0.6509804 0.1176471
0.4000000 0.6509804 0.1176471
0.4000000 0.6509804 0.1176471
0.4000000 0.6509804 0.1176471
0.4000000 0.6509804 0.1176471
0.4000000 0.6509804 0.1176471
0.4000000 0.6509804 0.1176471
0.4000000 0.6509804 0.1176471
0.4000000 0.6509804 0.1176471
0.4000000 0.6509804 0.1176471
0.4000000 0.6509804 0.1176471
0.4000000 0.6509804 0.1176471
0.4000000 0.6509804 0.1176471
0.4000000 0.6509804 0.1176471
0.4000000 0.6509804 0.1176471
0.4000000 0.6509804 0.1176471
0.4000000 0.6509804 0.1176471
0.4000000 0.6509804 0.1176471
0.4000000 0.6509804 0.1176471
0.4000000 0.6509804 0.1176471
0.4000000 0.6509804 0.1176471
0.4000000 0.6509804 0.1176471
0.4000000 0.6509804 0.1176471
0.4000000 0.6509804 0.1176471
0.9019608 0.6705882 0.0078431
0.9019608 0.6705882 0.0078431
0.9019608 0.6705882 0.0078431
0.9019608 0.6705882 0.0078431
0.9019608 0.6705882 0.0078431
0.9019608 0.6705882 0.0078431
0.9019608 0.6705882 0.0078431
0.9019608 0.6705882 0.0078431
0.9019608 0.6705882 0.0078431
0.9019608 0.6705882 0.0078431
0.9019608 0.6705882 0.0078431
0.9019608 0.6705882 0.0078431
0.9019608 0.6705882 0.0078431
0.9019608 0.6705882 0.0078431
0.9019608 0.6705882 0.0078431
0.9019608 0.6705882 0.0078431
0.9019608 0.6705882 0.0078431
0.9019608 0.6705882 0.0078431
0.9019608 0.6705882 0.0078431
0.9019608 0.6705882 0.0078431
0.9019608 0.6705882 0.0078431
0.9019608 0.6705882 0.0078431
0.9019608 0.6705882 0.0078431
0.9019608 0.6705882 0.0078431
0.9019608 0.6705882 0.0078431
0.9019608 0.6705882 0.0078431
0.9019608 0.6705882 0.0078431
0.9019608 0.6705882 0.0078431
0.9019608 0.6705882 0.0078431
0.9019608 0.6705882 0.0078431
0.9019608 0.6705882 0.0078431
0.9019608 0.6705882 0.0078431
0.6509804 0.4627451 0.1137255
0.6509804 0.4627451 0.1137255
0.6509804 0.4627451 0.1137255
0.6509804 0.4627451 0.1137255
0.6509804 0.4627451 0.1137255
0.6509804 0.4627451 0.1137255
0.6509804 0.4627451 0.1137255
0.6509804 0.4627451 0.1137255
0.6509804 0.4627451 0.1137255
0.6509804 0.4627451 0.1137255
0.6509804 0.4627451 0.1137255
0.6509804 0.4627451 0.1137255
0.6509804 0.4627451 0.1137255
0.6509804 0.4627451 0.1137255
0.6509804 0.4627451 0.1137255
0.6509804 0.4627451 0.1137255
0.6509804 0.4627451 0.1137255
0.6509804 0.4627451 0.1137255
0.6509804 0.4627451 0.1137255
0.6509804 0.4627451 0.1137255
0.6509804 0.4627451 0.1137255
0.6509804 0.4627451 0.1137255
0.6509804 0.4627451 0.1137255
0.6509804 0.4627451 0.1137255
0.6509804 0.4627451 0.1137255
0.6509804 0.4627451 0.1137255
0.6509804 0.4627451 0.1137255
0.6509804 0.4627451 0.1137255
0.6509804 0.4627451 0.1137255
0.6509804 0.4627451 0.1137255
0.6509804 0.4627451 0.1137255
0.6509804 0.4627451 0.1137255
0.4000000 0.4000000 0.4000000
0.4000000 0.4000000 0.4000000
0.4000000 0.4000000 0.4000000
0.4000000 0.4000000 0.4000000
0.4000000 0.4000000 0.4000000
0.4000000 0.4000000 0.4000000
0.4000000 0.4000000 0.4000000
0.4000000 0.4000000 0.4000000
0.4000000 0.4000000 0.4000000
0.4000000 0.4000000 0.4000000
0.4000000 0.4000000 0.4000000
0.4000000 0.4000000 0.4000000
0.4000000 0.4000000 0.4000000
0.4000000 0.4000000 0.4000000
0.4000000 0.4000000 0.4000000
0.4000000 0.4000000 0.4000000
0.4000000 0.4000000 0.4000000
0.4000000 0.4000000 0.4000000
0.4000000 0.4000000 0.4000000
0.4000000 0.4000000 0.4000000
0.4000000 0.4000000 0.4000000
0.4000000 0.4000000 0.4000000
0.4000000 0.4000000 0.4000000
0.4000000 0.4000000 0.4000000
0.4000000 0.4000000 0.4000000
0.4000000 0.4000000 0.4000000
0.4000000 0.4000000 0.4000000
0.4000000 0.4000000 0.4000000
0.4000000 0.4000000 0.4000000
0.4000000 0.4000000 0.4000000
0.4000000 0.4000000 0.4000000
0.4000000 0.4000000 0.4000000
