posts/Davinci-Resolve-thermal-luts/colormaps-as-cube/flag.cube
TITLE "Colormap flag"
LUT_1D_SIZE 256
1.0000000 0.0000000 0.0000000
1.0000000 0.3784111 0.2097893
1.0000000 0.7005430 0.4930701
1.0000000 0.9184870 0.7773816
1.0000000 0.9998293 1.0000000
0.8029408 0.9324722 1.0000000
0.5207873 0.7264336 1.0000000
0.2355422 0.4123563 1.0000000
0.0000000 0.0369515 1.0000000
0.0000000 0.0000000 0.8155673
0.0000000 0.0000000 0.5346376
0.0000000 0.0000000 0.2485564
0.0000000 0.0000000 0.0000000
0.1719139 0.0000000 0.0000000
0.4515239 0.0000000 0.0000000
0.7383436 0.0000000 0.0000000
0.9897156 0.0000000 0.0000000
1.0000000 0.3090170 0.1595071
1.0000000 0.6459281 0.4377020
1.0000000 0.8867737 0.7251621
1.0000000 0.9957342 0.9791351
0.8527834 0.9566044 1.0000000
0.5760986 0.7752040 1.0000000
0.2880962 0.4785116 1.0000000
0.0316090 0.1106527 1.0000000
0.0000000 0.0000000 0.8649534
0.0000000 0.0000000 0.5898733
0.0000000 0.0000000 0.3014269
0.0000000 0.0000000 0.0425131
0.1230013 0.0000000 0.0000000
0.3963827 0.0000000 0.0000000
0.6851746 0.0000000 0.0000000
0.9464265 0.0000000 0.0000000
1.0000000 0.2379352 0.1110846
1.0000000 0.5877853 0.3826742
1.0000000 0.8502171 0.6717129
1.0000000 0.9862007 0.9352137
0.9006992 0.9755120 1.0000000
0.6309944 0.8197405 1.0000000
0.3418075 0.5420534 1.0000000
0.0761477 0.1837495 1.0000000
0.0000000 0.0000000 0.9123462
0.0000000 0.0000000 0.6446181
0.0000000 0.0000000 0.3553819
0.0000000 0.0000000 0.0876538
0.0761477 0.0000000 0.0000000
0.3418075 0.0000000 0.0000000
0.6309944 0.0000000 0.0000000
0.9006992 0.0000000 0.0000000
1.0000000 0.1655539 0.0647863
1.0000000 0.5264322 0.3282871
1.0000000 0.8090170 0.6173258
1.0000000 0.9712810 0.8889154
0.9464265 0.9890916 1.0000000
0.6851746 0.8597999 1.0000000
0.3963827 0.6026346 1.0000000
0.1230013 0.2558428 1.0000000
0.0000000 0.0000000 0.9574869
0.0000000 0.0000000 0.6985731
0.0000000 0.0000000 0.4101267
0.0000000 0.0000000 0.1350466
0.0316090 0.0000000 0.0000000
0.2880962 0.0000000 0.0000000
0.5760986 0.0000000 0.0000000
0.8527834 0.0000000 0.0000000
1.0000000 0.0922684 0.0208649
1.0000000 0.4622039 0.2748379
1.0000000 0.7633983 0.5622980
1.0000000 0.9510565 0.8404929
0.9897156 0.9972692 1.0000000
0.7383436 0.8951633 1.0000000
0.4515239 0.6599245 1.0000000
0.1719139 0.3265387 1.0000000
0.0000000 0.0000000 1.0000000
0.0000000 0.0000000 0.7514436
0.0000000 0.0000000 0.4653624
0.0000000 0.0000000 0.1844327
0.0000000 0.0000000 0.0000000
0.2355422 0.0000000 0.0000000
0.5207873 0.0000000 0.0000000
0.8029408 0.0000000 0.0000000
1.0000000 0.0184789 0.0000000
1.0000000 0.3954512 0.2226184
1.0000000 0.7136102 0.5069299
1.0000000 0.9256377 0.7902107
1.0000000 1.0000000 1.0000000
0.7902107 0.9256377 1.0000000
0.5069299 0.7136102 1.0000000
0.2226184 0.3954512 1.0000000
0.0000000 0.0184789 1.0000000
0.0000000 0.0000000 0.8029408
0.0000000 0.0000000 0.5207873
0.0000000 0.0000000 0.2355422
0.0000000 0.0000000 0.0000000
0.1844327 0.0000000 0.0000000
0.4653624 0.0000000 0.0000000
0.7514436 0.0000000 0.0000000
1.0000000 0.0000000 0.0000000
1.0000000 0.3265387 0.1719139
1.0000000 0.6599245 0.4515239
1.0000000 0.8951633 0.7383436
1.0000000 0.9972692 0.9897156
0.8404929 0.9510565 1.0000000
0.5622980 0.7633983 1.0000000
0.2748379 0.4622039 1.0000000
0.0208649 0.0922684 1.0000000
0.0000000 0.0000000 0.8527834
0.0000000 0.0000000 0.5760986
0.0000000 0.0000000 0.2880962
0.0000000 0.0000000 0.0316090
0.1350466 0.0000000 0.0000000
0.4101267 0.0000000 0.0000000
0.6985731 0.0000000 0.0000000
0.9574869 0.0000000 0.0000000
1.0000000 0.2558428 0.1230013
1.0000000 0.6026346 0.3963827
1.0000000 0.8597999 0.6851746
1.0000000 0.9890916 0.9464265
0.8889154 0.9712810 1.0000000
0.6173258 0.8090170 1.0000000
0.3282871 0.5264322 1.0000000
0.0647863 0.1655539 1.0000000
0.0000000 0.0000000 0.9006992
0.0000000 0.0000000 0.6309944
0.0000000 0.0000000 0.3418075
0.0000000 0.0000000 0.0761477
0.0876538 0.0000000 0.0000000
0.3553819 0.0000000 0.0000000
0.6446181 0.0000000 0.0000000
0.9123462 0.0000000 0.0000000
1.0000000 0.1837495 0.0761477
1.0000000 0.5420534 0.3418075
1.0000000 0.8197405 0.6309944
1.0000000 0.9755120 0.9006992
0.9352137 0.9862007 1.0000000
0.6717129 0.8502171 1.0000000
0.3826742 0.5877853 1.0000000
0.1110846 0.2379352 1.0000000
0.0000000 0.0000000 0.9464265
0.0000000 0.0000000 0.6851746
0.0000000 0.0000000 0.3963827
0.0000000 0.0000000 0.1230013
0.0425131 0.0000000 0.0000000
0.3014269 0.0000000 0.0000000
0.5898733 0.0000000 0.0000000
0.8649534 0.0000000 0.0000000
1.0000000 0.1106527 0.0316090
1.0000000 0.4785116 0.2880962
1.0000000 0.7752040 0.5760986
1.0000000 0.9566044 0.8527834
0.9791351 0.9957342 1.0000000
0.7251621 0.8867737 1.0000000
0.4377020 0.6459281 1.0000000
0.1595071 0.3090170 1.0000000
0.0000000 0.0000000 0.9897156
0.0000000 0.0000000 0.7383436
0.0000000 0.0000000 0.4515239
0.0000000 0.0000000 0.1719139
0.0000000 0.0000000 0.0000000
0.2485564 0.0000000 0.0000000
0.5346376 0.0000000 0.0000000
0.8155673 0.0000000 0.0000000
1.0000000 0.0369515 0.0000000
1.0000000 0.4123563 0.2355422
1.0000000 0.7264336 0.5207873
1.0000000 0.9324722 0.8029408
1.0000000 0.9998293 1.0000000
0.7773816 0.9184870 1.0000000
0.4930701 0.7005430 1.0000000
0.2097893 0.3784111 1.0000000
0.0000000 0.0000000 1.0000000
0.0000000 0.0000000 0.7902107
0.0000000 0.0000000 0.5069299
0.0000000 0.0000000 0.2226184
0.0000000 0.0000000 0.0000000
0.1970592 0.0000000 0.0000000
0.4792127 0.0000000 0.0000000
0.7644578 0.0000000 0.0000000
1.0000000 0.0000000 0.0000000
1.0000000 0.3439489 0.1844327
1.0000000 0.6736956 0.4653624
1.0000000 0.9032472 0.7514436
1.0000000 0.9984636 1.0000000
0.8280861 0.9451838 1.0000000
0.5484761 0.7513319 1.0000000
0.2616564 0.4457384 1.0000000
0.0102844 0.0738525 1.0000000
0.0000000 0.0000000 0.8404929
0.0000000 0.0000000 0.5622980
0.0000000 0.0000000 0.2748379
0.0000000 0.0000000 0.0208649
0.1472166 0.0000000 0.0000000
0.4239014 0.0000000 0.0000000
0.7119038 0.0000000 0.0000000
0.9683910 0.0000000 0.0000000
1.0000000 0.2736630 0.1350466
1.0000000 0.6172782 0.4101267
1.0000000 0.8690889 0.6985731
1.0000000 0.9916447 0.9574869
0.8769987 0.9667184 1.0000000
0.6036173 0.7980172 1.0000000
0.3148254 0.5106312 1.0000000
0.0535735 0.1473017 1.0000000
0.0000000 0.0000000 0.8889154
0.0000000 0.0000000 0.6173258
0.0000000 0.0000000 0.3282871
0.0000000 0.0000000 0.0647863
0.0993008 0.0000000 0.0000000
0.3690056 0.0000000 0.0000000
0.6581925 0.0000000 0.0000000
0.9238523 0.0000000 0.0000000
1.0000000 0.2018824 0.0876538
1.0000000 0.5574894 0.3553819
1.0000000 0.8301840 0.6446181
1.0000000 0.9794098 0.9123462
0.9238523 0.9829731 1.0000000
0.6581925 0.8403441 1.0000000
0.3690056 0.5727351 1.0000000
0.0993008 0.2199464 1.0000000
0.0000000 0.0000000 0.9352137
0.0000000 0.0000000 0.6717129
0.0000000 0.0000000 0.3826742
0.0000000 0.0000000 0.1110846
0.0535735 0.0000000 0.0000000
0.3148254 0.0000000 0.0000000
0.6036173 0.0000000 0.0000000
0.8769987 0.0000000 0.0000000
1.0000000 0.1289992 0.0425131
1.0000000 0.4946558 0.3014269
1.0000000 0.7867449 0.5898733
1.0000000 0.9618256 0.8649534
0.9683910 0.9938591 1.0000000
0.7119038 0.8780812 1.0000000
0.4239014 0.6317110 1.0000000
0.1472166 0.2913897 1.0000000
0.0000000 0.0000000 0.9791351
0.0000000 0.0000000 0.7251621
0.0000000 0.0000000 0.4377020
0.0000000 0.0000000 0.1595071
0.0102844 0.0000000 0.0000000
0.2616564 0.0000000 0.0000000
0.5484761 0.0000000 0.0000000
0.8280861 0.0000000 0.0000000
1.0000000 0.0554115 0.0000000
1.0000000 0.4291206 0.2485564
1.0000000 0.7390089 0.5346376
1.0000000 0.9389884 0.8155673
1.0000000 0.9993171 1.0000000
0.7644578 0.9110226 1.0000000
0.4792127 0.6872367 1.0000000
0.1970592 0.3612417 1.0000000
0.0000000 0.0000000 1.0000000
0.0000000 0.0000000 0.7773816
0.0000000 0.0000000 0.4930701
0.0000000 0.0000000 0.2097893
0.0000000 0.0000000 0.0000000
