posts/Davinci-Resolve-thermal-luts/colormaps-as-cube/gist_earth.cube
TITLE "Colormap gist_earth"
LUT_1D_SIZE 256
0.0000000 0.0000000 0.0000000
0.0026135 0.0000000 0.1686920
0.0052269 0.0000000 0.2216636
0.0078404 0.0000000 0.2638055
0.0104538 0.0000000 0.3059474
0.0130673 0.0000000 0.3480894
0.0156807 0.0000000 0.3902313
0.0182942 0.0000000 0.4323732
0.0209076 0.0089073 0.4547451
0.0235211 0.0179274 0.4556059
0.0261345 0.0269475 0.4563168
0.0287480 0.0359676 0.4570277
0.0313614 0.0449877 0.4577386
0.0339749 0.0540078 0.4584494
0.0365883 0.0630278 0.4591603
0.0392018 0.0720479 0.4598712
0.0418153 0.0810680 0.4605821
0.0444287 0.0900881 0.4612930
0.0470422 0.0991082 0.4620038
0.0496556 0.1081283 0.4627147
0.0522691 0.1171483 0.4634256
0.0548825 0.1261684 0.4641365
0.0574960 0.1351885 0.4648474
0.0601094 0.1442086 0.4655583
0.0627229 0.1532287 0.4662691
0.0653363 0.1622488 0.4669800
0.0679498 0.1712689 0.4676909
0.0705632 0.1802889 0.4684018
0.0731767 0.1893082 0.4691127
0.0757901 0.1974656 0.4698235
0.0784036 0.2056230 0.4705344
0.0810171 0.2137805 0.4712453
0.0836305 0.2219379 0.4719562
0.0862440 0.2300953 0.4726671
0.0888574 0.2382528 0.4733780
0.0914709 0.2464102 0.4740888
0.0940843 0.2545676 0.4747997
0.0966978 0.2627251 0.4755106
0.0993112 0.2708825 0.4762215
0.1019247 0.2790399 0.4769324
0.1045381 0.2871974 0.4776432
0.1071516 0.2953548 0.4783541
0.1097650 0.3035110 0.4790650
0.1123785 0.3108446 0.4797759
0.1149919 0.3181782 0.4804868
0.1176054 0.3255118 0.4811977
0.1202189 0.3328454 0.4819085
0.1228323 0.3401790 0.4826194
0.1254458 0.3475126 0.4833303
0.1280592 0.3548462 0.4840412
0.1306727 0.3621799 0.4847521
0.1332861 0.3695135 0.4854629
0.1358996 0.3768471 0.4861738
0.1385130 0.3841682 0.4868847
0.1411265 0.3903659 0.4875956
0.1437399 0.3965637 0.4883065
0.1463534 0.4027615 0.4890174
0.1489668 0.4089592 0.4897282
0.1515803 0.4151570 0.4904391
0.1541937 0.4213547 0.4911500
0.1568072 0.4275525 0.4918609
0.1594207 0.4337503 0.4925718
0.1620341 0.4399480 0.4932826
0.1646476 0.4461458 0.4939935
0.1672610 0.4523435 0.4947044
0.1698745 0.4585413 0.4954153
0.1724879 0.4647391 0.4961262
0.1751014 0.4709368 0.4968371
0.1777148 0.4771346 0.4975479
0.1803283 0.4833323 0.4982588
0.1829417 0.4895301 0.4989697
0.1855552 0.4957279 0.4996806
0.1881686 0.5019256 0.5003915
0.1900274 0.5042304 0.4956572
0.1918771 0.5064880 0.4908569
0.1937267 0.5087455 0.4860565
0.1955763 0.5110030 0.4812562
0.1974259 0.5132605 0.4764558
0.1992756 0.5155181 0.4716555
0.2011252 0.5177756 0.4668551
0.2029748 0.5200331 0.4620547
0.2048245 0.5222906 0.4572544
0.2066741 0.5245482 0.4524540
0.2085237 0.5268057 0.4476537
0.2103733 0.5290632 0.4428533
0.2122230 0.5313207 0.4380530
0.2140726 0.5335783 0.4332526
0.2159222 0.5358358 0.4284522
0.2177719 0.5380933 0.4236519
0.2196215 0.5403508 0.4188515
0.2214711 0.5426084 0.4140512
0.2233208 0.5448659 0.4092508
0.2251704 0.5471234 0.4044505
0.2270200 0.5493809 0.3996501
0.2288696 0.5516385 0.3948497
0.2307193 0.5538960 0.3900494
0.2325689 0.5561535 0.3852490
0.2344185 0.5584110 0.3804487
0.2362682 0.5606686 0.3756483
0.2381178 0.5629261 0.3708480
0.2399674 0.5651836 0.3660476
0.2418170 0.5674411 0.3612472
0.2436667 0.5696987 0.3564469
0.2455163 0.5719562 0.3516465
0.2473659 0.5742137 0.3468462
0.2492156 0.5764712 0.3420458
0.2510652 0.5787288 0.3372455
0.2529148 0.5809863 0.3324451
0.2547644 0.5832438 0.3276447
0.2566141 0.5855013 0.3228444
0.2584637 0.5877589 0.3180440
0.2603133 0.5900164 0.3132437
0.2621630 0.5922739 0.3084433
0.2640126 0.5945314 0.3036429
0.2658622 0.5967890 0.2988426
0.2677118 0.5990465 0.2940422
0.2695615 0.6013040 0.2892419
0.2714523 0.6035615 0.2844415
0.2801693 0.6058191 0.2796412
0.2888863 0.6080766 0.2748408
0.2976033 0.6103341 0.2770665
0.3063204 0.6125916 0.2793524
0.3150374 0.6148492 0.2816383
0.3237544 0.6171067 0.2839242
0.3324714 0.6193642 0.2862101
0.3411884 0.6216217 0.2884961
0.3499054 0.6238793 0.2907820
0.3586224 0.6261368 0.2930679
0.3673394 0.6283943 0.2953538
0.3760564 0.6306518 0.2976397
0.3847735 0.6329094 0.2999256
0.3934905 0.6351669 0.3022115
0.4022075 0.6374244 0.3044975
0.4109245 0.6396819 0.3067834
0.4196415 0.6414069 0.3090693
0.4283585 0.6431276 0.3113552
0.4370755 0.6448483 0.3136411
0.4457925 0.6465690 0.3159270
0.4545096 0.6482897 0.3182129
0.4632266 0.6500104 0.3204989
0.4719323 0.6517311 0.3217388
0.4783990 0.6534517 0.3229782
0.4848656 0.6551724 0.3242177
0.4913323 0.6568931 0.3254571
0.4977989 0.6586138 0.3266965
0.5042655 0.6603345 0.3279359
0.5107322 0.6620552 0.3291754
0.5171988 0.6637759 0.3304148
0.5236655 0.6654966 0.3316542
0.5301321 0.6672172 0.3328936
0.5365987 0.6689379 0.3341331
0.5430654 0.6706586 0.3353725
0.5495320 0.6723793 0.3366119
0.5559987 0.6741000 0.3378513
0.5624653 0.6758207 0.3390908
0.5689319 0.6775414 0.3403302
0.5753986 0.6792621 0.3415696
0.5818652 0.6809828 0.3428090
0.5883319 0.6827034 0.3440485
0.5947985 0.6844241 0.3452879
0.6012651 0.6861448 0.3465273
0.6077318 0.6878655 0.3477667
0.6141984 0.6895862 0.3490062
0.6206651 0.6913069 0.3502456
0.6271317 0.6930276 0.3514850
0.6335983 0.6947483 0.3527244
0.6400650 0.6964689 0.3539639
0.6465316 0.6981896 0.3552033
0.6529983 0.6999103 0.3564427
0.6594649 0.7016310 0.3576821
0.6659315 0.7033517 0.3589216
0.6723982 0.7050724 0.3601610
0.6788648 0.7067931 0.3614004
0.6853315 0.7085138 0.3626398
0.6917981 0.7102345 0.3638793
0.6982647 0.7119551 0.3651187
0.7047314 0.7136758 0.3663581
0.7111980 0.7153965 0.3675976
0.7176164 0.7170661 0.3688370
0.7192554 0.7136793 0.3700764
0.7208945 0.7102925 0.3713158
0.7225336 0.7069057 0.3725553
0.7241726 0.7035189 0.3737947
0.7258117 0.7001321 0.3750341
0.7274507 0.6967453 0.3762735
0.7290898 0.6933585 0.3775130
0.7307289 0.6899717 0.3787524
0.7323679 0.6865848 0.3799918
0.7340070 0.6831980 0.3812312
0.7356460 0.6798112 0.3824707
0.7372851 0.6764244 0.3837101
0.7389242 0.6730376 0.3849495
0.7405632 0.6696508 0.3861889
0.7422023 0.6662640 0.3874284
0.7438413 0.6628772 0.3886678
0.7454804 0.6594904 0.3899072
0.7471195 0.6561036 0.3911466
0.7487585 0.6527168 0.3923861
0.7503976 0.6493299 0.3936255
0.7520366 0.6459431 0.3948649
0.7536757 0.6425563 0.3961336
0.7553395 0.6392185 0.4057411
0.7597258 0.6412774 0.4153486
0.7641121 0.6429906 0.4249561
0.7684984 0.6447000 0.4345636
0.7728847 0.6464094 0.4441711
0.7772710 0.6481371 0.4537785
0.7816573 0.6515127 0.4633860
0.7860436 0.6548882 0.4729935
0.7904299 0.6582868 0.4826010
0.7948162 0.6616855 0.4922085
0.7992025 0.6650842 0.5018160
0.8035888 0.6684829 0.5114235
0.8079751 0.6718816 0.5210309
0.8123615 0.6752803 0.5306384
0.8167478 0.6786790 0.5402459
0.8211341 0.6820776 0.5498534
0.8255204 0.6854763 0.5594609
0.8299067 0.6888750 0.5690684
0.8342930 0.6922737 0.5786759
0.8386793 0.6956724 0.5882833
0.8430656 0.6990711 0.5978908
0.8474519 0.7046831 0.6074983
0.8518382 0.7103140 0.6171058
0.8562245 0.7159234 0.6267133
0.8606108 0.7215327 0.6363208
0.8649971 0.7269150 0.6459283
0.8693834 0.7322946 0.6555357
0.8737697 0.7376742 0.6651532
0.8781560 0.7430767 0.6769734
0.8825424 0.7507474 0.6887937
0.8869287 0.7584180 0.7006139
0.8913150 0.7660887 0.7124342
0.8957013 0.7737594 0.7242545
0.9000876 0.7814300 0.7360747
0.9044739 0.7891007 0.7478950
0.9088602 0.7967713 0.7597152
0.9132465 0.8044420 0.7715355
0.9176328 0.8121127 0.7833557
0.9220191 0.8197833 0.7951760
0.9264054 0.8274540 0.8069962
0.9307917 0.8364382 0.8188165
0.9351780 0.8454303 0.8306367
0.9395643 0.8544224 0.8424570
0.9439506 0.8634146 0.8542772
0.9483369 0.8725136 0.8660975
0.9527232 0.8816172 0.8779177
0.9571096 0.8930697 0.8897380
0.9614959 0.9045221 0.9015582
0.9658822 0.9159746 0.9133785
0.9702685 0.9274271 0.9251987
0.9746548 0.9388796 0.9370190
0.9790411 0.9503321 0.9488392
0.9834274 0.9617845 0.9606595
0.9878137 0.9732370 0.9724797
0.9922000 0.9843000 0.9843000
