posts/Davinci-Resolve-thermal-luts/colormaps-as-cube/gist_stern_r.cube
TITLE "Colormap gist_stern_r"
LUT_1D_SIZE 256
1.0000000 1.0000000 1.0000000
0.9960784 0.9960784 0.9852016
0.9921569 0.9921569 0.9704033
0.9882353 0.9882353 0.9556049
0.9843137 0.9843137 0.9408065
0.9803922 0.9803922 0.9260081
0.9764706 0.9764706 0.9112098
0.9725490 0.9725490 0.8964114
0.9686275 0.9686275 0.8816130
0.9647059 0.9647059 0.8668147
0.9607843 0.9607843 0.8520163
0.9568627 0.9568627 0.8372179
0.9529412 0.9529412 0.8224195
0.9490196 0.9490196 0.8076212
0.9450980 0.9450980 0.7928228
0.9411765 0.9411765 0.7780244
0.9372549 0.9372549 0.7632260
0.9333333 0.9333333 0.7484277
0.9294118 0.9294118 0.7336293
0.9254902 0.9254902 0.7188309
0.9215686 0.9215686 0.7040326
0.9176471 0.9176471 0.6892342
0.9137255 0.9137255 0.6744358
0.9098039 0.9098039 0.6596374
0.9058824 0.9058824 0.6448391
0.9019608 0.9019608 0.6300407
0.8980392 0.8980392 0.6152423
0.8941176 0.8941176 0.6004440
0.8901961 0.8901961 0.5856456
0.8862745 0.8862745 0.5708472
0.8823529 0.8823529 0.5560488
0.8784314 0.8784314 0.5412505
0.8745098 0.8745098 0.5264521
0.8705882 0.8705882 0.5116537
0.8666667 0.8666667 0.4968553
0.8627451 0.8627451 0.4820570
0.8588235 0.8588235 0.4672586
0.8549020 0.8549020 0.4524602
0.8509804 0.8509804 0.4376619
0.8470588 0.8470588 0.4228635
0.8431373 0.8431373 0.4080651
0.8392157 0.8392157 0.3932667
0.8352941 0.8352941 0.3784684
0.8313725 0.8313725 0.3636700
0.8274510 0.8274510 0.3488716
0.8235294 0.8235294 0.3340733
0.8196078 0.8196078 0.3192749
0.8156863 0.8156863 0.3044765
0.8117647 0.8117647 0.2896781
0.8078431 0.8078431 0.2748798
0.8039216 0.8039216 0.2600814
0.8000000 0.8000000 0.2452830
0.7960784 0.7960784 0.2304846
0.7921569 0.7921569 0.2156863
0.7882353 0.7882353 0.2008879
0.7843137 0.7843137 0.1860895
0.7803922 0.7803922 0.1712912
0.7764706 0.7764706 0.1564928
0.7725490 0.7725490 0.1416944
0.7686275 0.7686275 0.1268960
0.7647059 0.7647059 0.1120977
0.7607843 0.7607843 0.0972993
0.7568627 0.7568627 0.0825009
0.7529412 0.7529412 0.0677026
0.7490196 0.7490196 0.0529042
0.7450980 0.7450980 0.0381058
0.7411765 0.7411765 0.0233074
0.7372549 0.7372549 0.0085091
0.7333333 0.7333333 0.0070922
0.7294118 0.7294118 0.0237797
0.7254902 0.7254902 0.0404673
0.7215686 0.7215686 0.0571548
0.7176471 0.7176471 0.0738423
0.7137255 0.7137255 0.0905298
0.7098039 0.7098039 0.1072174
0.7058824 0.7058824 0.1239049
0.7019608 0.7019608 0.1405924
0.6980392 0.6980392 0.1572799
0.6941176 0.6941176 0.1739675
0.6901961 0.6901961 0.1906550
0.6862745 0.6862745 0.2073425
0.6823529 0.6823529 0.2240300
0.6784314 0.6784314 0.2407176
0.6745098 0.6745098 0.2574051
0.6705882 0.6705882 0.2740926
0.6666667 0.6666667 0.2907801
0.6627451 0.6627451 0.3074677
0.6588235 0.6588235 0.3241552
0.6549020 0.6549020 0.3408427
0.6509804 0.6509804 0.3575302
0.6470588 0.6470588 0.3742178
0.6431373 0.6431373 0.3909053
0.6392157 0.6392157 0.4075928
0.6352941 0.6352941 0.4242804
0.6313725 0.6313725 0.4409679
0.6274510 0.6274510 0.4576554
0.6235294 0.6235294 0.4743429
0.6196078 0.6196078 0.4910305
0.6156863 0.6156863 0.5077180
0.6117647 0.6117647 0.5244055
0.6078431 0.6078431 0.5410930
0.6039216 0.6039216 0.5577806
0.6000000 0.6000000 0.5744681
0.5960784 0.5960784 0.5911556
0.5921569 0.5921569 0.6078431
0.5882353 0.5882353 0.6245307
0.5843137 0.5843137 0.6412182
0.5803922 0.5803922 0.6579057
0.5764706 0.5764706 0.6745932
0.5725490 0.5725490 0.6912808
0.5686275 0.5686275 0.7079683
0.5647059 0.5647059 0.7246558
0.5607843 0.5607843 0.7413433
0.5568627 0.5568627 0.7580309
0.5529412 0.5529412 0.7747184
0.5490196 0.5490196 0.7914059
0.5450980 0.5450980 0.8080935
0.5411765 0.5411765 0.8247810
0.5372549 0.5372549 0.8414685
0.5333333 0.5333333 0.8581560
0.5294118 0.5294118 0.8748436
0.5254902 0.5254902 0.8915311
0.5215686 0.5215686 0.9082186
0.5176471 0.5176471 0.9249061
0.5137255 0.5137255 0.9415937
0.5098039 0.5098039 0.9582812
0.5058824 0.5058824 0.9749687
0.5019608 0.5019608 0.9916562
0.4980392 0.4980392 0.9960784
0.4941176 0.4941176 0.9882353
0.4901961 0.4901961 0.9803922
0.4862745 0.4862745 0.9725490
0.4823529 0.4823529 0.9647059
0.4784314 0.4784314 0.9568627
0.4745098 0.4745098 0.9490196
0.4705882 0.4705882 0.9411765
0.4666667 0.4666667 0.9333333
0.4627451 0.4627451 0.9254902
0.4588235 0.4588235 0.9176471
0.4549020 0.4549020 0.9098039
0.4509804 0.4509804 0.9019608
0.4470588 0.4470588 0.8941176
0.4431373 0.4431373 0.8862745
0.4392157 0.4392157 0.8784314
0.4352941 0.4352941 0.8705882
0.4313725 0.4313725 0.8627451
0.4274510 0.4274510 0.8549020
0.4235294 0.4235294 0.8470588
0.4196078 0.4196078 0.8392157
0.4156863 0.4156863 0.8313725
0.4117647 0.4117647 0.8235294
0.4078431 0.4078431 0.8156863
0.4039216 0.4039216 0.8078431
0.4000000 0.4000000 0.8000000
0.3960784 0.3960784 0.7921569
0.3921569 0.3921569 0.7843137
0.3882353 0.3882353 0.7764706
0.3843137 0.3843137 0.7686275
0.3803922 0.3803922 0.7607843
0.3764706 0.3764706 0.7529412
0.3725490 0.3725490 0.7450980
0.3686275 0.3686275 0.7372549
0.3647059 0.3647059 0.7294118
0.3607843 0.3607843 0.7215686
0.3568627 0.3568627 0.7137255
0.3529412 0.3529412 0.7058824
0.3490196 0.3490196 0.6980392
0.3450980 0.3450980 0.6901961
0.3411765 0.3411765 0.6823529
0.3372549 0.3372549 0.6745098
0.3333333 0.3333333 0.6666667
0.3294118 0.3294118 0.6588235
0.3254902 0.3254902 0.6509804
0.3215686 0.3215686 0.6431373
0.3176471 0.3176471 0.6352941
0.3137255 0.3137255 0.6274510
0.3098039 0.3098039 0.6196078
0.3058824 0.3058824 0.6117647
0.3019608 0.3019608 0.6039216
0.2980392 0.2980392 0.5960784
0.2941176 0.2941176 0.5882353
0.2901961 0.2901961 0.5803922
0.2862745 0.2862745 0.5725490
0.2823529 0.2823529 0.5647059
0.2784314 0.2784314 0.5568627
0.2745098 0.2745098 0.5490196
0.2705882 0.2705882 0.5411765
0.2666667 0.2666667 0.5333333
0.2627451 0.2627451 0.5254902
0.2588235 0.2588235 0.5176471
0.2549020 0.2549020 0.5098039
0.2509804 0.2509804 0.5019608
0.0416532 0.2470588 0.4941176
0.0611907 0.2431373 0.4862745
0.0807283 0.2392157 0.4784314
0.1002659 0.2352941 0.4705882
0.1198034 0.2313725 0.4627451
0.1393410 0.2274510 0.4549020
0.1588786 0.2235294 0.4470588
0.1784161 0.2196078 0.4392157
0.1979537 0.2156863 0.4313725
0.2174913 0.2117647 0.4235294
0.2370288 0.2078431 0.4156863
0.2565664 0.2039216 0.4078431
0.2761039 0.2000000 0.4000000
0.2956415 0.1960784 0.3921569
0.3151791 0.1921569 0.3843137
0.3347166 0.1882353 0.3764706
0.3542542 0.1843137 0.3686275
0.3737918 0.1803922 0.3607843
0.3933293 0.1764706 0.3529412
0.4128669 0.1725490 0.3450980
0.4324045 0.1686275 0.3372549
0.4519420 0.1647059 0.3294118
0.4714796 0.1607843 0.3215686
0.4910171 0.1568627 0.3137255
0.5105547 0.1529412 0.3058824
0.5300923 0.1490196 0.2980392
0.5496298 0.1450980 0.2901961
0.5691674 0.1411765 0.2823529
0.5887050 0.1372549 0.2745098
0.6082425 0.1333333 0.2666667
0.6277801 0.1294118 0.2588235
0.6473177 0.1254902 0.2509804
0.6668552 0.1215686 0.2431373
0.6863928 0.1176471 0.2352941
0.7059304 0.1137255 0.2274510
0.7254679 0.1098039 0.2196078
0.7450055 0.1058824 0.2117647
0.7645430 0.1019608 0.2039216
0.7840806 0.0980392 0.1960784
0.8036182 0.0941176 0.1882353
0.8231557 0.0901961 0.1803922
0.8426933 0.0862745 0.1725490
0.8622309 0.0823529 0.1647059
0.8817684 0.0784314 0.1568627
0.9013060 0.0745098 0.1490196
0.9208436 0.0705882 0.1411765
0.9403811 0.0666667 0.1333333
0.9599187 0.0627451 0.1254902
0.9794563 0.0588235 0.1176471
0.9989938 0.0549020 0.1098039
0.9319999 0.0509804 0.1019608
0.8603076 0.0470588 0.0941176
0.7886153 0.0431373 0.0862745
0.7169230 0.0392157 0.0784314
0.6452307 0.0352941 0.0705882
0.5735384 0.0313725 0.0627451
0.5018461 0.0274510 0.0549020
0.4301538 0.0235294 0.0470588
0.3584615 0.0196078 0.0392157
0.2867692 0.0156863 0.0313725
0.2150769 0.0117647 0.0235294
0.1433846 0.0078431 0.0156863
0.0716923 0.0039216 0.0078431
0.0000000 0.0000000 0.0000000
