posts/Davinci-Resolve-thermal-luts/colormaps-as-cube/gist_ncar_r.cube
TITLE "Colormap gist_ncar_r"
LUT_1D_SIZE 256
0.9961000 0.9725000 0.9961000
0.9933088 0.9543339 0.9937163
0.9905175 0.9361678 0.9913326
0.9877263 0.9180017 0.9889489
0.9849351 0.8998356 0.9865652
0.9821438 0.8816696 0.9841815
0.9793526 0.8635035 0.9817978
0.9765614 0.8453374 0.9794141
0.9737701 0.8271713 0.9770304
0.9709789 0.8090052 0.9746467
0.9681877 0.7908391 0.9722630
0.9653964 0.7726730 0.9698793
0.9626052 0.7545069 0.9674956
0.9598140 0.7363408 0.9651119
0.9570227 0.7181747 0.9627282
0.9542315 0.7000087 0.9603445
0.9514403 0.6818426 0.9579608
0.9486490 0.6636765 0.9555771
0.9458578 0.6455104 0.9531934
0.9430666 0.6273443 0.9508097
0.9402753 0.6091782 0.9484260
0.9374841 0.5910121 0.9460423
0.9346928 0.5728460 0.9436586
0.9319016 0.5546799 0.9412749
0.9291104 0.5365138 0.9388912
0.9263191 0.5183478 0.9365075
0.9235279 0.5001817 0.9341238
0.9004881 0.4770383 0.9387602
0.8772437 0.4538446 0.9434675
0.8539994 0.4306509 0.9481749
0.8307551 0.4074572 0.9528822
0.8075107 0.3842635 0.9575895
0.7842664 0.3610698 0.9622968
0.7610220 0.3378761 0.9670041
0.7377777 0.3146825 0.9717114
0.7145333 0.2914888 0.9764187
0.6912890 0.2682951 0.9811260
0.6680446 0.2451014 0.9858333
0.6448003 0.2219077 0.9905407
0.6220837 0.1987140 0.9952480
0.6490989 0.1755203 0.9999553
0.6761142 0.1619224 1.0000000
0.7031294 0.1484165 1.0000000
0.7301447 0.1349106 1.0000000
0.7571599 0.1214047 1.0000000
0.7841752 0.1078987 1.0000000
0.8111904 0.0943928 1.0000000
0.8382057 0.0808869 1.0000000
0.8652209 0.0673810 1.0000000
0.8922362 0.0538751 1.0000000
0.9192514 0.0403692 1.0000000
0.9462667 0.0268633 1.0000000
0.9732819 0.0133573 0.9868276
1.0000000 0.0000000 0.9730348
1.0000000 0.0000000 0.9034752
1.0000000 0.0000000 0.8339156
1.0000000 0.0000000 0.7643560
1.0000000 0.0000000 0.6947963
1.0000000 0.0000000 0.6252367
1.0000000 0.0000000 0.5556771
1.0000000 0.0000000 0.4861175
1.0000000 0.0000000 0.4165578
1.0000000 0.0000000 0.3469982
1.0000000 0.0000000 0.2774386
1.0000000 0.0000000 0.2078789
1.0000000 0.0000093 0.1383193
1.0000000 0.0186568 0.0687597
1.0000000 0.0373042 0.0000000
1.0000000 0.0559517 0.0000000
1.0000000 0.0745992 0.0000000
1.0000000 0.0932466 0.0000000
1.0000000 0.1118941 0.0000000
1.0000000 0.1305415 0.0000000
1.0000000 0.1491890 0.0000000
1.0000000 0.1678365 0.0000000
1.0000000 0.1864839 0.0000000
1.0000000 0.2051314 0.0000000
1.0000000 0.2237788 0.0000000
1.0000000 0.2424263 0.0000000
1.0000000 0.2610737 0.0000037
1.0000000 0.2798088 0.0036651
1.0000000 0.3119242 0.0073266
1.0000000 0.3440396 0.0109881
1.0000000 0.3761550 0.0146495
1.0000000 0.4082705 0.0183110
1.0000000 0.4403859 0.0219724
1.0000000 0.4725013 0.0256339
1.0000000 0.5046168 0.0292954
1.0000000 0.5367322 0.0329568
1.0000000 0.5688476 0.0366183
1.0000000 0.6009631 0.0402798
1.0000000 0.6330785 0.0439412
1.0000000 0.6651939 0.0476027
1.0000000 0.6973094 0.0512642
1.0000000 0.7292677 0.0548704
1.0000000 0.7389395 0.0506490
1.0000000 0.7486113 0.0464275
1.0000000 0.7582830 0.0422061
1.0000000 0.7679548 0.0379846
1.0000000 0.7776266 0.0337632
1.0000000 0.7872983 0.0295417
1.0000000 0.7969701 0.0253203
1.0000000 0.8066419 0.0210988
1.0000000 0.8163137 0.0168774
1.0000000 0.8259854 0.0126559
1.0000000 0.8356572 0.0084345
1.0000000 0.8453290 0.0042130
1.0000000 0.8550008 0.0000000
1.0000000 0.8646725 0.0000000
1.0000000 0.8743443 0.0000000
1.0000000 0.8840161 0.0000000
1.0000000 0.8936879 0.0000000
1.0000000 0.9033596 0.0000000
1.0000000 0.9130314 0.0000000
1.0000000 0.9227032 0.0000000
1.0000000 0.9323750 0.0000000
1.0000000 0.9420467 0.0000000
1.0000000 0.9517185 0.0000000
1.0000000 0.9613903 0.0000000
1.0000000 0.9710621 0.0000000
0.9823046 0.9807338 0.0154868
0.9644576 0.9904056 0.0311064
0.9466105 1.0000000 0.0467260
0.9287634 1.0000000 0.0623456
0.9109164 1.0000000 0.0779651
0.8930693 1.0000000 0.0935847
0.8752222 1.0000000 0.1092043
0.8573752 1.0000000 0.1248239
0.8395281 1.0000000 0.1404435
0.8216810 1.0000000 0.1560630
0.8038340 1.0000000 0.1716826
0.7859869 1.0000000 0.1873022
0.7681398 1.0000000 0.2029218
0.7502928 1.0000000 0.2185414
0.7324457 1.0000000 0.2341610
0.7145986 1.0000000 0.2186195
0.6967516 1.0000000 0.2029999
0.6789045 1.0000000 0.1873803
0.6610574 1.0000000 0.1717607
0.6432104 1.0000000 0.1561411
0.6253633 1.0000000 0.1405216
0.6075162 1.0000000 0.1249020
0.5896692 1.0000000 0.1092824
0.5718221 1.0000000 0.0936628
0.5539751 1.0000000 0.0780432
0.5361280 1.0000000 0.0624237
0.5182809 0.9998403 0.0468041
0.5004339 0.9870636 0.0311845
0.4925920 0.9742868 0.0155649
0.4848258 0.9615101 0.0000000
0.4770595 0.9487334 0.0000000
0.4692933 0.9359567 0.0000000
0.4615270 0.9231799 0.0000000
0.4537608 0.9104032 0.0000000
0.4459945 0.8976265 0.0000000
0.4382283 0.8848498 0.0000000
0.4304621 0.8720731 0.0000000
0.4226958 0.8592963 0.0000000
0.4149296 0.8465196 0.0000000
0.4071633 0.8337429 0.0000000
0.3993971 0.8209662 0.0000000
0.3746380 0.8081894 0.0000000
0.3496638 0.8227526 0.0000000
0.3246896 0.8375084 0.0000000
0.2997154 0.8522643 0.0000000
0.2747412 0.8670202 0.0000000
0.2497670 0.8817760 0.0000000
0.2247928 0.8965319 0.0000000
0.1998186 0.9112878 0.0000000
0.1748444 0.9260436 0.0000000
0.1498702 0.9407995 0.0000000
0.1248960 0.9555553 0.0000000
0.0999218 0.9703112 0.0000000
0.0749476 0.9850671 0.0003273
0.0499734 0.9998229 0.0412408
0.0249992 0.9983842 0.0821543
0.0000250 0.9967489 0.1230677
0.0000000 0.9951135 0.1639812
0.0000000 0.9934781 0.2048947
0.0000000 0.9918427 0.2458082
0.0000000 0.9902074 0.2867217
0.0000000 0.9885720 0.3276351
0.0000000 0.9869366 0.3685486
0.0000000 0.9853012 0.4094621
0.0000000 0.9836658 0.4503756
0.0000000 0.9820305 0.4912891
0.0000000 0.9804000 0.5322025
0.0000000 0.9804000 0.5731160
0.0000000 0.9804000 0.6140295
0.0000000 0.9804000 0.6399146
0.0000000 0.9821727 0.6656249
0.0000000 0.9839560 0.6913352
0.0000000 0.9857394 0.7170455
0.0000000 0.9875227 0.7427558
0.0000000 0.9893061 0.7684660
0.0000000 0.9910894 0.7941763
0.0000000 0.9928728 0.8198866
0.0000000 0.9946562 0.8455969
0.0000000 0.9964395 0.8713072
0.0000000 0.9982229 0.8970175
0.0000000 0.9999395 0.9227277
0.0000000 0.9826538 0.9484380
0.0000000 0.9653682 0.9741483
0.0000000 0.9480825 0.9998586
0.0000000 0.9307969 1.0000000
0.0000000 0.9135112 1.0000000
0.0000000 0.8962255 1.0000000
0.0000000 0.8789399 1.0000000
0.0000000 0.8616542 1.0000000
0.0000000 0.8443686 1.0000000
0.0000000 0.8270829 1.0000000
0.0000000 0.8097972 1.0000000
0.0000000 0.7925116 1.0000000
0.0000000 0.7752259 1.0000000
0.0000000 0.7535653 1.0000000
0.0000000 0.7196739 1.0000000
0.0000000 0.6642952 1.0000000
0.0000000 0.6089165 1.0000000
0.0000000 0.5535378 1.0000000
0.0000000 0.4981591 1.0000000
0.0000000 0.4427804 1.0000000
0.0000000 0.3874017 1.0000000
0.0000000 0.3320230 1.0000000
0.0000000 0.2766443 1.0000000
0.0000000 0.2212656 1.0000000
0.0000000 0.1658869 1.0000000
0.0000000 0.1105082 1.0000000
0.0000000 0.0551295 1.0000000
0.0000000 0.0001196 0.9348525
0.0000000 0.0267063 0.8696397
0.0000000 0.0532930 0.8044270
0.0000000 0.0798796 0.7392142
0.0000000 0.1064663 0.6740015
0.0000000 0.1330530 0.6087887
0.0000000 0.1596396 0.5435760
0.0000000 0.1862263 0.4783632
0.0000000 0.2128130 0.4131504
0.0000000 0.2393996 0.3479377
0.0000000 0.2659863 0.2827249
0.0000000 0.2925729 0.2175122
0.0000000 0.3191596 0.1522994
0.0000000 0.3457463 0.0870867
0.0000000 0.3720569 0.0223845
0.0000000 0.3434371 0.0592780
0.0000000 0.3148174 0.0961715
0.0000000 0.2861976 0.1330650
0.0000000 0.2575779 0.1699585
0.0000000 0.2289581 0.2068520
0.0000000 0.2003383 0.2437455
0.0000000 0.1717186 0.2806390
0.0000000 0.1430988 0.3175325
0.0000000 0.1144790 0.3544260
0.0000000 0.0858593 0.3913195
0.0000000 0.0572395 0.4282130
0.0000000 0.0286198 0.4651065
0.0000000 0.0000000 0.5020000
