posts/Davinci-Resolve-thermal-luts/colormaps-as-cube/gist_rainbow_r.cube
TITLE "Colormap gist_rainbow_r"
LUT_1D_SIZE 256
1.0000000 0.0000000 0.7500000
1.0000000 0.0000000 0.7713129
1.0000000 0.0000000 0.7926257
1.0000000 0.0000000 0.8139386
1.0000000 0.0000000 0.8352515
1.0000000 0.0000000 0.8565644
1.0000000 0.0000000 0.8778772
1.0000000 0.0000000 0.8991901
1.0000000 0.0000000 0.9205030
1.0000000 0.0000000 0.9418159
1.0000000 0.0000000 0.9631287
1.0000000 0.0000000 0.9844416
0.9942455 0.0000000 1.0000000
0.9729327 0.0000000 1.0000000
0.9516198 0.0000000 1.0000000
0.9303069 0.0000000 1.0000000
0.9089940 0.0000000 1.0000000
0.8876812 0.0000000 1.0000000
0.8663683 0.0000000 1.0000000
0.8450554 0.0000000 1.0000000
0.8237425 0.0000000 1.0000000
0.8024297 0.0000000 1.0000000
0.7811168 0.0000000 1.0000000
0.7598039 0.0000000 1.0000000
0.7384910 0.0000000 1.0000000
0.7171782 0.0000000 1.0000000
0.6958653 0.0000000 1.0000000
0.6745524 0.0000000 1.0000000
0.6532396 0.0000000 1.0000000
0.6319267 0.0000000 1.0000000
0.6106138 0.0000000 1.0000000
0.5893009 0.0000000 1.0000000
0.5679881 0.0000000 1.0000000
0.5466752 0.0000000 1.0000000
0.5253623 0.0000000 1.0000000
0.5040494 0.0000000 1.0000000
0.4827366 0.0000000 1.0000000
0.4614237 0.0000000 1.0000000
0.4401108 0.0000000 1.0000000
0.4187980 0.0000000 1.0000000
0.3974851 0.0000000 1.0000000
0.3761722 0.0000000 1.0000000
0.3548593 0.0000000 1.0000000
0.3335465 0.0000000 1.0000000
0.3122336 0.0000000 1.0000000
0.2909207 0.0000000 1.0000000
0.2696078 0.0000000 1.0000000
0.2482950 0.0000000 1.0000000
0.2269821 0.0000000 1.0000000
0.2056692 0.0000000 1.0000000
0.1843564 0.0000000 1.0000000
0.1630435 0.0000000 1.0000000
0.1417306 0.0000000 1.0000000
0.1204177 0.0000000 1.0000000
0.0991049 0.0000000 1.0000000
0.0777920 0.0000000 1.0000000
0.0564791 0.0000000 1.0000000
0.0351662 0.0000000 1.0000000
0.0138534 0.0000000 1.0000000
0.0000000 0.0074595 1.0000000
0.0000000 0.0287724 1.0000000
0.0000000 0.0500853 1.0000000
0.0000000 0.0713981 1.0000000
0.0000000 0.0927110 1.0000000
0.0000000 0.1140239 1.0000000
0.0000000 0.1353367 1.0000000
0.0000000 0.1566496 1.0000000
0.0000000 0.1779625 1.0000000
0.0000000 0.1992754 1.0000000
0.0000000 0.2205882 1.0000000
0.0000000 0.2419011 1.0000000
0.0000000 0.2632140 1.0000000
0.0000000 0.2845269 1.0000000
0.0000000 0.3058397 1.0000000
0.0000000 0.3271526 1.0000000
0.0000000 0.3484655 1.0000000
0.0000000 0.3697783 1.0000000
0.0000000 0.3910912 1.0000000
0.0000000 0.4124041 1.0000000
0.0000000 0.4337170 1.0000000
0.0000000 0.4550298 1.0000000
0.0000000 0.4763427 1.0000000
0.0000000 0.4976556 1.0000000
0.0000000 0.5189685 1.0000000
0.0000000 0.5402813 1.0000000
0.0000000 0.5615942 1.0000000
0.0000000 0.5829071 1.0000000
0.0000000 0.6042199 1.0000000
0.0000000 0.6255328 1.0000000
0.0000000 0.6468457 1.0000000
0.0000000 0.6681586 1.0000000
0.0000000 0.6894714 1.0000000
0.0000000 0.7107843 1.0000000
0.0000000 0.7320972 1.0000000
0.0000000 0.7534101 1.0000000
0.0000000 0.7747229 1.0000000
0.0000000 0.7960358 1.0000000
0.0000000 0.8173487 1.0000000
0.0000000 0.8386616 1.0000000
0.0000000 0.8599744 1.0000000
0.0000000 0.8812873 1.0000000
0.0000000 0.9026002 1.0000000
0.0000000 0.9239130 1.0000000
0.0000000 0.9452259 1.0000000
0.0000000 0.9665388 1.0000000
0.0000000 0.9878517 1.0000000
0.0000000 1.0000000 0.9909340
0.0000000 1.0000000 0.9698503
0.0000000 1.0000000 0.9487666
0.0000000 1.0000000 0.9276829
0.0000000 1.0000000 0.9065992
0.0000000 1.0000000 0.8855155
0.0000000 1.0000000 0.8644318
0.0000000 1.0000000 0.8433481
0.0000000 1.0000000 0.8222644
0.0000000 1.0000000 0.8011807
0.0000000 1.0000000 0.7800970
0.0000000 1.0000000 0.7590133
0.0000000 1.0000000 0.7379296
0.0000000 1.0000000 0.7168459
0.0000000 1.0000000 0.6957622
0.0000000 1.0000000 0.6746785
0.0000000 1.0000000 0.6535948
0.0000000 1.0000000 0.6325111
0.0000000 1.0000000 0.6114274
0.0000000 1.0000000 0.5903437
0.0000000 1.0000000 0.5692600
0.0000000 1.0000000 0.5481763
0.0000000 1.0000000 0.5270926
0.0000000 1.0000000 0.5060089
0.0000000 1.0000000 0.4849252
0.0000000 1.0000000 0.4638415
0.0000000 1.0000000 0.4427577
0.0000000 1.0000000 0.4216740
0.0000000 1.0000000 0.4005903
0.0000000 1.0000000 0.3795066
0.0000000 1.0000000 0.3584229
0.0000000 1.0000000 0.3373392
0.0000000 1.0000000 0.3162555
0.0000000 1.0000000 0.2951718
0.0000000 1.0000000 0.2740881
0.0000000 1.0000000 0.2530044
0.0000000 1.0000000 0.2319207
0.0000000 1.0000000 0.2108370
0.0000000 1.0000000 0.1897533
0.0000000 1.0000000 0.1686696
0.0000000 1.0000000 0.1475859
0.0000000 1.0000000 0.1265022
0.0000000 1.0000000 0.1054185
0.0000000 1.0000000 0.0843348
0.0000000 1.0000000 0.0632511
0.0000000 1.0000000 0.0421674
0.0000000 1.0000000 0.0210837
0.0000000 1.0000000 0.0000000
0.0211977 1.0000000 0.0000000
0.0423953 1.0000000 0.0000000
0.0635930 1.0000000 0.0000000
0.0847907 1.0000000 0.0000000
0.1059883 1.0000000 0.0000000
0.1271860 1.0000000 0.0000000
0.1483837 1.0000000 0.0000000
0.1695813 1.0000000 0.0000000
0.1907790 1.0000000 0.0000000
0.2119767 1.0000000 0.0000000
0.2331744 1.0000000 0.0000000
0.2543720 1.0000000 0.0000000
0.2755697 1.0000000 0.0000000
0.2967674 1.0000000 0.0000000
0.3179650 1.0000000 0.0000000
0.3391627 1.0000000 0.0000000
0.3603604 1.0000000 0.0000000
0.3815580 1.0000000 0.0000000
0.4027557 1.0000000 0.0000000
0.4239534 1.0000000 0.0000000
0.4451510 1.0000000 0.0000000
0.4663487 1.0000000 0.0000000
0.4875464 1.0000000 0.0000000
0.5087440 1.0000000 0.0000000
0.5299417 1.0000000 0.0000000
0.5511394 1.0000000 0.0000000
0.5723370 1.0000000 0.0000000
0.5935347 1.0000000 0.0000000
0.6147324 1.0000000 0.0000000
0.6359300 1.0000000 0.0000000
0.6571277 1.0000000 0.0000000
0.6783254 1.0000000 0.0000000
0.6995231 1.0000000 0.0000000
0.7207207 1.0000000 0.0000000
0.7419184 1.0000000 0.0000000
0.7631161 1.0000000 0.0000000
0.7843137 1.0000000 0.0000000
0.8055114 1.0000000 0.0000000
0.8267091 1.0000000 0.0000000
0.8479067 1.0000000 0.0000000
0.8691044 1.0000000 0.0000000
0.8903021 1.0000000 0.0000000
0.9114997 1.0000000 0.0000000
0.9326974 1.0000000 0.0000000
0.9538951 1.0000000 0.0000000
0.9750927 1.0000000 0.0000000
0.9962904 1.0000000 0.0000000
1.0000000 0.9825119 0.0000000
1.0000000 0.9613143 0.0000000
1.0000000 0.9401166 0.0000000
1.0000000 0.9189189 0.0000000
1.0000000 0.8977213 0.0000000
1.0000000 0.8765236 0.0000000
1.0000000 0.8553259 0.0000000
1.0000000 0.8341282 0.0000000
1.0000000 0.8129306 0.0000000
1.0000000 0.7917329 0.0000000
1.0000000 0.7705352 0.0000000
1.0000000 0.7493376 0.0000000
1.0000000 0.7281399 0.0000000
1.0000000 0.7069422 0.0000000
1.0000000 0.6857446 0.0000000
1.0000000 0.6645469 0.0000000
1.0000000 0.6433492 0.0000000
1.0000000 0.6221516 0.0000000
1.0000000 0.6009539 0.0000000
1.0000000 0.5797562 0.0000000
1.0000000 0.5585586 0.0000000
1.0000000 0.5373609 0.0000000
1.0000000 0.5161632 0.0000000
1.0000000 0.4949656 0.0000000
1.0000000 0.4737679 0.0000000
1.0000000 0.4525702 0.0000000
1.0000000 0.4313725 0.0000000
1.0000000 0.4101749 0.0000000
1.0000000 0.3889772 0.0000000
1.0000000 0.3677795 0.0000000
1.0000000 0.3465819 0.0000000
1.0000000 0.3253842 0.0000000
1.0000000 0.3041865 0.0000000
1.0000000 0.2829889 0.0000000
1.0000000 0.2617912 0.0000000
1.0000000 0.2405935 0.0000000
1.0000000 0.2193959 0.0000000
1.0000000 0.1981982 0.0000000
1.0000000 0.1770005 0.0000000
1.0000000 0.1558029 0.0000000
1.0000000 0.1346052 0.0000000
1.0000000 0.1134075 0.0000000
1.0000000 0.0922099 0.0000000
1.0000000 0.0710122 0.0000000
1.0000000 0.0498145 0.0000000
1.0000000 0.0286169 0.0000000
1.0000000 0.0074192 0.0000000
1.0000000 0.0000000 0.0135948
1.0000000 0.0000000 0.0345098
1.0000000 0.0000000 0.0554248
1.0000000 0.0000000 0.0763399
1.0000000 0.0000000 0.0972549
1.0000000 0.0000000 0.1181699
1.0000000 0.0000000 0.1390850
1.0000000 0.0000000 0.1600000
