posts/Davinci-Resolve-thermal-luts/colormaps-as-cube/GnBu.cube
TITLE "Colormap GnBu"
LUT_1D_SIZE 256
0.9686275 0.9882353 0.9411765
0.9657978 0.9871280 0.9385928
0.9629681 0.9860208 0.9360092
0.9601384 0.9849135 0.9334256
0.9573087 0.9838062 0.9308420
0.9544790 0.9826990 0.9282584
0.9516494 0.9815917 0.9256747
0.9488197 0.9804844 0.9230911
0.9459900 0.9793772 0.9205075
0.9431603 0.9782699 0.9179239
0.9403306 0.9771626 0.9153403
0.9375010 0.9760554 0.9127566
0.9346713 0.9749481 0.9101730
0.9318416 0.9738408 0.9075894
0.9290119 0.9727336 0.9050058
0.9261822 0.9716263 0.9024221
0.9233526 0.9705190 0.8998385
0.9205229 0.9694118 0.8972549
0.9176932 0.9683045 0.8946713
0.9148635 0.9671972 0.8920877
0.9120338 0.9660900 0.8895040
0.9092042 0.9649827 0.8869204
0.9063745 0.9638754 0.8843368
0.9035448 0.9627682 0.8817532
0.9007151 0.9616609 0.8791696
0.8978854 0.9605536 0.8765859
0.8950557 0.9594464 0.8740023
0.8922261 0.9583391 0.8714187
0.8893964 0.9572318 0.8688351
0.8865667 0.9561246 0.8662514
0.8837370 0.9550173 0.8636678
0.8809073 0.9539100 0.8610842
0.8781238 0.9528181 0.8584852
0.8756632 0.9518339 0.8557785
0.8732026 0.9508497 0.8530719
0.8707420 0.9498654 0.8503652
0.8682814 0.9488812 0.8476586
0.8658208 0.9478970 0.8449519
0.8633602 0.9469127 0.8422453
0.8608997 0.9459285 0.8395386
0.8584391 0.9449443 0.8368320
0.8559785 0.9439600 0.8341253
0.8535179 0.9429758 0.8314187
0.8510573 0.9419915 0.8287120
0.8485967 0.9410073 0.8260054
0.8461361 0.9400231 0.8232987
0.8436755 0.9390388 0.8205921
0.8412149 0.9380546 0.8178854
0.8387543 0.9370704 0.8151788
0.8362937 0.9360861 0.8124721
0.8338331 0.9351019 0.8097655
0.8313725 0.9341176 0.8070588
0.8289120 0.9331334 0.8043522
0.8264514 0.9321492 0.8016455
0.8239908 0.9311649 0.7989389
0.8215302 0.9301807 0.7962322
0.8190696 0.9291965 0.7935256
0.8166090 0.9282122 0.7908189
0.8141484 0.9272280 0.7881123
0.8116878 0.9262438 0.7854056
0.8092272 0.9252595 0.7826990
0.8067666 0.9242753 0.7799923
0.8043060 0.9232910 0.7772857
0.8018454 0.9223068 0.7745790
0.7988927 0.9211380 0.7720569
0.7944637 0.9194156 0.7700884
0.7900346 0.9176932 0.7681200
0.7856055 0.9159708 0.7661515
0.7811765 0.9142484 0.7641830
0.7767474 0.9125260 0.7622145
0.7723183 0.9108035 0.7602461
0.7678893 0.9090811 0.7582776
0.7634602 0.9073587 0.7563091
0.7590311 0.9056363 0.7543406
0.7546021 0.9039139 0.7523722
0.7501730 0.9021915 0.7504037
0.7457439 0.9004691 0.7484352
0.7413149 0.8987466 0.7464667
0.7368858 0.8970242 0.7444983
0.7324567 0.8953018 0.7425298
0.7280277 0.8935794 0.7405613
0.7235986 0.8918570 0.7385928
0.7191696 0.8901346 0.7366244
0.7147405 0.8884121 0.7346559
0.7103114 0.8866897 0.7326874
0.7058824 0.8849673 0.7307190
0.7014533 0.8832449 0.7287505
0.6970242 0.8815225 0.7267820
0.6925952 0.8798001 0.7248135
0.6881661 0.8780777 0.7228451
0.6837370 0.8763552 0.7208766
0.6793080 0.8746328 0.7189081
0.6748789 0.8729104 0.7169396
0.6704498 0.8711880 0.7149712
0.6660208 0.8694656 0.7130027
0.6615917 0.8677432 0.7110342
0.6567474 0.8658824 0.7104960
0.6512111 0.8637908 0.7123414
0.6456747 0.8616993 0.7141869
0.6401384 0.8596078 0.7160323
0.6346021 0.8575163 0.7178777
0.6290657 0.8554248 0.7197232
0.6235294 0.8533333 0.7215686
0.6179931 0.8512418 0.7234141
0.6124567 0.8491503 0.7252595
0.6069204 0.8470588 0.7271050
0.6013841 0.8449673 0.7289504
0.5958478 0.8428758 0.7307958
0.5903114 0.8407843 0.7326413
0.5847751 0.8386928 0.7344867
0.5792388 0.8366013 0.7363322
0.5737024 0.8345098 0.7381776
0.5681661 0.8324183 0.7400231
0.5626298 0.8303268 0.7418685
0.5570934 0.8282353 0.7437140
0.5515571 0.8261438 0.7455594
0.5460208 0.8240523 0.7474048
0.5404844 0.8219608 0.7492503
0.5349481 0.8198693 0.7510957
0.5294118 0.8177778 0.7529412
0.5238754 0.8156863 0.7547866
0.5183391 0.8135948 0.7566321
0.5128028 0.8115033 0.7584775
0.5072664 0.8094118 0.7603230
0.5017301 0.8073203 0.7621684
0.4961938 0.8052288 0.7640138
0.4906574 0.8031373 0.7658593
0.4851211 0.8010458 0.7677047
0.4795848 0.7984621 0.7695502
0.4740484 0.7953864 0.7713956
0.4685121 0.7923106 0.7732411
0.4629758 0.7892349 0.7750865
0.4574394 0.7861592 0.7769319
0.4519031 0.7830834 0.7787774
0.4463668 0.7800077 0.7806228
0.4408304 0.7769319 0.7824683
0.4352941 0.7738562 0.7843137
0.4297578 0.7707805 0.7861592
0.4242215 0.7677047 0.7880046
0.4186851 0.7646290 0.7898501
0.4131488 0.7615532 0.7916955
0.4076125 0.7584775 0.7935409
0.4020761 0.7554018 0.7953864
0.3965398 0.7523260 0.7972318
0.3910035 0.7492503 0.7990773
0.3854671 0.7461745 0.8009227
0.3799308 0.7430988 0.8027682
0.3743945 0.7400231 0.8046136
0.3688581 0.7369473 0.8064591
0.3633218 0.7338716 0.8083045
0.3577855 0.7307958 0.8101499
0.3522491 0.7277201 0.8119954
0.3467128 0.7246444 0.8138408
0.3411765 0.7215686 0.8156863
0.3356401 0.7184929 0.8175317
0.3301038 0.7154171 0.8193772
0.3245675 0.7123414 0.8212226
0.3190311 0.7092657 0.8230681
0.3134948 0.7061899 0.8249135
0.3079585 0.7031142 0.8267589
0.3031911 0.6989619 0.8258362
0.2988850 0.6941638 0.8232526
0.2945790 0.6893656 0.8206690
0.2902730 0.6845675 0.8180854
0.2859669 0.6797693 0.8155017
0.2816609 0.6749712 0.8129181
0.2773549 0.6701730 0.8103345
0.2730488 0.6653749 0.8077509
0.2687428 0.6605767 0.8051672
0.2644368 0.6557785 0.8025836
0.2601307 0.6509804 0.8000000
0.2558247 0.6461822 0.7974164
0.2515186 0.6413841 0.7948328
0.2472126 0.6365859 0.7922491
0.2429066 0.6317878 0.7896655
0.2386005 0.6269896 0.7870819
0.2342945 0.6221915 0.7844983
0.2299885 0.6173933 0.7819146
0.2256824 0.6125952 0.7793310
0.2213764 0.6077970 0.7767474
0.2170704 0.6029988 0.7741638
0.2127643 0.5982007 0.7715802
0.2084583 0.5934025 0.7689965
0.2041522 0.5886044 0.7664129
0.1998462 0.5838062 0.7638293
0.1955402 0.5790081 0.7612457
0.1912341 0.5742099 0.7586621
0.1869281 0.5694118 0.7560784
0.1826221 0.5646136 0.7534948
0.1783160 0.5598155 0.7509112
0.1740100 0.5550173 0.7483276
0.1697040 0.5502191 0.7457439
0.1653979 0.5456978 0.7434371
0.1610919 0.5412687 0.7412226
0.1567859 0.5368397 0.7390081
0.1524798 0.5324106 0.7367935
0.1481738 0.5279815 0.7345790
0.1438677 0.5235525 0.7323645
0.1395617 0.5191234 0.7301499
0.1352557 0.5146943 0.7279354
0.1309496 0.5102653 0.7257209
0.1266436 0.5058362 0.7235063
0.1223376 0.5014072 0.7212918
0.1180315 0.4969781 0.7190773
0.1137255 0.4925490 0.7168627
0.1094195 0.4881200 0.7146482
0.1051134 0.4836909 0.7124337
0.1008074 0.4792618 0.7102191
0.0965013 0.4748328 0.7080046
0.0921953 0.4704037 0.7057901
0.0878893 0.4659746 0.7035755
0.0835832 0.4615456 0.7013610
0.0792772 0.4571165 0.6991465
0.0749712 0.4526874 0.6969319
0.0706651 0.4482584 0.6947174
0.0663591 0.4438293 0.6925029
0.0620531 0.4394002 0.6902884
0.0577470 0.4349712 0.6880738
0.0534410 0.4305421 0.6858593
0.0491349 0.4261130 0.6836448
0.0448289 0.4216840 0.6814302
0.0405229 0.4172549 0.6792157
0.0362168 0.4128258 0.6770012
0.0319108 0.4083968 0.6747866
0.0313725 0.4035371 0.6698808
0.0313725 0.3986159 0.6645905
0.0313725 0.3936947 0.6593003
0.0313725 0.3887735 0.6540100
0.0313725 0.3838524 0.6487197
0.0313725 0.3789312 0.6434295
0.0313725 0.3740100 0.6381392
0.0313725 0.3690888 0.6328489
0.0313725 0.3641676 0.6275586
0.0313725 0.3592464 0.6222684
0.0313725 0.3543253 0.6169781
0.0313725 0.3494041 0.6116878
0.0313725 0.3444829 0.6063975
0.0313725 0.3395617 0.6011073
0.0313725 0.3346405 0.5958170
0.0313725 0.3297193 0.5905267
0.0313725 0.3247982 0.5852364
0.0313725 0.3198770 0.5799462
0.0313725 0.3149558 0.5746559
0.0313725 0.3100346 0.5693656
0.0313725 0.3051134 0.5640754
0.0313725 0.3001922 0.5587851
0.0313725 0.2952710 0.5534948
0.0313725 0.2903499 0.5482045
0.0313725 0.2854287 0.5429143
0.0313725 0.2805075 0.5376240
0.0313725 0.2755863 0.5323337
0.0313725 0.2706651 0.5270434
0.0313725 0.2657439 0.5217532
0.0313725 0.2608228 0.5164629
0.0313725 0.2559016 0.5111726
0.0313725 0.2509804 0.5058824
