posts/Davinci-Resolve-thermal-luts/colormaps-as-cube/gnuplot2.cube
TITLE "Colormap gnuplot2"
LUT_1D_SIZE 256
0.0000000 0.0000000 0.0000000
0.0000000 0.0000000 0.0156863
0.0000000 0.0000000 0.0313725
0.0000000 0.0000000 0.0470588
0.0000000 0.0000000 0.0627451
0.0000000 0.0000000 0.0784314
0.0000000 0.0000000 0.0941176
0.0000000 0.0000000 0.1098039
0.0000000 0.0000000 0.1254902
0.0000000 0.0000000 0.1411765
0.0000000 0.0000000 0.1568627
0.0000000 0.0000000 0.1725490
0.0000000 0.0000000 0.1882353
0.0000000 0.0000000 0.2039216
0.0000000 0.0000000 0.2196078
0.0000000 0.0000000 0.2352941
0.0000000 0.0000000 0.2509804
0.0000000 0.0000000 0.2666667
0.0000000 0.0000000 0.2823529
0.0000000 0.0000000 0.2980392
0.0000000 0.0000000 0.3137255
0.0000000 0.0000000 0.3294118
0.0000000 0.0000000 0.3450980
0.0000000 0.0000000 0.3607843
0.0000000 0.0000000 0.3764706
0.0000000 0.0000000 0.3921569
0.0000000 0.0000000 0.4078431
0.0000000 0.0000000 0.4235294
0.0000000 0.0000000 0.4392157
0.0000000 0.0000000 0.4549020
0.0000000 0.0000000 0.4705882
0.0000000 0.0000000 0.4862745
0.0000000 0.0000000 0.5019608
0.0000000 0.0000000 0.5176471
0.0000000 0.0000000 0.5333333
0.0000000 0.0000000 0.5490196
0.0000000 0.0000000 0.5647059
0.0000000 0.0000000 0.5803922
0.0000000 0.0000000 0.5960784
0.0000000 0.0000000 0.6117647
0.0000000 0.0000000 0.6274510
0.0000000 0.0000000 0.6431373
0.0000000 0.0000000 0.6588235
0.0000000 0.0000000 0.6745098
0.0000000 0.0000000 0.6901961
0.0000000 0.0000000 0.7058824
0.0000000 0.0000000 0.7215686
0.0000000 0.0000000 0.7372549
0.0000000 0.0000000 0.7529412
0.0000000 0.0000000 0.7686275
0.0000000 0.0000000 0.7843137
0.0000000 0.0000000 0.8000000
0.0000000 0.0000000 0.8156863
0.0000000 0.0000000 0.8313725
0.0000000 0.0000000 0.8470588
0.0000000 0.0000000 0.8627451
0.0000000 0.0000000 0.8784314
0.0000000 0.0000000 0.8941176
0.0000000 0.0000000 0.9098039
0.0000000 0.0000000 0.9254902
0.0000000 0.0000000 0.9411765
0.0000000 0.0000000 0.9568627
0.0000000 0.0000000 0.9725490
0.0000000 0.0000000 0.9882353
0.0030637 0.0000000 1.0000000
0.0153186 0.0000000 1.0000000
0.0275735 0.0000000 1.0000000
0.0398284 0.0000000 1.0000000
0.0520833 0.0000000 1.0000000
0.0643382 0.0000000 1.0000000
0.0765931 0.0000000 1.0000000
0.0888480 0.0000000 1.0000000
0.1011029 0.0000000 1.0000000
0.1133578 0.0000000 1.0000000
0.1256127 0.0000000 1.0000000
0.1378676 0.0000000 1.0000000
0.1501225 0.0000000 1.0000000
0.1623775 0.0000000 1.0000000
0.1746324 0.0000000 1.0000000
0.1868873 0.0000000 1.0000000
0.1991422 0.0000000 1.0000000
0.2113971 0.0000000 1.0000000
0.2236520 0.0000000 1.0000000
0.2359069 0.0000000 1.0000000
0.2481618 0.0000000 1.0000000
0.2604167 0.0000000 1.0000000
0.2726716 0.0000000 1.0000000
0.2849265 0.0000000 1.0000000
0.2971814 0.0000000 1.0000000
0.3094363 0.0000000 1.0000000
0.3216912 0.0000000 1.0000000
0.3339461 0.0000000 1.0000000
0.3462010 0.0000000 1.0000000
0.3584559 0.0000000 1.0000000
0.3707108 0.0000000 1.0000000
0.3829657 0.0000000 1.0000000
0.3952206 0.0000000 1.0000000
0.4074755 0.0000000 1.0000000
0.4197304 0.0000000 1.0000000
0.4319853 0.0000000 1.0000000
0.4442402 0.0000000 1.0000000
0.4564951 0.0000000 1.0000000
0.4687500 0.0000000 1.0000000
0.4810049 0.0000000 1.0000000
0.4932598 0.0000000 1.0000000
0.5055147 0.0000000 1.0000000
0.5177696 0.0000000 1.0000000
0.5300245 0.0000000 1.0000000
0.5422794 0.0070588 0.9929412
0.5545343 0.0149020 0.9850980
0.5667892 0.0227451 0.9772549
0.5790441 0.0305882 0.9694118
0.5912990 0.0384314 0.9615686
0.6035539 0.0462745 0.9537255
0.6158088 0.0541176 0.9458824
0.6280637 0.0619608 0.9380392
0.6403186 0.0698039 0.9301961
0.6525735 0.0776471 0.9223529
0.6648284 0.0854902 0.9145098
0.6770833 0.0933333 0.9066667
0.6893382 0.1011765 0.8988235
0.7015931 0.1090196 0.8909804
0.7138480 0.1168627 0.8831373
0.7261029 0.1247059 0.8752941
0.7383578 0.1325490 0.8674510
0.7506127 0.1403922 0.8596078
0.7628676 0.1482353 0.8517647
0.7751225 0.1560784 0.8439216
0.7873775 0.1639216 0.8360784
0.7996324 0.1717647 0.8282353
0.8118873 0.1796078 0.8203922
0.8241422 0.1874510 0.8125490
0.8363971 0.1952941 0.8047059
0.8486520 0.2031373 0.7968627
0.8609069 0.2109804 0.7890196
0.8731618 0.2188235 0.7811765
0.8854167 0.2266667 0.7733333
0.8976716 0.2345098 0.7654902
0.9099265 0.2423529 0.7576471
0.9221814 0.2501961 0.7498039
0.9344363 0.2580392 0.7419608
0.9466912 0.2658824 0.7341176
0.9589461 0.2737255 0.7262745
0.9712010 0.2815686 0.7184314
0.9834559 0.2894118 0.7105882
0.9957108 0.2972549 0.7027451
1.0000000 0.3050980 0.6949020
1.0000000 0.3129412 0.6870588
1.0000000 0.3207843 0.6792157
1.0000000 0.3286275 0.6713725
1.0000000 0.3364706 0.6635294
1.0000000 0.3443137 0.6556863
1.0000000 0.3521569 0.6478431
1.0000000 0.3600000 0.6400000
1.0000000 0.3678431 0.6321569
1.0000000 0.3756863 0.6243137
1.0000000 0.3835294 0.6164706
1.0000000 0.3913725 0.6086275
1.0000000 0.3992157 0.6007843
1.0000000 0.4070588 0.5929412
1.0000000 0.4149020 0.5850980
1.0000000 0.4227451 0.5772549
1.0000000 0.4305882 0.5694118
1.0000000 0.4384314 0.5615686
1.0000000 0.4462745 0.5537255
1.0000000 0.4541176 0.5458824
1.0000000 0.4619608 0.5380392
1.0000000 0.4698039 0.5301961
1.0000000 0.4776471 0.5223529
1.0000000 0.4854902 0.5145098
1.0000000 0.4933333 0.5066667
1.0000000 0.5011765 0.4988235
1.0000000 0.5090196 0.4909804
1.0000000 0.5168627 0.4831373
1.0000000 0.5247059 0.4752941
1.0000000 0.5325490 0.4674510
1.0000000 0.5403922 0.4596078
1.0000000 0.5482353 0.4517647
1.0000000 0.5560784 0.4439216
1.0000000 0.5639216 0.4360784
1.0000000 0.5717647 0.4282353
1.0000000 0.5796078 0.4203922
1.0000000 0.5874510 0.4125490
1.0000000 0.5952941 0.4047059
1.0000000 0.6031373 0.3968627
1.0000000 0.6109804 0.3890196
1.0000000 0.6188235 0.3811765
1.0000000 0.6266667 0.3733333
1.0000000 0.6345098 0.3654902
1.0000000 0.6423529 0.3576471
1.0000000 0.6501961 0.3498039
1.0000000 0.6580392 0.3419608
1.0000000 0.6658824 0.3341176
1.0000000 0.6737255 0.3262745
1.0000000 0.6815686 0.3184314
1.0000000 0.6894118 0.3105882
1.0000000 0.6972549 0.3027451
1.0000000 0.7050980 0.2949020
1.0000000 0.7129412 0.2870588
1.0000000 0.7207843 0.2792157
1.0000000 0.7286275 0.2713725
1.0000000 0.7364706 0.2635294
1.0000000 0.7443137 0.2556863
1.0000000 0.7521569 0.2478431
1.0000000 0.7600000 0.2400000
1.0000000 0.7678431 0.2321569
1.0000000 0.7756863 0.2243137
1.0000000 0.7835294 0.2164706
1.0000000 0.7913725 0.2086275
1.0000000 0.7992157 0.2007843
1.0000000 0.8070588 0.1929412
1.0000000 0.8149020 0.1850980
1.0000000 0.8227451 0.1772549
1.0000000 0.8305882 0.1694118
1.0000000 0.8384314 0.1615686
1.0000000 0.8462745 0.1537255
1.0000000 0.8541176 0.1458824
1.0000000 0.8619608 0.1380392
1.0000000 0.8698039 0.1301961
1.0000000 0.8776471 0.1223529
1.0000000 0.8854902 0.1145098
1.0000000 0.8933333 0.1066667
1.0000000 0.9011765 0.0988235
1.0000000 0.9090196 0.0909804
1.0000000 0.9168627 0.0831373
1.0000000 0.9247059 0.0752941
1.0000000 0.9325490 0.0674510
1.0000000 0.9403922 0.0596078
1.0000000 0.9482353 0.0517647
1.0000000 0.9560784 0.0439216
1.0000000 0.9639216 0.0360784
1.0000000 0.9717647 0.0282353
1.0000000 0.9796078 0.0203922
1.0000000 0.9874510 0.0125490
1.0000000 0.9952941 0.0047059
1.0000000 1.0000000 0.0196078
1.0000000 1.0000000 0.0686275
1.0000000 1.0000000 0.1176471
1.0000000 1.0000000 0.1666667
1.0000000 1.0000000 0.2156863
1.0000000 1.0000000 0.2647059
1.0000000 1.0000000 0.3137255
1.0000000 1.0000000 0.3627451
1.0000000 1.0000000 0.4117647
1.0000000 1.0000000 0.4607843
1.0000000 1.0000000 0.5098039
1.0000000 1.0000000 0.5588235
1.0000000 1.0000000 0.6078431
1.0000000 1.0000000 0.6568627
1.0000000 1.0000000 0.7058824
1.0000000 1.0000000 0.7549020
1.0000000 1.0000000 0.8039216
1.0000000 1.0000000 0.8529412
1.0000000 1.0000000 0.9019608
1.0000000 1.0000000 0.9509804
1.0000000 1.0000000 1.0000000
