posts/Davinci-Resolve-thermal-luts/colormaps-as-cube/gnuplot_r.cube
TITLE "Colormap gnuplot_r"
LUT_1D_SIZE 256
1.0000000 1.0000000 0.0000000
0.9980373 0.9882814 0.0000000
0.9960707 0.9766547 0.0000000
0.9941002 0.9651195 0.0000000
0.9921259 0.9536755 0.0000000
0.9901475 0.9423223 0.0000000
0.9881653 0.9310596 0.0000000
0.9861790 0.9198870 0.0000000
0.9841887 0.9088042 0.0000000
0.9821944 0.8978107 0.0000000
0.9801961 0.8869062 0.0000000
0.9781936 0.8760904 0.0000000
0.9761871 0.8653629 0.0000000
0.9741764 0.8547233 0.0000000
0.9721615 0.8441713 0.0000000
0.9701425 0.8337065 0.0000000
0.9681193 0.8233285 0.0000000
0.9660918 0.8130370 0.0000000
0.9640600 0.8028317 0.0000000
0.9620240 0.7927121 0.0000000
0.9599837 0.7826779 0.0000000
0.9579390 0.7727287 0.0000000
0.9558899 0.7628642 0.0000000
0.9538364 0.7530840 0.0000000
0.9517785 0.7433877 0.0000000
0.9497162 0.7337751 0.0000000
0.9476493 0.7242457 0.0000000
0.9455779 0.7147991 0.0000000
0.9435020 0.7054350 0.0000000
0.9414215 0.6961531 0.0000000
0.9393364 0.6869530 0.0000000
0.9372467 0.6778343 0.0000000
0.9351523 0.6687966 0.0000000
0.9330532 0.6598396 0.0000000
0.9309493 0.6509630 0.0000000
0.9288407 0.6421663 0.0000000
0.9267273 0.6334492 0.0000000
0.9246091 0.6248114 0.0000000
0.9224860 0.6162525 0.0000000
0.9203580 0.6077720 0.0000000
0.9182251 0.5993698 0.0000000
0.9160872 0.5910453 0.0000000
0.9139443 0.5827983 0.0000000
0.9117963 0.5746283 0.0000000
0.9096433 0.5665351 0.0000000
0.9074852 0.5585182 0.0000000
0.9053220 0.5505773 0.0000000
0.9031535 0.5427120 0.0000000
0.9009799 0.5349220 0.0000000
0.8988009 0.5272069 0.0000000
0.8966167 0.5195664 0.0000000
0.8944272 0.5120000 0.0000000
0.8922323 0.5045074 0.0000000
0.8900319 0.4970883 0.0000000
0.8878262 0.4897423 0.0000000
0.8856149 0.4824690 0.0000000
0.8833981 0.4752681 0.0000000
0.8811757 0.4681392 0.0000000
0.8789477 0.4610820 0.0000000
0.8767140 0.4540960 0.0000000
0.8744746 0.4471809 0.0000000
0.8722295 0.4403365 0.0000000
0.8699786 0.4335622 0.0000000
0.8677218 0.4268577 0.0000000
0.8654592 0.4202227 0.0000000
0.8631906 0.4136569 0.0000000
0.8609161 0.4071598 0.0000000
0.8586355 0.4007311 0.0000000
0.8563488 0.3943704 0.0000000
0.8540561 0.3880773 0.0000000
0.8517571 0.3818516 0.0000000
0.8494520 0.3756928 0.0000000
0.8471405 0.3696007 0.0000000
0.8448228 0.3635747 0.0000000
0.8424986 0.3576146 0.0000000
0.8401681 0.3517199 0.0000000
0.8378310 0.3458904 0.0000000
0.8354874 0.3401257 0.0000000
0.8331372 0.3344254 0.0000000
0.8307804 0.3287891 0.0000000
0.8284169 0.3232166 0.0000000
0.8260466 0.3177073 0.0000000
0.8236695 0.3122610 0.0000000
0.8212855 0.3068773 0.0000000
0.8188945 0.3015559 0.0000000
0.8164966 0.2962963 0.0000000
0.8140916 0.2910982 0.0000000
0.8116794 0.2859613 0.0000000
0.8092601 0.2808852 0.0000000
0.8068336 0.2758695 0.0000000
0.8043997 0.2709139 0.0000000
0.8019584 0.2660180 0.0000000
0.7995097 0.2611814 0.0000000
0.7970534 0.2564038 0.0000000
0.7945895 0.2516849 0.0000000
0.7921180 0.2470241 0.0000000
0.7896388 0.2424213 0.0000000
0.7871517 0.2378761 0.0000000
0.7846568 0.2333879 0.0000000
0.7821539 0.2289566 0.0000000
0.7796430 0.2245818 0.0000000
0.7771239 0.2202630 0.0000000
0.7745967 0.2160000 0.0000000
0.7720612 0.2117923 0.0000000
0.7695173 0.2076397 0.0000000
0.7669650 0.2035416 0.0000000
0.7644042 0.1994979 0.0000000
0.7618347 0.1955080 0.0000000
0.7592566 0.1915717 0.0000000
0.7566697 0.1876887 0.0000000
0.7540739 0.1838584 0.0000000
0.7514691 0.1800806 0.0000000
0.7488553 0.1763549 0.0000000
0.7462324 0.1726810 0.0000000
0.7436001 0.1690584 0.0000000
0.7409586 0.1654869 0.0000000
0.7383076 0.1619660 0.0000000
0.7356470 0.1584954 0.0000000
0.7329767 0.1550748 0.0000000
0.7302967 0.1517037 0.0000000
0.7276069 0.1483818 0.0000000
0.7249070 0.1451088 0.0000000
0.7221971 0.1418843 0.0000000
0.7194769 0.1387079 0.0000000
0.7167465 0.1355793 0.0000000
0.7140055 0.1324981 0.0000000
0.7112541 0.1294639 0.0000000
0.7084919 0.1264764 0.0000000
0.7057189 0.1235352 0.0123197
0.7029350 0.1206399 0.0369515
0.7001400 0.1177903 0.0615609
0.6973339 0.1149859 0.0861329
0.6945163 0.1122263 0.1106527
0.6916873 0.1095113 0.1351052
0.6888467 0.1068404 0.1594758
0.6859943 0.1042133 0.1837495
0.6831301 0.1016296 0.2079117
0.6802537 0.0990890 0.2319476
0.6773651 0.0965911 0.2558428
0.6744642 0.0941355 0.2795826
0.6715507 0.0917219 0.3031527
0.6686246 0.0893499 0.3265387
0.6656856 0.0870191 0.3497265
0.6627335 0.0847293 0.3727020
0.6597682 0.0824800 0.3954512
0.6567896 0.0802708 0.4179603
0.6537974 0.0781014 0.4402157
0.6507914 0.0759715 0.4622039
0.6477714 0.0738807 0.4839114
0.6447374 0.0718285 0.5053252
0.6416889 0.0698148 0.5264322
0.6386260 0.0678390 0.5472195
0.6355482 0.0659009 0.5676747
0.6324555 0.0640000 0.5877853
0.6293476 0.0621360 0.6075389
0.6262243 0.0603086 0.6269238
0.6230853 0.0585174 0.6459281
0.6199304 0.0567620 0.6645402
0.6167594 0.0550421 0.6827489
0.6135720 0.0533572 0.7005430
0.6103679 0.0517071 0.7179119
0.6071470 0.0500914 0.7348450
0.6039088 0.0485097 0.7513319
0.6006532 0.0469616 0.7673627
0.5973799 0.0454468 0.7829276
0.5940885 0.0439650 0.7980172
0.5907788 0.0425157 0.8126224
0.5874505 0.0410986 0.8267342
0.5841031 0.0397134 0.8403441
0.5807365 0.0383597 0.8534438
0.5773503 0.0370370 0.8660254
0.5739440 0.0357452 0.8780812
0.5705175 0.0344837 0.8896040
0.5670702 0.0332522 0.9005867
0.5636019 0.0320505 0.9110226
0.5601120 0.0308780 0.9209055
0.5566003 0.0297345 0.9302293
0.5530663 0.0286196 0.9389884
0.5495096 0.0275329 0.9471774
0.5459297 0.0264740 0.9547913
0.5423261 0.0254427 0.9618256
0.5386985 0.0244385 0.9682760
0.5350463 0.0234611 0.9741386
0.5313689 0.0225101 0.9794098
0.5276660 0.0215851 0.9840863
0.5239368 0.0206859 0.9881655
0.5201810 0.0198119 0.9916447
0.5163978 0.0189630 0.9945219
0.5125867 0.0181386 0.9967953
0.5087470 0.0173385 0.9984636
0.5048782 0.0165623 0.9995257
0.5009794 0.0158095 0.9999810
0.4970501 0.0150800 0.9998293
0.4930895 0.0143732 0.9990705
0.4890968 0.0136889 0.9977052
0.4850713 0.0130267 0.9957342
0.4810120 0.0123861 0.9931587
0.4769182 0.0117669 0.9899802
0.4727890 0.0111687 0.9862007
0.4686233 0.0105912 0.9818226
0.4644204 0.0100338 0.9768483
0.4601790 0.0094964 0.9712810
0.4558982 0.0089786 0.9651241
0.4515768 0.0084799 0.9583812
0.4472136 0.0080000 0.9510565
0.4428074 0.0075386 0.9431544
0.4383570 0.0070952 0.9346798
0.4338609 0.0066697 0.9256377
0.4293177 0.0062614 0.9160336
0.4247260 0.0058702 0.9058734
0.4200840 0.0054956 0.8951633
0.4153902 0.0051373 0.8839097
0.4106427 0.0047950 0.8721195
0.4058397 0.0044681 0.8597999
0.4009792 0.0041565 0.8469582
0.3960590 0.0038598 0.8336024
0.3910769 0.0035774 0.8197405
0.3860306 0.0033093 0.8053809
0.3809174 0.0030548 0.7905324
0.3757346 0.0028138 0.7752040
0.3704793 0.0025857 0.7594049
0.3651484 0.0023704 0.7431448
0.3597385 0.0021673 0.7264336
0.3542460 0.0019762 0.7092813
0.3486669 0.0017967 0.6916984
0.3429972 0.0016283 0.6736956
0.3372321 0.0014709 0.6552839
0.3313667 0.0013239 0.6364742
0.3253957 0.0011871 0.6172782
0.3193130 0.0010600 0.5977075
0.3131121 0.0009423 0.5777738
0.3067860 0.0008337 0.5574894
0.3003266 0.0007338 0.5368666
0.2937252 0.0006422 0.5159178
0.2869720 0.0005585 0.4946558
0.2800560 0.0004825 0.4730936
0.2729648 0.0004137 0.4512441
0.2656845 0.0003517 0.4291206
0.2581989 0.0002963 0.4067366
0.2504897 0.0002470 0.3841057
0.2425356 0.0002035 0.3612417
0.2343117 0.0001655 0.3381583
0.2257884 0.0001325 0.3148696
0.2169305 0.0001042 0.2913897
0.2076951 0.0000803 0.2677330
0.1980295 0.0000603 0.2439137
0.1878673 0.0000440 0.2199464
0.1771230 0.0000309 0.1958455
0.1656834 0.0000207 0.1716257
0.1533930 0.0000130 0.1473017
0.1400280 0.0000075 0.1228883
0.1252449 0.0000039 0.0984003
0.1084652 0.0000016 0.0738525
0.0885615 0.0000005 0.0492599
0.0626224 0.0000001 0.0246374
0.0000000 0.0000000 0.0000000
