posts/Davinci-Resolve-thermal-luts/colormaps-as-cube/Greens_r.cube
TITLE "Colormap Greens_r"
LUT_1D_SIZE 256
0.0000000 0.2666667 0.1058824
0.0000000 0.2717109 0.1079739
0.0000000 0.2767551 0.1100654
0.0000000 0.2817993 0.1121569
0.0000000 0.2868435 0.1142484
0.0000000 0.2918877 0.1163399
0.0000000 0.2969319 0.1184314
0.0000000 0.3019762 0.1205229
0.0000000 0.3070204 0.1226144
0.0000000 0.3120646 0.1247059
0.0000000 0.3171088 0.1267974
0.0000000 0.3221530 0.1288889
0.0000000 0.3271972 0.1309804
0.0000000 0.3322414 0.1330719
0.0000000 0.3372857 0.1351634
0.0000000 0.3423299 0.1372549
0.0000000 0.3473741 0.1393464
0.0000000 0.3524183 0.1414379
0.0000000 0.3574625 0.1435294
0.0000000 0.3625067 0.1456209
0.0000000 0.3675509 0.1477124
0.0000000 0.3725952 0.1498039
0.0000000 0.3776394 0.1518954
0.0000000 0.3826836 0.1539869
0.0000000 0.3877278 0.1560784
0.0000000 0.3927720 0.1581699
0.0000000 0.3978162 0.1602614
0.0000000 0.4028604 0.1623529
0.0000000 0.4079047 0.1644444
0.0000000 0.4129489 0.1665359
0.0000000 0.4179931 0.1686275
0.0000000 0.4230373 0.1707190
0.0005383 0.4279123 0.1729335
0.0048443 0.4316032 0.1760092
0.0091503 0.4352941 0.1790850
0.0134564 0.4389850 0.1821607
0.0177624 0.4426759 0.1852364
0.0220684 0.4463668 0.1883122
0.0263745 0.4500577 0.1913879
0.0306805 0.4537486 0.1944637
0.0349865 0.4574394 0.1975394
0.0392926 0.4611303 0.2006151
0.0435986 0.4648212 0.2036909
0.0479047 0.4685121 0.2067666
0.0522107 0.4722030 0.2098424
0.0565167 0.4758939 0.2129181
0.0608228 0.4795848 0.2159938
0.0651288 0.4832757 0.2190696
0.0694348 0.4869666 0.2221453
0.0737409 0.4906574 0.2252211
0.0780469 0.4943483 0.2282968
0.0823529 0.4980392 0.2313725
0.0866590 0.5017301 0.2344483
0.0909650 0.5054210 0.2375240
0.0952710 0.5091119 0.2405998
0.0995771 0.5128028 0.2436755
0.1038831 0.5164937 0.2467512
0.1081892 0.5201845 0.2498270
0.1124952 0.5238754 0.2529027
0.1168012 0.5275663 0.2559785
0.1211073 0.5312572 0.2590542
0.1254133 0.5349481 0.2621300
0.1297193 0.5386390 0.2652057
0.1340254 0.5423299 0.2682814
0.1381776 0.5460823 0.2713264
0.1418685 0.5500192 0.2742791
0.1455594 0.5539562 0.2772318
0.1492503 0.5578931 0.2801845
0.1529412 0.5618301 0.2831373
0.1566321 0.5657670 0.2860900
0.1603230 0.5697040 0.2890427
0.1640138 0.5736409 0.2919954
0.1677047 0.5775779 0.2949481
0.1713956 0.5815148 0.2979008
0.1750865 0.5854517 0.3008535
0.1787774 0.5893887 0.3038062
0.1824683 0.5933256 0.3067589
0.1861592 0.5972626 0.3097116
0.1898501 0.6011995 0.3126644
0.1935409 0.6051365 0.3156171
0.1972318 0.6090734 0.3185698
0.2009227 0.6130104 0.3215225
0.2046136 0.6169473 0.3244752
0.2083045 0.6208843 0.3274279
0.2119954 0.6248212 0.3303806
0.2156863 0.6287582 0.3333333
0.2193772 0.6326951 0.3362860
0.2230681 0.6366321 0.3392388
0.2267589 0.6405690 0.3421915
0.2304498 0.6445060 0.3451442
0.2341407 0.6484429 0.3480969
0.2378316 0.6523799 0.3510496
0.2415225 0.6563168 0.3540023
0.2452134 0.6602537 0.3569550
0.2489043 0.6641907 0.3599077
0.2525952 0.6681276 0.3628604
0.2572549 0.6717416 0.3658593
0.2635294 0.6748174 0.3689350
0.2698039 0.6778931 0.3720108
0.2760784 0.6809689 0.3750865
0.2823529 0.6840446 0.3781622
0.2886275 0.6871203 0.3812380
0.2949020 0.6901961 0.3843137
0.3011765 0.6932718 0.3873895
0.3074510 0.6963476 0.3904652
0.3137255 0.6994233 0.3935409
0.3200000 0.7024990 0.3966167
0.3262745 0.7055748 0.3996924
0.3325490 0.7086505 0.4027682
0.3388235 0.7117263 0.4058439
0.3450980 0.7148020 0.4089196
0.3513725 0.7178777 0.4119954
0.3576471 0.7209535 0.4150711
0.3639216 0.7240292 0.4181469
0.3701961 0.7271050 0.4212226
0.3764706 0.7301807 0.4242983
0.3827451 0.7332564 0.4273741
0.3890196 0.7363322 0.4304498
0.3952941 0.7394079 0.4335256
0.4015686 0.7424837 0.4366013
0.4078431 0.7455594 0.4396770
0.4141176 0.7486351 0.4427528
0.4203922 0.7517109 0.4458285
0.4266667 0.7547866 0.4489043
0.4329412 0.7578624 0.4519800
0.4392157 0.7609381 0.4550557
0.4454902 0.7640138 0.4581315
0.4517647 0.7670896 0.4612072
0.4576701 0.7699193 0.4650211
0.4632065 0.7725029 0.4695732
0.4687428 0.7750865 0.4741253
0.4742791 0.7776701 0.4786774
0.4798155 0.7802537 0.4832295
0.4853518 0.7828374 0.4877816
0.4908881 0.7854210 0.4923337
0.4964245 0.7880046 0.4968858
0.5019608 0.7905882 0.5014379
0.5074971 0.7931719 0.5059900
0.5130334 0.7957555 0.5105421
0.5185698 0.7983391 0.5150942
0.5241061 0.8009227 0.5196463
0.5296424 0.8035063 0.5241984
0.5351788 0.8060900 0.5287505
0.5407151 0.8086736 0.5333026
0.5462514 0.8112572 0.5378547
0.5517878 0.8138408 0.5424068
0.5573241 0.8164245 0.5469589
0.5628604 0.8190081 0.5515110
0.5683968 0.8215917 0.5560631
0.5739331 0.8241753 0.5606151
0.5794694 0.8267589 0.5651672
0.5850058 0.8293426 0.5697193
0.5905421 0.8319262 0.5742714
0.5960784 0.8345098 0.5788235
0.6016148 0.8370934 0.5833756
0.6071511 0.8396770 0.5879277
0.6126874 0.8422607 0.5924798
0.6182238 0.8448443 0.5970319
0.6237601 0.8474279 0.6015840
0.6292964 0.8500115 0.6061361
0.6342945 0.8522107 0.6106882
0.6389696 0.8541792 0.6152403
0.6436448 0.8561476 0.6197924
0.6483199 0.8581161 0.6243445
0.6529950 0.8600846 0.6288966
0.6576701 0.8620531 0.6334487
0.6623453 0.8640215 0.6380008
0.6670204 0.8659900 0.6425529
0.6716955 0.8679585 0.6471050
0.6763706 0.8699270 0.6516571
0.6810458 0.8718954 0.6562092
0.6857209 0.8738639 0.6607612
0.6903960 0.8758324 0.6653133
0.6950711 0.8778008 0.6698654
0.6997463 0.8797693 0.6744175
0.7044214 0.8817378 0.6789696
0.7090965 0.8837063 0.6835217
0.7137716 0.8856747 0.6880738
0.7184468 0.8876432 0.6926259
0.7231219 0.8896117 0.6971780
0.7277970 0.8915802 0.7017301
0.7324721 0.8935486 0.7062822
0.7371473 0.8955171 0.7108343
0.7418224 0.8974856 0.7153864
0.7464975 0.8994541 0.7199385
0.7511726 0.9014225 0.7244906
0.7558478 0.9033910 0.7290427
0.7605229 0.9053595 0.7335948
0.7651980 0.9073280 0.7381469
0.7698731 0.9092964 0.7426990
0.7745483 0.9112649 0.7472511
0.7792234 0.9132334 0.7518032
0.7831603 0.9148328 0.7558939
0.7868512 0.9163091 0.7598308
0.7905421 0.9177855 0.7637678
0.7942330 0.9192618 0.7677047
0.7979239 0.9207382 0.7716417
0.8016148 0.9222145 0.7755786
0.8053057 0.9236909 0.7795156
0.8089965 0.9251672 0.7834525
0.8126874 0.9266436 0.7873895
0.8163783 0.9281200 0.7913264
0.8200692 0.9295963 0.7952634
0.8237601 0.9310727 0.7992003
0.8274510 0.9325490 0.8031373
0.8311419 0.9340254 0.8070742
0.8348328 0.9355017 0.8110111
0.8385236 0.9369781 0.8149481
0.8422145 0.9384544 0.8188850
0.8459054 0.9399308 0.8228220
0.8495963 0.9414072 0.8267589
0.8532872 0.9428835 0.8306959
0.8569781 0.9443599 0.8346328
0.8606690 0.9458362 0.8385698
0.8643599 0.9473126 0.8425067
0.8680507 0.9487889 0.8464437
0.8717416 0.9502653 0.8503806
0.8754325 0.9517416 0.8543176
0.8791234 0.9532180 0.8582545
0.8828143 0.9546943 0.8621915
0.8865052 0.9561707 0.8661284
0.8901961 0.9576471 0.8700654
0.8938870 0.9591234 0.8740023
0.8975779 0.9605998 0.8779393
0.8999769 0.9615379 0.8806920
0.9021915 0.9623991 0.8832757
0.9044060 0.9632603 0.8858593
0.9066205 0.9641215 0.8884429
0.9088351 0.9649827 0.8910265
0.9110496 0.9658439 0.8936101
0.9132641 0.9667051 0.8961938
0.9154787 0.9675663 0.8987774
0.9176932 0.9684275 0.9013610
0.9199077 0.9692887 0.9039446
0.9221223 0.9701499 0.9065283
0.9243368 0.9710111 0.9091119
0.9265513 0.9718724 0.9116955
0.9287659 0.9727336 0.9142791
0.9309804 0.9735948 0.9168627
0.9331949 0.9744560 0.9194464
0.9354095 0.9753172 0.9220300
0.9376240 0.9761784 0.9246136
0.9398385 0.9770396 0.9271972
0.9420531 0.9779008 0.9297809
0.9442676 0.9787620 0.9323645
0.9464821 0.9796232 0.9349481
0.9486967 0.9804844 0.9375317
0.9509112 0.9813456 0.9401153
0.9531257 0.9822068 0.9426990
0.9553403 0.9830681 0.9452826
0.9575548 0.9839293 0.9478662
0.9597693 0.9847905 0.9504498
0.9619839 0.9856517 0.9530334
0.9641984 0.9865129 0.9556171
0.9664129 0.9873741 0.9582007
0.9686275 0.9882353 0.9607843
