posts/Davinci-Resolve-thermal-luts/colormaps-as-cube/Greys_r.cube
TITLE "Colormap Greys_r"
LUT_1D_SIZE 256
0.0000000 0.0000000 0.0000000
0.0045521 0.0045521 0.0045521
0.0091042 0.0091042 0.0091042
0.0136563 0.0136563 0.0136563
0.0182084 0.0182084 0.0182084
0.0227605 0.0227605 0.0227605
0.0273126 0.0273126 0.0273126
0.0318647 0.0318647 0.0318647
0.0364168 0.0364168 0.0364168
0.0409689 0.0409689 0.0409689
0.0455210 0.0455210 0.0455210
0.0500730 0.0500730 0.0500730
0.0546251 0.0546251 0.0546251
0.0591772 0.0591772 0.0591772
0.0637293 0.0637293 0.0637293
0.0682814 0.0682814 0.0682814
0.0728335 0.0728335 0.0728335
0.0773856 0.0773856 0.0773856
0.0819377 0.0819377 0.0819377
0.0864898 0.0864898 0.0864898
0.0910419 0.0910419 0.0910419
0.0955940 0.0955940 0.0955940
0.1001461 0.1001461 0.1001461
0.1046982 0.1046982 0.1046982
0.1092503 0.1092503 0.1092503
0.1138024 0.1138024 0.1138024
0.1183545 0.1183545 0.1183545
0.1229066 0.1229066 0.1229066
0.1274587 0.1274587 0.1274587
0.1320108 0.1320108 0.1320108
0.1365629 0.1365629 0.1365629
0.1411150 0.1411150 0.1411150
0.1457901 0.1457901 0.1457901
0.1513264 0.1513264 0.1513264
0.1568627 0.1568627 0.1568627
0.1623991 0.1623991 0.1623991
0.1679354 0.1679354 0.1679354
0.1734717 0.1734717 0.1734717
0.1790081 0.1790081 0.1790081
0.1845444 0.1845444 0.1845444
0.1900807 0.1900807 0.1900807
0.1956171 0.1956171 0.1956171
0.2011534 0.2011534 0.2011534
0.2066897 0.2066897 0.2066897
0.2122261 0.2122261 0.2122261
0.2177624 0.2177624 0.2177624
0.2232987 0.2232987 0.2232987
0.2288351 0.2288351 0.2288351
0.2343714 0.2343714 0.2343714
0.2399077 0.2399077 0.2399077
0.2454441 0.2454441 0.2454441
0.2509804 0.2509804 0.2509804
0.2565167 0.2565167 0.2565167
0.2620531 0.2620531 0.2620531
0.2675894 0.2675894 0.2675894
0.2731257 0.2731257 0.2731257
0.2786621 0.2786621 0.2786621
0.2841984 0.2841984 0.2841984
0.2897347 0.2897347 0.2897347
0.2952710 0.2952710 0.2952710
0.3008074 0.3008074 0.3008074
0.3063437 0.3063437 0.3063437
0.3118800 0.3118800 0.3118800
0.3174164 0.3174164 0.3174164
0.3225836 0.3225836 0.3225836
0.3266436 0.3266436 0.3266436
0.3307036 0.3307036 0.3307036
0.3347636 0.3347636 0.3347636
0.3388235 0.3388235 0.3388235
0.3428835 0.3428835 0.3428835
0.3469435 0.3469435 0.3469435
0.3510035 0.3510035 0.3510035
0.3550634 0.3550634 0.3550634
0.3591234 0.3591234 0.3591234
0.3631834 0.3631834 0.3631834
0.3672434 0.3672434 0.3672434
0.3713033 0.3713033 0.3713033
0.3753633 0.3753633 0.3753633
0.3794233 0.3794233 0.3794233
0.3834833 0.3834833 0.3834833
0.3875433 0.3875433 0.3875433
0.3916032 0.3916032 0.3916032
0.3956632 0.3956632 0.3956632
0.3997232 0.3997232 0.3997232
0.4037832 0.4037832 0.4037832
0.4078431 0.4078431 0.4078431
0.4119031 0.4119031 0.4119031
0.4159631 0.4159631 0.4159631
0.4200231 0.4200231 0.4200231
0.4240830 0.4240830 0.4240830
0.4281430 0.4281430 0.4281430
0.4322030 0.4322030 0.4322030
0.4362630 0.4362630 0.4362630
0.4403230 0.4403230 0.4403230
0.4443829 0.4443829 0.4443829
0.4484429 0.4484429 0.4484429
0.4525952 0.4525952 0.4525952
0.4569012 0.4569012 0.4569012
0.4612072 0.4612072 0.4612072
0.4655133 0.4655133 0.4655133
0.4698193 0.4698193 0.4698193
0.4741253 0.4741253 0.4741253
0.4784314 0.4784314 0.4784314
0.4827374 0.4827374 0.4827374
0.4870434 0.4870434 0.4870434
0.4913495 0.4913495 0.4913495
0.4956555 0.4956555 0.4956555
0.4999616 0.4999616 0.4999616
0.5042676 0.5042676 0.5042676
0.5085736 0.5085736 0.5085736
0.5128797 0.5128797 0.5128797
0.5171857 0.5171857 0.5171857
0.5214917 0.5214917 0.5214917
0.5257978 0.5257978 0.5257978
0.5301038 0.5301038 0.5301038
0.5344098 0.5344098 0.5344098
0.5387159 0.5387159 0.5387159
0.5430219 0.5430219 0.5430219
0.5473280 0.5473280 0.5473280
0.5516340 0.5516340 0.5516340
0.5559400 0.5559400 0.5559400
0.5602461 0.5602461 0.5602461
0.5645521 0.5645521 0.5645521
0.5688581 0.5688581 0.5688581
0.5731642 0.5731642 0.5731642
0.5774702 0.5774702 0.5774702
0.5817762 0.5817762 0.5817762
0.5860823 0.5860823 0.5860823
0.5906344 0.5906344 0.5906344
0.5954325 0.5954325 0.5954325
0.6002307 0.6002307 0.6002307
0.6050288 0.6050288 0.6050288
0.6098270 0.6098270 0.6098270
0.6146251 0.6146251 0.6146251
0.6194233 0.6194233 0.6194233
0.6242215 0.6242215 0.6242215
0.6290196 0.6290196 0.6290196
0.6338178 0.6338178 0.6338178
0.6386159 0.6386159 0.6386159
0.6434141 0.6434141 0.6434141
0.6482122 0.6482122 0.6482122
0.6530104 0.6530104 0.6530104
0.6578085 0.6578085 0.6578085
0.6626067 0.6626067 0.6626067
0.6674048 0.6674048 0.6674048
0.6722030 0.6722030 0.6722030
0.6770012 0.6770012 0.6770012
0.6817993 0.6817993 0.6817993
0.6865975 0.6865975 0.6865975
0.6913956 0.6913956 0.6913956
0.6961938 0.6961938 0.6961938
0.7009919 0.7009919 0.7009919
0.7057901 0.7057901 0.7057901
0.7105882 0.7105882 0.7105882
0.7153864 0.7153864 0.7153864
0.7201845 0.7201845 0.7201845
0.7249827 0.7249827 0.7249827
0.7297809 0.7297809 0.7297809
0.7345790 0.7345790 0.7345790
0.7393772 0.7393772 0.7393772
0.7433295 0.7433295 0.7433295
0.7467743 0.7467743 0.7467743
0.7502191 0.7502191 0.7502191
0.7536640 0.7536640 0.7536640
0.7571088 0.7571088 0.7571088
0.7605536 0.7605536 0.7605536
0.7639985 0.7639985 0.7639985
0.7674433 0.7674433 0.7674433
0.7708881 0.7708881 0.7708881
0.7743329 0.7743329 0.7743329
0.7777778 0.7777778 0.7777778
0.7812226 0.7812226 0.7812226
0.7846674 0.7846674 0.7846674
0.7881123 0.7881123 0.7881123
0.7915571 0.7915571 0.7915571
0.7950019 0.7950019 0.7950019
0.7984468 0.7984468 0.7984468
0.8018916 0.8018916 0.8018916
0.8053364 0.8053364 0.8053364
0.8087812 0.8087812 0.8087812
0.8122261 0.8122261 0.8122261
0.8156709 0.8156709 0.8156709
0.8191157 0.8191157 0.8191157
0.8225606 0.8225606 0.8225606
0.8260054 0.8260054 0.8260054
0.8294502 0.8294502 0.8294502
0.8328950 0.8328950 0.8328950
0.8363399 0.8363399 0.8363399
0.8397847 0.8397847 0.8397847
0.8432295 0.8432295 0.8432295
0.8466744 0.8466744 0.8466744
0.8501192 0.8501192 0.8501192
0.8531027 0.8531027 0.8531027
0.8559323 0.8559323 0.8559323
0.8587620 0.8587620 0.8587620
0.8615917 0.8615917 0.8615917
0.8644214 0.8644214 0.8644214
0.8672511 0.8672511 0.8672511
0.8700807 0.8700807 0.8700807
0.8729104 0.8729104 0.8729104
0.8757401 0.8757401 0.8757401
0.8785698 0.8785698 0.8785698
0.8813995 0.8813995 0.8813995
0.8842291 0.8842291 0.8842291
0.8870588 0.8870588 0.8870588
0.8898885 0.8898885 0.8898885
0.8927182 0.8927182 0.8927182
0.8955479 0.8955479 0.8955479
0.8983775 0.8983775 0.8983775
0.9012072 0.9012072 0.9012072
0.9040369 0.9040369 0.9040369
0.9068666 0.9068666 0.9068666
0.9096963 0.9096963 0.9096963
0.9125260 0.9125260 0.9125260
0.9153556 0.9153556 0.9153556
0.9181853 0.9181853 0.9181853
0.9210150 0.9210150 0.9210150
0.9238447 0.9238447 0.9238447
0.9266744 0.9266744 0.9266744
0.9295040 0.9295040 0.9295040
0.9323337 0.9323337 0.9323337
0.9351634 0.9351634 0.9351634
0.9379931 0.9379931 0.9379931
0.9408228 0.9408228 0.9408228
0.9427912 0.9427912 0.9427912
0.9446367 0.9446367 0.9446367
0.9464821 0.9464821 0.9464821
0.9483276 0.9483276 0.9483276
0.9501730 0.9501730 0.9501730
0.9520185 0.9520185 0.9520185
0.9538639 0.9538639 0.9538639
0.9557093 0.9557093 0.9557093
0.9575548 0.9575548 0.9575548
0.9594002 0.9594002 0.9594002
0.9612457 0.9612457 0.9612457
0.9630911 0.9630911 0.9630911
0.9649366 0.9649366 0.9649366
0.9667820 0.9667820 0.9667820
0.9686275 0.9686275 0.9686275
0.9704729 0.9704729 0.9704729
0.9723183 0.9723183 0.9723183
0.9741638 0.9741638 0.9741638
0.9760092 0.9760092 0.9760092
0.9778547 0.9778547 0.9778547
0.9797001 0.9797001 0.9797001
0.9815456 0.9815456 0.9815456
0.9833910 0.9833910 0.9833910
0.9852364 0.9852364 0.9852364
0.9870819 0.9870819 0.9870819
0.9889273 0.9889273 0.9889273
0.9907728 0.9907728 0.9907728
0.9926182 0.9926182 0.9926182
0.9944637 0.9944637 0.9944637
0.9963091 0.9963091 0.9963091
0.9981546 0.9981546 0.9981546
1.0000000 1.0000000 1.0000000
