posts/Davinci-Resolve-thermal-luts/colormaps-as-cube/hot_r.cube
TITLE "Colormap hot_r"
LUT_1D_SIZE 256
1.0000000 1.0000000 1.0000000
1.0000000 1.0000000 0.9845588
1.0000000 1.0000000 0.9691176
1.0000000 1.0000000 0.9536764
1.0000000 1.0000000 0.9382352
1.0000000 1.0000000 0.9227940
1.0000000 1.0000000 0.9073528
1.0000000 1.0000000 0.8919117
1.0000000 1.0000000 0.8764705
1.0000000 1.0000000 0.8610293
1.0000000 1.0000000 0.8455881
1.0000000 1.0000000 0.8301469
1.0000000 1.0000000 0.8147057
1.0000000 1.0000000 0.7992645
1.0000000 1.0000000 0.7838233
1.0000000 1.0000000 0.7683821
1.0000000 1.0000000 0.7529409
1.0000000 1.0000000 0.7374997
1.0000000 1.0000000 0.7220585
1.0000000 1.0000000 0.7066174
1.0000000 1.0000000 0.6911762
1.0000000 1.0000000 0.6757350
1.0000000 1.0000000 0.6602938
1.0000000 1.0000000 0.6448526
1.0000000 1.0000000 0.6294114
1.0000000 1.0000000 0.6139702
1.0000000 1.0000000 0.5985290
1.0000000 1.0000000 0.5830878
1.0000000 1.0000000 0.5676466
1.0000000 1.0000000 0.5522054
1.0000000 1.0000000 0.5367642
1.0000000 1.0000000 0.5213231
1.0000000 1.0000000 0.5058819
1.0000000 1.0000000 0.4904407
1.0000000 1.0000000 0.4749995
1.0000000 1.0000000 0.4595583
1.0000000 1.0000000 0.4441171
1.0000000 1.0000000 0.4286759
1.0000000 1.0000000 0.4132347
1.0000000 1.0000000 0.3977935
1.0000000 1.0000000 0.3823523
1.0000000 1.0000000 0.3669111
1.0000000 1.0000000 0.3514699
1.0000000 1.0000000 0.3360287
1.0000000 1.0000000 0.3205876
1.0000000 1.0000000 0.3051464
1.0000000 1.0000000 0.2897052
1.0000000 1.0000000 0.2742640
1.0000000 1.0000000 0.2588228
1.0000000 1.0000000 0.2433816
1.0000000 1.0000000 0.2279404
1.0000000 1.0000000 0.2124992
1.0000000 1.0000000 0.1970580
1.0000000 1.0000000 0.1816168
1.0000000 1.0000000 0.1661756
1.0000000 1.0000000 0.1507344
1.0000000 1.0000000 0.1352933
1.0000000 1.0000000 0.1198521
1.0000000 1.0000000 0.1044109
1.0000000 1.0000000 0.0889697
1.0000000 1.0000000 0.0735285
1.0000000 1.0000000 0.0580873
1.0000000 1.0000000 0.0426461
1.0000000 1.0000000 0.0272049
1.0000000 1.0000000 0.0117637
1.0000000 0.9975484 0.0000000
1.0000000 0.9872543 0.0000000
1.0000000 0.9769602 0.0000000
1.0000000 0.9666661 0.0000000
1.0000000 0.9563720 0.0000000
1.0000000 0.9460779 0.0000000
1.0000000 0.9357838 0.0000000
1.0000000 0.9254897 0.0000000
1.0000000 0.9151955 0.0000000
1.0000000 0.9049014 0.0000000
1.0000000 0.8946073 0.0000000
1.0000000 0.8843132 0.0000000
1.0000000 0.8740191 0.0000000
1.0000000 0.8637250 0.0000000
1.0000000 0.8534309 0.0000000
1.0000000 0.8431368 0.0000000
1.0000000 0.8328427 0.0000000
1.0000000 0.8225486 0.0000000
1.0000000 0.8122545 0.0000000
1.0000000 0.8019604 0.0000000
1.0000000 0.7916663 0.0000000
1.0000000 0.7813722 0.0000000
1.0000000 0.7710781 0.0000000
1.0000000 0.7607840 0.0000000
1.0000000 0.7504899 0.0000000
1.0000000 0.7401958 0.0000000
1.0000000 0.7299017 0.0000000
1.0000000 0.7196076 0.0000000
1.0000000 0.7093135 0.0000000
1.0000000 0.6990194 0.0000000
1.0000000 0.6887253 0.0000000
1.0000000 0.6784312 0.0000000
1.0000000 0.6681371 0.0000000
1.0000000 0.6578430 0.0000000
1.0000000 0.6475489 0.0000000
1.0000000 0.6372548 0.0000000
1.0000000 0.6269607 0.0000000
1.0000000 0.6166666 0.0000000
1.0000000 0.6063725 0.0000000
1.0000000 0.5960784 0.0000000
1.0000000 0.5857843 0.0000000
1.0000000 0.5754902 0.0000000
1.0000000 0.5651961 0.0000000
1.0000000 0.5549020 0.0000000
1.0000000 0.5446079 0.0000000
1.0000000 0.5343138 0.0000000
1.0000000 0.5240197 0.0000000
1.0000000 0.5137256 0.0000000
1.0000000 0.5034315 0.0000000
1.0000000 0.4931374 0.0000000
1.0000000 0.4828433 0.0000000
1.0000000 0.4725492 0.0000000
1.0000000 0.4622551 0.0000000
1.0000000 0.4519610 0.0000000
1.0000000 0.4416669 0.0000000
1.0000000 0.4313728 0.0000000
1.0000000 0.4210787 0.0000000
1.0000000 0.4107846 0.0000000
1.0000000 0.4004905 0.0000000
1.0000000 0.3901964 0.0000000
1.0000000 0.3799023 0.0000000
1.0000000 0.3696082 0.0000000
1.0000000 0.3593141 0.0000000
1.0000000 0.3490200 0.0000000
1.0000000 0.3387259 0.0000000
1.0000000 0.3284318 0.0000000
1.0000000 0.3181377 0.0000000
1.0000000 0.3078436 0.0000000
1.0000000 0.2975495 0.0000000
1.0000000 0.2872554 0.0000000
1.0000000 0.2769613 0.0000000
1.0000000 0.2666672 0.0000000
1.0000000 0.2563731 0.0000000
1.0000000 0.2460790 0.0000000
1.0000000 0.2357849 0.0000000
1.0000000 0.2254908 0.0000000
1.0000000 0.2151967 0.0000000
1.0000000 0.2049026 0.0000000
1.0000000 0.1946085 0.0000000
1.0000000 0.1843144 0.0000000
1.0000000 0.1740203 0.0000000
1.0000000 0.1637262 0.0000000
1.0000000 0.1534321 0.0000000
1.0000000 0.1431380 0.0000000
1.0000000 0.1328439 0.0000000
1.0000000 0.1225498 0.0000000
1.0000000 0.1122557 0.0000000
1.0000000 0.1019616 0.0000000
1.0000000 0.0916675 0.0000000
1.0000000 0.0813734 0.0000000
1.0000000 0.0710793 0.0000000
1.0000000 0.0607852 0.0000000
1.0000000 0.0504911 0.0000000
1.0000000 0.0401970 0.0000000
1.0000000 0.0299029 0.0000000
1.0000000 0.0196088 0.0000000
1.0000000 0.0093147 0.0000000
0.9990205 0.0000000 0.0000000
0.9887257 0.0000000 0.0000000
0.9784308 0.0000000 0.0000000
0.9681360 0.0000000 0.0000000
0.9578411 0.0000000 0.0000000
0.9475463 0.0000000 0.0000000
0.9372514 0.0000000 0.0000000
0.9269566 0.0000000 0.0000000
0.9166617 0.0000000 0.0000000
0.9063669 0.0000000 0.0000000
0.8960721 0.0000000 0.0000000
0.8857772 0.0000000 0.0000000
0.8754824 0.0000000 0.0000000
0.8651875 0.0000000 0.0000000
0.8548927 0.0000000 0.0000000
0.8445978 0.0000000 0.0000000
0.8343030 0.0000000 0.0000000
0.8240081 0.0000000 0.0000000
0.8137133 0.0000000 0.0000000
0.8034185 0.0000000 0.0000000
0.7931236 0.0000000 0.0000000
0.7828288 0.0000000 0.0000000
0.7725339 0.0000000 0.0000000
0.7622391 0.0000000 0.0000000
0.7519442 0.0000000 0.0000000
0.7416494 0.0000000 0.0000000
0.7313546 0.0000000 0.0000000
0.7210597 0.0000000 0.0000000
0.7107649 0.0000000 0.0000000
0.7004700 0.0000000 0.0000000
0.6901752 0.0000000 0.0000000
0.6798803 0.0000000 0.0000000
0.6695855 0.0000000 0.0000000
0.6592906 0.0000000 0.0000000
0.6489958 0.0000000 0.0000000
0.6387010 0.0000000 0.0000000
0.6284061 0.0000000 0.0000000
0.6181113 0.0000000 0.0000000
0.6078164 0.0000000 0.0000000
0.5975216 0.0000000 0.0000000
0.5872267 0.0000000 0.0000000
0.5769319 0.0000000 0.0000000
0.5666370 0.0000000 0.0000000
0.5563422 0.0000000 0.0000000
0.5460474 0.0000000 0.0000000
0.5357525 0.0000000 0.0000000
0.5254577 0.0000000 0.0000000
0.5151628 0.0000000 0.0000000
0.5048680 0.0000000 0.0000000
0.4945731 0.0000000 0.0000000
0.4842783 0.0000000 0.0000000
0.4739835 0.0000000 0.0000000
0.4636886 0.0000000 0.0000000
0.4533938 0.0000000 0.0000000
0.4430989 0.0000000 0.0000000
0.4328041 0.0000000 0.0000000
0.4225092 0.0000000 0.0000000
0.4122144 0.0000000 0.0000000
0.4019195 0.0000000 0.0000000
0.3916247 0.0000000 0.0000000
0.3813299 0.0000000 0.0000000
0.3710350 0.0000000 0.0000000
0.3607402 0.0000000 0.0000000
0.3504453 0.0000000 0.0000000
0.3401505 0.0000000 0.0000000
0.3298556 0.0000000 0.0000000
0.3195608 0.0000000 0.0000000
0.3092659 0.0000000 0.0000000
0.2989711 0.0000000 0.0000000
0.2886763 0.0000000 0.0000000
0.2783814 0.0000000 0.0000000
0.2680866 0.0000000 0.0000000
0.2577917 0.0000000 0.0000000
0.2474969 0.0000000 0.0000000
0.2372020 0.0000000 0.0000000
0.2269072 0.0000000 0.0000000
0.2166123 0.0000000 0.0000000
0.2063175 0.0000000 0.0000000
0.1960227 0.0000000 0.0000000
0.1857278 0.0000000 0.0000000
0.1754330 0.0000000 0.0000000
0.1651381 0.0000000 0.0000000
0.1548433 0.0000000 0.0000000
0.1445484 0.0000000 0.0000000
0.1342536 0.0000000 0.0000000
0.1239588 0.0000000 0.0000000
0.1136639 0.0000000 0.0000000
0.1033691 0.0000000 0.0000000
0.0930742 0.0000000 0.0000000
0.0827794 0.0000000 0.0000000
0.0724845 0.0000000 0.0000000
0.0621897 0.0000000 0.0000000
0.0518948 0.0000000 0.0000000
0.0416000 0.0000000 0.0000000
