posts/Davinci-Resolve-thermal-luts/colormaps-as-cube/hsv_r.cube
TITLE "Colormap hsv_r"
LUT_1D_SIZE 256
1.0000000 0.0000000 0.0937500
1.0000000 0.0000000 0.1169118
1.0000000 0.0000000 0.1400736
1.0000000 0.0000000 0.1632354
1.0000000 0.0000000 0.1863972
1.0000000 0.0000000 0.2095589
1.0000000 0.0000000 0.2327207
1.0000000 0.0000000 0.2558825
1.0000000 0.0000000 0.2790443
1.0000000 0.0000000 0.3022061
1.0000000 0.0000000 0.3253679
1.0000000 0.0000000 0.3485297
1.0000000 0.0000000 0.3716915
1.0000000 0.0000000 0.3948532
1.0000000 0.0000000 0.4180150
1.0000000 0.0000000 0.4411768
1.0000000 0.0000000 0.4643386
1.0000000 0.0000000 0.4875004
1.0000000 0.0000000 0.5106622
1.0000000 0.0000000 0.5338240
1.0000000 0.0000000 0.5569858
1.0000000 0.0000000 0.5801475
1.0000000 0.0000000 0.6033093
1.0000000 0.0000000 0.6264711
1.0000000 0.0000000 0.6496329
1.0000000 0.0000000 0.6727947
1.0000000 0.0000000 0.6959565
1.0000000 0.0000000 0.7191183
1.0000000 0.0000000 0.7422801
1.0000000 0.0000000 0.7654418
1.0000000 0.0000000 0.7886036
1.0000000 0.0000000 0.8117654
1.0000000 0.0000000 0.8349272
1.0000000 0.0000000 0.8580890
1.0000000 0.0000000 0.8812508
1.0000000 0.0000000 0.9044126
1.0000000 0.0000000 0.9275744
0.9955879 0.0000000 0.9463241
0.9878674 0.0000000 0.9617653
0.9801468 0.0000000 0.9772065
0.9724262 0.0000000 0.9926477
0.9566167 0.0000000 1.0000000
0.9334549 0.0000000 1.0000000
0.9102931 0.0000000 1.0000000
0.8871313 0.0000000 1.0000000
0.8639695 0.0000000 1.0000000
0.8408078 0.0000000 1.0000000
0.8176460 0.0000000 1.0000000
0.7944842 0.0000000 1.0000000
0.7713224 0.0000000 1.0000000
0.7481606 0.0000000 1.0000000
0.7249988 0.0000000 1.0000000
0.7018370 0.0000000 1.0000000
0.6786752 0.0000000 1.0000000
0.6555135 0.0000000 1.0000000
0.6323517 0.0000000 1.0000000
0.6091899 0.0000000 1.0000000
0.5860281 0.0000000 1.0000000
0.5628663 0.0000000 1.0000000
0.5397045 0.0000000 1.0000000
0.5165427 0.0000000 1.0000000
0.4933809 0.0000000 1.0000000
0.4702192 0.0000000 1.0000000
0.4470574 0.0000000 1.0000000
0.4238956 0.0000000 1.0000000
0.4007338 0.0000000 1.0000000
0.3775720 0.0000000 1.0000000
0.3544102 0.0000000 1.0000000
0.3312484 0.0000000 1.0000000
0.3080866 0.0000000 1.0000000
0.2849248 0.0000000 1.0000000
0.2617631 0.0000000 1.0000000
0.2386013 0.0000000 1.0000000
0.2154395 0.0000000 1.0000000
0.1922777 0.0000000 1.0000000
0.1691159 0.0000000 1.0000000
0.1459541 0.0000000 1.0000000
0.1227923 0.0000000 1.0000000
0.0996305 0.0000000 1.0000000
0.0764688 0.0000000 1.0000000
0.0533070 0.0000000 1.0000000
0.0308817 0.0007365 1.0000000
0.0231611 0.0161777 1.0000000
0.0154405 0.0316189 1.0000000
0.0077199 0.0470601 1.0000000
0.0000000 0.0625020 1.0000000
0.0000000 0.0856638 1.0000000
0.0000000 0.1088255 1.0000000
0.0000000 0.1319873 1.0000000
0.0000000 0.1551491 1.0000000
0.0000000 0.1783109 1.0000000
0.0000000 0.2014727 1.0000000
0.0000000 0.2246345 1.0000000
0.0000000 0.2477963 1.0000000
0.0000000 0.2709581 1.0000000
0.0000000 0.2941198 1.0000000
0.0000000 0.3172816 1.0000000
0.0000000 0.3404434 1.0000000
0.0000000 0.3636052 1.0000000
0.0000000 0.3867670 1.0000000
0.0000000 0.4099288 1.0000000
0.0000000 0.4330906 1.0000000
0.0000000 0.4562524 1.0000000
0.0000000 0.4794142 1.0000000
0.0000000 0.5025759 1.0000000
0.0000000 0.5257377 1.0000000
0.0000000 0.5488995 1.0000000
0.0000000 0.5720613 1.0000000
0.0000000 0.5952231 1.0000000
0.0000000 0.6183849 1.0000000
0.0000000 0.6415467 1.0000000
0.0000000 0.6647085 1.0000000
0.0000000 0.6878702 1.0000000
0.0000000 0.7110320 1.0000000
0.0000000 0.7341938 1.0000000
0.0000000 0.7573556 1.0000000
0.0000000 0.7805174 1.0000000
0.0000000 0.8036792 1.0000000
0.0000000 0.8268410 1.0000000
0.0000000 0.8500028 1.0000000
0.0000000 0.8731645 1.0000000
0.0000000 0.8963263 1.0000000
0.0000000 0.9194881 1.0000000
0.0000000 0.9426499 1.0000000
0.0000000 0.9658117 1.0000000
0.0000000 0.9889735 1.0000000
0.0000000 1.0000000 0.9878648
0.0000000 1.0000000 0.9647032
0.0000000 1.0000000 0.9415415
0.0000000 1.0000000 0.9183799
0.0000000 1.0000000 0.8952182
0.0000000 1.0000000 0.8720566
0.0000000 1.0000000 0.8488950
0.0000000 1.0000000 0.8257333
0.0000000 1.0000000 0.8025717
0.0000000 1.0000000 0.7794100
0.0000000 1.0000000 0.7562484
0.0000000 1.0000000 0.7330867
0.0000000 1.0000000 0.7099251
0.0000000 1.0000000 0.6867635
0.0000000 1.0000000 0.6636018
0.0000000 1.0000000 0.6404402
0.0000000 1.0000000 0.6172785
0.0000000 1.0000000 0.5941169
0.0000000 1.0000000 0.5709553
0.0000000 1.0000000 0.5477936
0.0000000 1.0000000 0.5246320
0.0000000 1.0000000 0.5014703
0.0000000 1.0000000 0.4783087
0.0000000 1.0000000 0.4551470
0.0000000 1.0000000 0.4319854
0.0000000 1.0000000 0.4088238
0.0000000 1.0000000 0.3856621
0.0000000 1.0000000 0.3625005
0.0000000 1.0000000 0.3393388
0.0000000 1.0000000 0.3161772
0.0000000 1.0000000 0.2930155
0.0000000 1.0000000 0.2698539
0.0000000 1.0000000 0.2466923
0.0000000 1.0000000 0.2235306
0.0000000 1.0000000 0.2003690
0.0000000 1.0000000 0.1772073
0.0000000 1.0000000 0.1540457
0.0000000 1.0000000 0.1308841
0.0000000 1.0000000 0.1077224
0.0000000 1.0000000 0.0845608
0.0003670 1.0000000 0.0617661
0.0080876 1.0000000 0.0463249
0.0158082 1.0000000 0.0308837
0.0235287 1.0000000 0.0154425
0.0312493 1.0000000 0.0000013
0.0544098 1.0000000 0.0000000
0.0775716 1.0000000 0.0000000
0.1007334 1.0000000 0.0000000
0.1238952 1.0000000 0.0000000
0.1470570 1.0000000 0.0000000
0.1702188 1.0000000 0.0000000
0.1933805 1.0000000 0.0000000
0.2165423 1.0000000 0.0000000
0.2397041 1.0000000 0.0000000
0.2628659 1.0000000 0.0000000
0.2860277 1.0000000 0.0000000
0.3091895 1.0000000 0.0000000
0.3323513 1.0000000 0.0000000
0.3555131 1.0000000 0.0000000
0.3786748 1.0000000 0.0000000
0.4018366 1.0000000 0.0000000
0.4249984 1.0000000 0.0000000
0.4481602 1.0000000 0.0000000
0.4713220 1.0000000 0.0000000
0.4944838 1.0000000 0.0000000
0.5176456 1.0000000 0.0000000
0.5408074 1.0000000 0.0000000
0.5639692 1.0000000 0.0000000
0.5871309 1.0000000 0.0000000
0.6102927 1.0000000 0.0000000
0.6334545 1.0000000 0.0000000
0.6566163 1.0000000 0.0000000
0.6797781 1.0000000 0.0000000
0.7029399 1.0000000 0.0000000
0.7261017 1.0000000 0.0000000
0.7492635 1.0000000 0.0000000
0.7724252 1.0000000 0.0000000
0.7955870 1.0000000 0.0000000
0.8187488 1.0000000 0.0000000
0.8419106 1.0000000 0.0000000
0.8650724 1.0000000 0.0000000
0.8882342 1.0000000 0.0000000
0.9113960 1.0000000 0.0000000
0.9345578 1.0000000 0.0000000
0.9577195 1.0000000 0.0000000
0.9727938 0.9919124 0.0000000
0.9805144 0.9764713 0.0000000
0.9882350 0.9610301 0.0000000
0.9959556 0.9455889 0.0000000
1.0000000 0.9264715 0.0000000
1.0000000 0.9033097 0.0000000
1.0000000 0.8801479 0.0000000
1.0000000 0.8569862 0.0000000
1.0000000 0.8338244 0.0000000
1.0000000 0.8106626 0.0000000
1.0000000 0.7875008 0.0000000
1.0000000 0.7643390 0.0000000
1.0000000 0.7411772 0.0000000
1.0000000 0.7180154 0.0000000
1.0000000 0.6948536 0.0000000
1.0000000 0.6716918 0.0000000
1.0000000 0.6485301 0.0000000
1.0000000 0.6253683 0.0000000
1.0000000 0.6022065 0.0000000
1.0000000 0.5790447 0.0000000
1.0000000 0.5558829 0.0000000
1.0000000 0.5327211 0.0000000
1.0000000 0.5095593 0.0000000
1.0000000 0.4863975 0.0000000
1.0000000 0.4632358 0.0000000
1.0000000 0.4400740 0.0000000
1.0000000 0.4169122 0.0000000
1.0000000 0.3937504 0.0000000
1.0000000 0.3705886 0.0000000
1.0000000 0.3474268 0.0000000
1.0000000 0.3242650 0.0000000
1.0000000 0.3011032 0.0000000
1.0000000 0.2779415 0.0000000
1.0000000 0.2547797 0.0000000
1.0000000 0.2316179 0.0000000
1.0000000 0.2084561 0.0000000
1.0000000 0.1852943 0.0000000
1.0000000 0.1621325 0.0000000
1.0000000 0.1389707 0.0000000
1.0000000 0.1158089 0.0000000
1.0000000 0.0926472 0.0000000
1.0000000 0.0694854 0.0000000
1.0000000 0.0463236 0.0000000
1.0000000 0.0231618 0.0000000
1.0000000 0.0000000 0.0000000
