posts/Davinci-Resolve-thermal-luts/colormaps-as-cube/inferno_r.cube
TITLE "Colormap inferno_r"
LUT_1D_SIZE 256
0.9883620 0.9983640 0.6449240
0.9822570 0.9941090 0.6310170
0.9765110 0.9897530 0.6167600
0.9711620 0.9852820 0.6021540
0.9662490 0.9806780 0.5872060
0.9618120 0.9759240 0.5719250
0.9578960 0.9710030 0.5562750
0.9545290 0.9658960 0.5403610
0.9517400 0.9605870 0.5242030
0.9495450 0.9550630 0.5078600
0.9479370 0.9493180 0.4914260
0.9469030 0.9433480 0.4749700
0.9464030 0.9371590 0.4585920
0.9463920 0.9307610 0.4423670
0.9468090 0.9241680 0.4263730
0.9475940 0.9173990 0.4106650
0.9486830 0.9104730 0.3952890
0.9500180 0.9034090 0.3802710
0.9515460 0.8962260 0.3656270
0.9532150 0.8889420 0.3513690
0.9549970 0.8815690 0.3374750
0.9568340 0.8741290 0.3239740
0.9587200 0.8666240 0.3108200
0.9606260 0.8590690 0.2980100
0.9625170 0.8514760 0.2855460
0.9643940 0.8438480 0.2733910
0.9662430 0.8361910 0.2615340
0.9680410 0.8285150 0.2499720
0.9697830 0.8208250 0.2386860
0.9714680 0.8131220 0.2276580
0.9730880 0.8054090 0.2168770
0.9746380 0.7976920 0.2063320
0.9761080 0.7899740 0.1960180
0.9774970 0.7822580 0.1859230
0.9788060 0.7745450 0.1760370
0.9800320 0.7668370 0.1663530
0.9811730 0.7591350 0.1568630
0.9822280 0.7514420 0.1475650
0.9831960 0.7437580 0.1384530
0.9840750 0.7360870 0.1295270
0.9848650 0.7284270 0.1207850
0.9855660 0.7207820 0.1122290
0.9861750 0.7131530 0.1038630
0.9866940 0.7055400 0.0956940
0.9871240 0.6979440 0.0877310
0.9874640 0.6903660 0.0799900
0.9877140 0.6828070 0.0724890
0.9878740 0.6752670 0.0652570
0.9879450 0.6677480 0.0583290
0.9879260 0.6602500 0.0517500
0.9878190 0.6527730 0.0455810
0.9876220 0.6453200 0.0398860
0.9873370 0.6378900 0.0349160
0.9869640 0.6304850 0.0309080
0.9865020 0.6231050 0.0278140
0.9859520 0.6157500 0.0255920
0.9853150 0.6084220 0.0242020
0.9845910 0.6011220 0.0236060
0.9837790 0.5938490 0.0237700
0.9828810 0.5866060 0.0246610
0.9818950 0.5793920 0.0262500
0.9808240 0.5722090 0.0285080
0.9796660 0.5650570 0.0314090
0.9784220 0.5579370 0.0349310
0.9770920 0.5508500 0.0390500
0.9756770 0.5437980 0.0436180
0.9741760 0.5367800 0.0483920
0.9725900 0.5297980 0.0533240
0.9709190 0.5228530 0.0583670
0.9691630 0.5159460 0.0634880
0.9673220 0.5090780 0.0686590
0.9653970 0.5022490 0.0738590
0.9633870 0.4954620 0.0790730
0.9612930 0.4887160 0.0842890
0.9591140 0.4820140 0.0894990
0.9568520 0.4753560 0.0946950
0.9545060 0.4687440 0.0998740
0.9520750 0.4621780 0.1050310
0.9495620 0.4556600 0.1101640
0.9469650 0.4491910 0.1152720
0.9442850 0.4427720 0.1203540
0.9415210 0.4364050 0.1254090
0.9386750 0.4300910 0.1304380
0.9357470 0.4238310 0.1354400
0.9327370 0.4176270 0.1404170
0.9296440 0.4114790 0.1453670
0.9264700 0.4053890 0.1502920
0.9232150 0.3993590 0.1551930
0.9198790 0.3933890 0.1600700
0.9164620 0.3874810 0.1649240
0.9129660 0.3816360 0.1697550
0.9093900 0.3758560 0.1745630
0.9057350 0.3701400 0.1793500
0.9020030 0.3644920 0.1841160
0.8981920 0.3589110 0.1888600
0.8943050 0.3533990 0.1935840
0.8903410 0.3479570 0.1982860
0.8863020 0.3425860 0.2029680
0.8821880 0.3372870 0.2076280
0.8780010 0.3320600 0.2122680
0.8737410 0.3269060 0.2168860
0.8694090 0.3218270 0.2214820
0.8650060 0.3168220 0.2260550
0.8605330 0.3118920 0.2306060
0.8559920 0.3070380 0.2351330
0.8513840 0.3022600 0.2396360
0.8467090 0.2975590 0.2441130
0.8419690 0.2929330 0.2485640
0.8371650 0.2883850 0.2529880
0.8322990 0.2839130 0.2573830
0.8273720 0.2795170 0.2617500
0.8223860 0.2751970 0.2660850
0.8173410 0.2709540 0.2703900
0.8122390 0.2667860 0.2746610
0.8070820 0.2626920 0.2788980
0.8018710 0.2586740 0.2830990
0.7966070 0.2547280 0.2872640
0.7912930 0.2508560 0.2913900
0.7859290 0.2470560 0.2954770
0.7805170 0.2433270 0.2995230
0.7750590 0.2396670 0.3035260
0.7695560 0.2360770 0.3074850
0.7640100 0.2325540 0.3113990
0.7584220 0.2290970 0.3152660
0.7527940 0.2257060 0.3190850
0.7471270 0.2223780 0.3228560
0.7414230 0.2191120 0.3265760
0.7356830 0.2159060 0.3302450
0.7299090 0.2127590 0.3338610
0.7241030 0.2096700 0.3374240
0.7182640 0.2066360 0.3409310
0.7123960 0.2036560 0.3443830
0.7065000 0.2007280 0.3477770
0.7005760 0.1978510 0.3511130
0.6946270 0.1950210 0.3543880
0.6886530 0.1922390 0.3576030
0.6826560 0.1895010 0.3607570
0.6766380 0.1868070 0.3638490
0.6705990 0.1841530 0.3668790
0.6645400 0.1815390 0.3698460
0.6584630 0.1789620 0.3727480
0.6523690 0.1764210 0.3755860
0.6462600 0.1739140 0.3783590
0.6401350 0.1714380 0.3810650
0.6339980 0.1689920 0.3837040
0.6278470 0.1665750 0.3862760
0.6216850 0.1641840 0.3887810
0.6155130 0.1618170 0.3912190
0.6093300 0.1594740 0.3935890
0.6031390 0.1571510 0.3958910
0.5969400 0.1548480 0.3981250
0.5907340 0.1525630 0.4002900
0.5845210 0.1502940 0.4023850
0.5783040 0.1480390 0.4044110
0.5720810 0.1457970 0.4063690
0.5658540 0.1435670 0.4082580
0.5596240 0.1413460 0.4100780
0.5533920 0.1391340 0.4118290
0.5471570 0.1369290 0.4135110
0.5409200 0.1347290 0.4151230
0.5346830 0.1325340 0.4166670
0.5284440 0.1303410 0.4181420
0.5222060 0.1281500 0.4195490
0.5159670 0.1259600 0.4208870
0.5097300 0.1237690 0.4221560
0.5034930 0.1215750 0.4233560
0.4972570 0.1193790 0.4244880
0.4910220 0.1171790 0.4255520
0.4847890 0.1149740 0.4265480
0.4785580 0.1127640 0.4274750
0.4723280 0.1105470 0.4283340
0.4661000 0.1083220 0.4291250
0.4598750 0.1060890 0.4298460
0.4536510 0.1038480 0.4304980
0.4474280 0.1015970 0.4310800
0.4412070 0.0993380 0.4315940
0.4349870 0.0970690 0.4320390
0.4287680 0.0947900 0.4324120
0.4225490 0.0925010 0.4327140
0.4163310 0.0902030 0.4329430
0.4101130 0.0878960 0.4330980
0.4038940 0.0855800 0.4331790
0.3976740 0.0832570 0.4331830
0.3914530 0.0809270 0.4331090
0.3852280 0.0785910 0.4329550
0.3790010 0.0762530 0.4327190
0.3727680 0.0739150 0.4324000
0.3665290 0.0715790 0.4319940
0.3602840 0.0692470 0.4314970
0.3540320 0.0669250 0.4309060
0.3477710 0.0646160 0.4302170
0.3415000 0.0623250 0.4294250
0.3352170 0.0600600 0.4285240
0.3289210 0.0578270 0.4275110
0.3226100 0.0556340 0.4263770
0.3162820 0.0534900 0.4251160
0.3099350 0.0514070 0.4237210
0.3035680 0.0493960 0.4221820
0.2971780 0.0474700 0.4204910
0.2907630 0.0456440 0.4186370
0.2843210 0.0439330 0.4166080
0.2778500 0.0423530 0.4143920
0.2713470 0.0409220 0.4119760
0.2648100 0.0396470 0.4093450
0.2582340 0.0385710 0.4064850
0.2516200 0.0377050 0.4033780
0.2449670 0.0370550 0.4000070
0.2382730 0.0366210 0.3963530
0.2315380 0.0364050 0.3924000
0.2247630 0.0364050 0.3881290
0.2179490 0.0366150 0.3835220
0.2110950 0.0370300 0.3785630
0.2042090 0.0376320 0.3732380
0.1972970 0.0384000 0.3675350
0.1903670 0.0393090 0.3614470
0.1834290 0.0403290 0.3549710
0.1764930 0.0414020 0.3481110
0.1695750 0.0424890 0.3408740
0.1626890 0.0435540 0.3332770
0.1558500 0.0445590 0.3253380
0.1490730 0.0454680 0.3170850
0.1423780 0.0462420 0.3085530
0.1357780 0.0468560 0.2997760
0.1292850 0.0472930 0.2907880
0.1229080 0.0475360 0.2816240
0.1166560 0.0475740 0.2723210
0.1105360 0.0473990 0.2629120
0.1045510 0.0470080 0.2534300
0.0987020 0.0464020 0.2439040
0.0929900 0.0455830 0.2343580
0.0874110 0.0445560 0.2248130
0.0819620 0.0433280 0.2152890
0.0766370 0.0419050 0.2057990
0.0714290 0.0402940 0.1963540
0.0663310 0.0385040 0.1869620
0.0613400 0.0365900 0.1776420
0.0564490 0.0345690 0.1684140
0.0516440 0.0324740 0.1592540
0.0469150 0.0303240 0.1501640
0.0422530 0.0281390 0.1411410
0.0376680 0.0259210 0.1322320
0.0333850 0.0237020 0.1233970
0.0294320 0.0215030 0.1146210
0.0257930 0.0193310 0.1059300
0.0224470 0.0171990 0.0973270
0.0193730 0.0151330 0.0887670
0.0165610 0.0131360 0.0802820
0.0139950 0.0112250 0.0718620
0.0116630 0.0094170 0.0634600
0.0095610 0.0077130 0.0551430
0.0076760 0.0061360 0.0468360
0.0060060 0.0046920 0.0385580
0.0045470 0.0033920 0.0309090
0.0032990 0.0022490 0.0242390
0.0022670 0.0012700 0.0185700
0.0014620 0.0004660 0.0138660
