posts/Davinci-Resolve-thermal-luts/colormaps-as-cube/jet.cube
TITLE "Colormap jet"
LUT_1D_SIZE 256
0.0000000 0.0000000 0.5000000
0.0000000 0.0000000 0.5178253
0.0000000 0.0000000 0.5356506
0.0000000 0.0000000 0.5534759
0.0000000 0.0000000 0.5713012
0.0000000 0.0000000 0.5891266
0.0000000 0.0000000 0.6069519
0.0000000 0.0000000 0.6247772
0.0000000 0.0000000 0.6426025
0.0000000 0.0000000 0.6604278
0.0000000 0.0000000 0.6782531
0.0000000 0.0000000 0.6960784
0.0000000 0.0000000 0.7139037
0.0000000 0.0000000 0.7317291
0.0000000 0.0000000 0.7495544
0.0000000 0.0000000 0.7673797
0.0000000 0.0000000 0.7852050
0.0000000 0.0000000 0.8030303
0.0000000 0.0000000 0.8208556
0.0000000 0.0000000 0.8386809
0.0000000 0.0000000 0.8565062
0.0000000 0.0000000 0.8743316
0.0000000 0.0000000 0.8921569
0.0000000 0.0000000 0.9099822
0.0000000 0.0000000 0.9278075
0.0000000 0.0000000 0.9456328
0.0000000 0.0000000 0.9634581
0.0000000 0.0000000 0.9812834
0.0000000 0.0000000 0.9991087
0.0000000 0.0000000 1.0000000
0.0000000 0.0000000 1.0000000
0.0000000 0.0000000 1.0000000
0.0000000 0.0019608 1.0000000
0.0000000 0.0176471 1.0000000
0.0000000 0.0333333 1.0000000
0.0000000 0.0490196 1.0000000
0.0000000 0.0647059 1.0000000
0.0000000 0.0803922 1.0000000
0.0000000 0.0960784 1.0000000
0.0000000 0.1117647 1.0000000
0.0000000 0.1274510 1.0000000
0.0000000 0.1431373 1.0000000
0.0000000 0.1588235 1.0000000
0.0000000 0.1745098 1.0000000
0.0000000 0.1901961 1.0000000
0.0000000 0.2058824 1.0000000
0.0000000 0.2215686 1.0000000
0.0000000 0.2372549 1.0000000
0.0000000 0.2529412 1.0000000
0.0000000 0.2686275 1.0000000
0.0000000 0.2843137 1.0000000
0.0000000 0.3000000 1.0000000
0.0000000 0.3156863 1.0000000
0.0000000 0.3313725 1.0000000
0.0000000 0.3470588 1.0000000
0.0000000 0.3627451 1.0000000
0.0000000 0.3784314 1.0000000
0.0000000 0.3941176 1.0000000
0.0000000 0.4098039 1.0000000
0.0000000 0.4254902 1.0000000
0.0000000 0.4411765 1.0000000
0.0000000 0.4568627 1.0000000
0.0000000 0.4725490 1.0000000
0.0000000 0.4882353 1.0000000
0.0000000 0.5039216 1.0000000
0.0000000 0.5196078 1.0000000
0.0000000 0.5352941 1.0000000
0.0000000 0.5509804 1.0000000
0.0000000 0.5666667 1.0000000
0.0000000 0.5823529 1.0000000
0.0000000 0.5980392 1.0000000
0.0000000 0.6137255 1.0000000
0.0000000 0.6294118 1.0000000
0.0000000 0.6450980 1.0000000
0.0000000 0.6607843 1.0000000
0.0000000 0.6764706 1.0000000
0.0000000 0.6921569 1.0000000
0.0000000 0.7078431 1.0000000
0.0000000 0.7235294 1.0000000
0.0000000 0.7392157 1.0000000
0.0000000 0.7549020 1.0000000
0.0000000 0.7705882 1.0000000
0.0000000 0.7862745 1.0000000
0.0000000 0.8019608 1.0000000
0.0000000 0.8176471 1.0000000
0.0000000 0.8333333 1.0000000
0.0000000 0.8490196 1.0000000
0.0000000 0.8647059 0.9962049
0.0000000 0.8803922 0.9835547
0.0000000 0.8960784 0.9709045
0.0094877 0.9117647 0.9582543
0.0221379 0.9274510 0.9456040
0.0347881 0.9431373 0.9329538
0.0474383 0.9588235 0.9203036
0.0600886 0.9745098 0.9076534
0.0727388 0.9901961 0.8950032
0.0853890 1.0000000 0.8823529
0.0980392 1.0000000 0.8697027
0.1106894 1.0000000 0.8570525
0.1233397 1.0000000 0.8444023
0.1359899 1.0000000 0.8317521
0.1486401 1.0000000 0.8191018
0.1612903 1.0000000 0.8064516
0.1739405 1.0000000 0.7938014
0.1865908 1.0000000 0.7811512
0.1992410 1.0000000 0.7685009
0.2118912 1.0000000 0.7558507
0.2245414 1.0000000 0.7432005
0.2371917 1.0000000 0.7305503
0.2498419 1.0000000 0.7179001
0.2624921 1.0000000 0.7052498
0.2751423 1.0000000 0.6925996
0.2877925 1.0000000 0.6799494
0.3004428 1.0000000 0.6672992
0.3130930 1.0000000 0.6546490
0.3257432 1.0000000 0.6419987
0.3383934 1.0000000 0.6293485
0.3510436 1.0000000 0.6166983
0.3636939 1.0000000 0.6040481
0.3763441 1.0000000 0.5913978
0.3889943 1.0000000 0.5787476
0.4016445 1.0000000 0.5660974
0.4142948 1.0000000 0.5534472
0.4269450 1.0000000 0.5407970
0.4395952 1.0000000 0.5281467
0.4522454 1.0000000 0.5154965
0.4648956 1.0000000 0.5028463
0.4775459 1.0000000 0.4901961
0.4901961 1.0000000 0.4775459
0.5028463 1.0000000 0.4648956
0.5154965 1.0000000 0.4522454
0.5281467 1.0000000 0.4395952
0.5407970 1.0000000 0.4269450
0.5534472 1.0000000 0.4142948
0.5660974 1.0000000 0.4016445
0.5787476 1.0000000 0.3889943
0.5913978 1.0000000 0.3763441
0.6040481 1.0000000 0.3636939
0.6166983 1.0000000 0.3510436
0.6293485 1.0000000 0.3383934
0.6419987 1.0000000 0.3257432
0.6546490 1.0000000 0.3130930
0.6672992 1.0000000 0.3004428
0.6799494 1.0000000 0.2877925
0.6925996 1.0000000 0.2751423
0.7052498 1.0000000 0.2624921
0.7179001 1.0000000 0.2498419
0.7305503 1.0000000 0.2371917
0.7432005 1.0000000 0.2245414
0.7558507 1.0000000 0.2118912
0.7685009 1.0000000 0.1992410
0.7811512 1.0000000 0.1865908
0.7938014 1.0000000 0.1739405
0.8064516 1.0000000 0.1612903
0.8191018 1.0000000 0.1486401
0.8317521 1.0000000 0.1359899
0.8444023 1.0000000 0.1233397
0.8570525 1.0000000 0.1106894
0.8697027 1.0000000 0.0980392
0.8823529 1.0000000 0.0853890
0.8950032 1.0000000 0.0727388
0.9076534 1.0000000 0.0600886
0.9203036 1.0000000 0.0474383
0.9329538 1.0000000 0.0347881
0.9456040 0.9883805 0.0221379
0.9582543 0.9738562 0.0094877
0.9709045 0.9593319 0.0000000
0.9835547 0.9448076 0.0000000
0.9962049 0.9302832 0.0000000
1.0000000 0.9157589 0.0000000
1.0000000 0.9012346 0.0000000
1.0000000 0.8867102 0.0000000
1.0000000 0.8721859 0.0000000
1.0000000 0.8576616 0.0000000
1.0000000 0.8431373 0.0000000
1.0000000 0.8286129 0.0000000
1.0000000 0.8140886 0.0000000
1.0000000 0.7995643 0.0000000
1.0000000 0.7850399 0.0000000
1.0000000 0.7705156 0.0000000
1.0000000 0.7559913 0.0000000
1.0000000 0.7414670 0.0000000
1.0000000 0.7269426 0.0000000
1.0000000 0.7124183 0.0000000
1.0000000 0.6978940 0.0000000
1.0000000 0.6833696 0.0000000
1.0000000 0.6688453 0.0000000
1.0000000 0.6543210 0.0000000
1.0000000 0.6397967 0.0000000
1.0000000 0.6252723 0.0000000
1.0000000 0.6107480 0.0000000
1.0000000 0.5962237 0.0000000
1.0000000 0.5816993 0.0000000
1.0000000 0.5671750 0.0000000
1.0000000 0.5526507 0.0000000
1.0000000 0.5381264 0.0000000
1.0000000 0.5236020 0.0000000
1.0000000 0.5090777 0.0000000
1.0000000 0.4945534 0.0000000
1.0000000 0.4800290 0.0000000
1.0000000 0.4655047 0.0000000
1.0000000 0.4509804 0.0000000
1.0000000 0.4364561 0.0000000
1.0000000 0.4219317 0.0000000
1.0000000 0.4074074 0.0000000
1.0000000 0.3928831 0.0000000
1.0000000 0.3783588 0.0000000
1.0000000 0.3638344 0.0000000
1.0000000 0.3493101 0.0000000
1.0000000 0.3347858 0.0000000
1.0000000 0.3202614 0.0000000
1.0000000 0.3057371 0.0000000
1.0000000 0.2912128 0.0000000
1.0000000 0.2766885 0.0000000
1.0000000 0.2621641 0.0000000
1.0000000 0.2476398 0.0000000
1.0000000 0.2331155 0.0000000
1.0000000 0.2185911 0.0000000
1.0000000 0.2040668 0.0000000
1.0000000 0.1895425 0.0000000
1.0000000 0.1750182 0.0000000
1.0000000 0.1604938 0.0000000
1.0000000 0.1459695 0.0000000
1.0000000 0.1314452 0.0000000
1.0000000 0.1169208 0.0000000
1.0000000 0.1023965 0.0000000
1.0000000 0.0878722 0.0000000
0.9991087 0.0733479 0.0000000
0.9812834 0.0588235 0.0000000
0.9634581 0.0442992 0.0000000
0.9456328 0.0297749 0.0000000
0.9278075 0.0152505 0.0000000
0.9099822 0.0007262 0.0000000
0.8921569 0.0000000 0.0000000
0.8743316 0.0000000 0.0000000
0.8565062 0.0000000 0.0000000
0.8386809 0.0000000 0.0000000
0.8208556 0.0000000 0.0000000
0.8030303 0.0000000 0.0000000
0.7852050 0.0000000 0.0000000
0.7673797 0.0000000 0.0000000
0.7495544 0.0000000 0.0000000
0.7317291 0.0000000 0.0000000
0.7139037 0.0000000 0.0000000
0.6960784 0.0000000 0.0000000
0.6782531 0.0000000 0.0000000
0.6604278 0.0000000 0.0000000
0.6426025 0.0000000 0.0000000
0.6247772 0.0000000 0.0000000
0.6069519 0.0000000 0.0000000
0.5891266 0.0000000 0.0000000
0.5713012 0.0000000 0.0000000
0.5534759 0.0000000 0.0000000
0.5356506 0.0000000 0.0000000
0.5178253 0.0000000 0.0000000
0.5000000 0.0000000 0.0000000
