posts/Davinci-Resolve-thermal-luts/colormaps-as-cube/magma_r.cube
TITLE "Colormap magma_r"
LUT_1D_SIZE 256
0.9870530 0.9914380 0.7495040
0.9873870 0.9842880 0.7420020
0.9876910 0.9771540 0.7345360
0.9880330 0.9700120 0.7270770
0.9883670 0.9628780 0.7196490
0.9887170 0.9557420 0.7122420
0.9890770 0.9486040 0.7048630
0.9894340 0.9414700 0.6975190
0.9898150 0.9343290 0.6901980
0.9901750 0.9271960 0.6829260
0.9905700 0.9200490 0.6756750
0.9909300 0.9129150 0.6684810
0.9913320 0.9057630 0.6613090
0.9916880 0.8986270 0.6542020
0.9920890 0.8914700 0.6471160
0.9924400 0.8843300 0.6400990
0.9928310 0.8771680 0.6331090
0.9931700 0.8700240 0.6261890
0.9935450 0.8628590 0.6192990
0.9938660 0.8557110 0.6124820
0.9942220 0.8485400 0.6056960
0.9945240 0.8413870 0.5989830
0.9948510 0.8342130 0.5923070
0.9951310 0.8270520 0.5857010
0.9954240 0.8198750 0.5791400
0.9956800 0.8127060 0.5726450
0.9959320 0.8055270 0.5662020
0.9961620 0.7983480 0.5598200
0.9963690 0.7911670 0.5534990
0.9965710 0.7839770 0.5472330
0.9967270 0.7767950 0.5410390
0.9968980 0.7695910 0.5348920
0.9970190 0.7623980 0.5288210
0.9971380 0.7551900 0.5228060
0.9972280 0.7479810 0.5168590
0.9972850 0.7407720 0.5109830
0.9973410 0.7335450 0.5051670
0.9973510 0.7263240 0.4994280
0.9973510 0.7190890 0.4937550
0.9973250 0.7118480 0.4881540
0.9972540 0.7046110 0.4826350
0.9971860 0.6973490 0.4771820
0.9970770 0.6900880 0.4718110
0.9969250 0.6828280 0.4665260
0.9967750 0.6755410 0.4613140
0.9965800 0.6682560 0.4561920
0.9963410 0.6609690 0.4511600
0.9960960 0.6536590 0.4462130
0.9958100 0.6463440 0.4413610
0.9954800 0.6390270 0.4366070
0.9951220 0.6316960 0.4319510
0.9947380 0.6243500 0.4273970
0.9943090 0.6169990 0.4229500
0.9938340 0.6096440 0.4186130
0.9933260 0.6022750 0.4143900
0.9927850 0.5948910 0.4102830
0.9921960 0.5875020 0.4062990
0.9915580 0.5801070 0.4024410
0.9908710 0.5727060 0.3987140
0.9901380 0.5652960 0.3951220
0.9893630 0.5578730 0.3916710
0.9885330 0.5504460 0.3883650
0.9876460 0.5430150 0.3852100
0.9867000 0.5355820 0.3822100
0.9856930 0.5281480 0.3793710
0.9846220 0.5207130 0.3766980
0.9834850 0.5132800 0.3741980
0.9822790 0.5058510 0.3718740
0.9810000 0.4984280 0.3697340
0.9796450 0.4910140 0.3677830
0.9782100 0.4836120 0.3660250
0.9766900 0.4762260 0.3644660
0.9750820 0.4688610 0.3631110
0.9733810 0.4615200 0.3619650
0.9715820 0.4542100 0.3610300
0.9696800 0.4469360 0.3603110
0.9676710 0.4397030 0.3598100
0.9655490 0.4325190 0.3595290
0.9633100 0.4253900 0.3594690
0.9609490 0.4183230 0.3596300
0.9584640 0.4113240 0.3600140
0.9558490 0.4044000 0.3606190
0.9530990 0.3975630 0.3614380
0.9502100 0.3908200 0.3624680
0.9471800 0.3841780 0.3637010
0.9440060 0.3776430 0.3651360
0.9406870 0.3712240 0.3667620
0.9372210 0.3649290 0.3685670
0.9336060 0.3587640 0.3705410
0.9298450 0.3527340 0.3726770
0.9259370 0.3468440 0.3749590
0.9218840 0.3410980 0.3773760
0.9176890 0.3355000 0.3799150
0.9133540 0.3300520 0.3825630
0.9088840 0.3247550 0.3853080
0.9042810 0.3196100 0.3881370
0.8995520 0.3146160 0.3910370
0.8947000 0.3097730 0.3939950
0.8897310 0.3050790 0.3970020
0.8846510 0.3005300 0.4000470
0.8794640 0.2961250 0.4031180
0.8741760 0.2918590 0.4062050
0.8687930 0.2877280 0.4093030
0.8633200 0.2837290 0.4124030
0.8577630 0.2798570 0.4154960
0.8521260 0.2761060 0.4185730
0.8464160 0.2724730 0.4216310
0.8406360 0.2689530 0.4246660
0.8347910 0.2655400 0.4276710
0.8288860 0.2622290 0.4306440
0.8229260 0.2590160 0.4335730
0.8169140 0.2558950 0.4364610
0.8108550 0.2528610 0.4393050
0.8047520 0.2499110 0.4421020
0.7986080 0.2470400 0.4448480
0.7924270 0.2442420 0.4475430
0.7862120 0.2415140 0.4501840
0.7799680 0.2388510 0.4527650
0.7736950 0.2362490 0.4552890
0.7673980 0.2337050 0.4577550
0.7610770 0.2312140 0.4601620
0.7547370 0.2287720 0.4625090
0.7483780 0.2263770 0.4647940
0.7420040 0.2240250 0.4670180
0.7356160 0.2217130 0.4691800
0.7292160 0.2194370 0.4712790
0.7228050 0.2171940 0.4733160
0.7163870 0.2149820 0.4752900
0.7099620 0.2127970 0.4772010
0.7035320 0.2106380 0.4790490
0.6970980 0.2085010 0.4808350
0.6906610 0.2063840 0.4825580
0.6842240 0.2042860 0.4842190
0.6777860 0.2022030 0.4858190
0.6713490 0.2001330 0.4873580
0.6649150 0.1980750 0.4888360
0.6584830 0.1960270 0.4902530
0.6520560 0.1939860 0.4916110
0.6456330 0.1919520 0.4929100
0.6392160 0.1899210 0.4941500
0.6328050 0.1878930 0.4953320
0.6264010 0.1858670 0.4964560
0.6200050 0.1838400 0.4975240
0.6136170 0.1818110 0.4985360
0.6072380 0.1797790 0.4994920
0.6008680 0.1777430 0.5003940
0.5945080 0.1757010 0.5012410
0.5881580 0.1736520 0.5020350
0.5818190 0.1715960 0.5027770
0.5754900 0.1695300 0.5034660
0.5691720 0.1674540 0.5041050
0.5628660 0.1653680 0.5046920
0.5565710 0.1632690 0.5052300
0.5502870 0.1611580 0.5057190
0.5440150 0.1590330 0.5061590
0.5377550 0.1568940 0.5065510
0.5315070 0.1547390 0.5068950
0.5252700 0.1525690 0.5071920
0.5190450 0.1503830 0.5074430
0.5128310 0.1481790 0.5076480
0.5066290 0.1459580 0.5078060
0.5004380 0.1437190 0.5079200
0.4942580 0.1414620 0.5079880
0.4880880 0.1391860 0.5080110
0.4819290 0.1368910 0.5079890
0.4757800 0.1345770 0.5079210
0.4696400 0.1322450 0.5078090
0.4635080 0.1298930 0.5076520
0.4573860 0.1275220 0.5074480
0.4512710 0.1251320 0.5071980
0.4451630 0.1227240 0.5069010
0.4390620 0.1202980 0.5065550
0.4329670 0.1178550 0.5061600
0.4268770 0.1153950 0.5057140
0.4207910 0.1129200 0.5052150
0.4147090 0.1104310 0.5046620
0.4086290 0.1079300 0.5040520
0.4025480 0.1054200 0.5033860
0.3964670 0.1029020 0.5026580
0.3903840 0.1003790 0.5018640
0.3842990 0.0978550 0.5010020
0.3782110 0.0953320 0.5000670
0.3721160 0.0928160 0.4990530
0.3660120 0.0903140 0.4979600
0.3598980 0.0878310 0.4967780
0.3537730 0.0853730 0.4955010
0.3476360 0.0829460 0.4941210
0.3414820 0.0805640 0.4926310
0.3353080 0.0782360 0.4910240
0.3291140 0.0759720 0.4892870
0.3228990 0.0737820 0.4874080
0.3166540 0.0716900 0.4853800
0.3103820 0.0697020 0.4831860
0.3040810 0.0678350 0.4808120
0.2977400 0.0661170 0.4782430
0.2913660 0.0645530 0.4754620
0.2849510 0.0631680 0.4724510
0.2784930 0.0619780 0.4691900
0.2719940 0.0609940 0.4656600
0.2654470 0.0602370 0.4618400
0.2588570 0.0597060 0.4577100
0.2522200 0.0594150 0.4532480
0.2455430 0.0593520 0.4484360
0.2388260 0.0595170 0.4432560
0.2320770 0.0598890 0.4376950
0.2253020 0.0604450 0.4317420
0.2185120 0.0611580 0.4253920
0.2117180 0.0619920 0.4186470
0.2049350 0.0629070 0.4115140
0.1981770 0.0638620 0.4040090
0.1914600 0.0648180 0.3961520
0.1848010 0.0657320 0.3879730
0.1782120 0.0665760 0.3794970
0.1717130 0.0673050 0.3707710
0.1653080 0.0679110 0.3618160
0.1590180 0.0683540 0.3526880
0.1528390 0.0686370 0.3434040
0.1467850 0.0687380 0.3340110
0.1408580 0.0686540 0.3245380
0.1350530 0.0683910 0.3150000
0.1293800 0.0679350 0.3054430
0.1238330 0.0672950 0.2958790
0.1184050 0.0664790 0.2863210
0.1130940 0.0654920 0.2767840
0.1078990 0.0643350 0.2672890
0.1028150 0.0630100 0.2578540
0.0978330 0.0615310 0.2484770
0.0929490 0.0599040 0.2391640
0.0881550 0.0581330 0.2299220
0.0834460 0.0562250 0.2207550
0.0788150 0.0541840 0.2116670
0.0742570 0.0520170 0.2026600
0.0697640 0.0497260 0.1937350
0.0653300 0.0473180 0.1848920
0.0609490 0.0447940 0.1761290
0.0566150 0.0421600 0.1674460
0.0523200 0.0394070 0.1588410
0.0480620 0.0366070 0.1503270
0.0438300 0.0338300 0.1418860
0.0396080 0.0310900 0.1335150
0.0355200 0.0283970 0.1252090
0.0316960 0.0257650 0.1169650
0.0281230 0.0232010 0.1087870
0.0247920 0.0207150 0.1006760
0.0216920 0.0183200 0.0926100
0.0188150 0.0160260 0.0845840
0.0161560 0.0138400 0.0766030
0.0137080 0.0117710 0.0686670
0.0114650 0.0098280 0.0607500
0.0094260 0.0080220 0.0528440
0.0075880 0.0063560 0.0449730
0.0059500 0.0048430 0.0371300
0.0045120 0.0034900 0.0299650
0.0032790 0.0023050 0.0237080
0.0022580 0.0012950 0.0183310
0.0014620 0.0004660 0.0138660
