posts/Davinci-Resolve-thermal-luts/colormaps-as-cube/nipy_spectral.cube
TITLE "Colormap nipy_spectral"
LUT_1D_SIZE 256
0.0000000 0.0000000 0.0000000
0.0366039 0.0000000 0.0418275
0.0732078 0.0000000 0.0836549
0.1098118 0.0000000 0.1254824
0.1464157 0.0000000 0.1673098
0.1830196 0.0000000 0.2091373
0.2196235 0.0000000 0.2509647
0.2562275 0.0000000 0.2927922
0.2928314 0.0000000 0.3346196
0.3294353 0.0000000 0.3764471
0.3660392 0.0000000 0.4182745
0.4026431 0.0000000 0.4601020
0.4392471 0.0000000 0.5019294
0.4680059 0.0000000 0.5346078
0.4732294 0.0000000 0.5398392
0.4784529 0.0000000 0.5450706
0.4836765 0.0000000 0.5503020
0.4889000 0.0000000 0.5555333
0.4941235 0.0000000 0.5607647
0.4993471 0.0000000 0.5659961
0.5045706 0.0000000 0.5712275
0.5097941 0.0000000 0.5764588
0.5150176 0.0000000 0.5816902
0.5202412 0.0000000 0.5869216
0.5254647 0.0000000 0.5921529
0.5306882 0.0000000 0.5973843
0.5123863 0.0000000 0.6026157
0.4705588 0.0000000 0.6078471
0.4287314 0.0000000 0.6130784
0.3869039 0.0000000 0.6183098
0.3450765 0.0000000 0.6235412
0.3032490 0.0000000 0.6287725
0.2614216 0.0000000 0.6340039
0.2195941 0.0000000 0.6392353
0.1777667 0.0000000 0.6444667
0.1359392 0.0000000 0.6496980
0.0941118 0.0000000 0.6549294
0.0522843 0.0000000 0.6601608
0.0104569 0.0000000 0.6653922
0.0000000 0.0000000 0.6784647
0.0000000 0.0000000 0.6941510
0.0000000 0.0000000 0.7098373
0.0000000 0.0000000 0.7255235
0.0000000 0.0000000 0.7412098
0.0000000 0.0000000 0.7568961
0.0000000 0.0000000 0.7725824
0.0000000 0.0000000 0.7882686
0.0000000 0.0000000 0.8039549
0.0000000 0.0000000 0.8196412
0.0000000 0.0000000 0.8353275
0.0000000 0.0000000 0.8510137
0.0000000 0.0000000 0.8667000
0.0000000 0.0366039 0.8667000
0.0000000 0.0732078 0.8667000
0.0000000 0.1098118 0.8667000
0.0000000 0.1464157 0.8667000
0.0000000 0.1830196 0.8667000
0.0000000 0.2196235 0.8667000
0.0000000 0.2562275 0.8667000
0.0000000 0.2928314 0.8667000
0.0000000 0.3294353 0.8667000
0.0000000 0.3660392 0.8667000
0.0000000 0.4026431 0.8667000
0.0000000 0.4392471 0.8667000
0.0000000 0.4693137 0.8667000
0.0000000 0.4797686 0.8667000
0.0000000 0.4902235 0.8667000
0.0000000 0.5006784 0.8667000
0.0000000 0.5111333 0.8667000
0.0000000 0.5215882 0.8667000
0.0000000 0.5320431 0.8667000
0.0000000 0.5424980 0.8667000
0.0000000 0.5529529 0.8667000
0.0000000 0.5634078 0.8667000
0.0000000 0.5738627 0.8667000
0.0000000 0.5843176 0.8667000
0.0000000 0.5947725 0.8667000
0.0000000 0.6026157 0.8588569
0.0000000 0.6078471 0.8431706
0.0000000 0.6130784 0.8274843
0.0000000 0.6183098 0.8117980
0.0000000 0.6235412 0.7961118
0.0000000 0.6287725 0.7804255
0.0000000 0.6340039 0.7647392
0.0000000 0.6392353 0.7490529
0.0000000 0.6444667 0.7333667
0.0000000 0.6496980 0.7176804
0.0000000 0.6549294 0.7019941
0.0000000 0.6601608 0.6863078
0.0000000 0.6653922 0.6706216
0.0000000 0.6667000 0.6588529
0.0000000 0.6667000 0.6483902
0.0000000 0.6667000 0.6379275
0.0000000 0.6667000 0.6274647
0.0000000 0.6667000 0.6170020
0.0000000 0.6667000 0.6065392
0.0000000 0.6667000 0.5960765
0.0000000 0.6667000 0.5856137
0.0000000 0.6667000 0.5751510
0.0000000 0.6667000 0.5646882
0.0000000 0.6667000 0.5542255
0.0000000 0.6667000 0.5437627
0.0000000 0.6667000 0.5333000
0.0000000 0.6614686 0.4914725
0.0000000 0.6562373 0.4496451
0.0000000 0.6510059 0.4078176
0.0000000 0.6457745 0.3659902
0.0000000 0.6405431 0.3241627
0.0000000 0.6353118 0.2823353
0.0000000 0.6300804 0.2405078
0.0000000 0.6248490 0.1986804
0.0000000 0.6196176 0.1568529
0.0000000 0.6143863 0.1150255
0.0000000 0.6091549 0.0731980
0.0000000 0.6039235 0.0313706
0.0000000 0.6026137 0.0000000
0.0000000 0.6130686 0.0000000
0.0000000 0.6235235 0.0000000
0.0000000 0.6339784 0.0000000
0.0000000 0.6444333 0.0000000
0.0000000 0.6548882 0.0000000
0.0000000 0.6653431 0.0000000
0.0000000 0.6757980 0.0000000
0.0000000 0.6862529 0.0000000
0.0000000 0.6967078 0.0000000
0.0000000 0.7071627 0.0000000
0.0000000 0.7176176 0.0000000
0.0000000 0.7280725 0.0000000
0.0000000 0.7385314 0.0000000
0.0000000 0.7489941 0.0000000
0.0000000 0.7594569 0.0000000
0.0000000 0.7699196 0.0000000
0.0000000 0.7803824 0.0000000
0.0000000 0.7908451 0.0000000
0.0000000 0.8013078 0.0000000
0.0000000 0.8117706 0.0000000
0.0000000 0.8222333 0.0000000
0.0000000 0.8326961 0.0000000
0.0000000 0.8431588 0.0000000
0.0000000 0.8536216 0.0000000
0.0000000 0.8640843 0.0000000
0.0000000 0.8745412 0.0000000
0.0000000 0.8849961 0.0000000
0.0000000 0.8954510 0.0000000
0.0000000 0.9059059 0.0000000
0.0000000 0.9163608 0.0000000
0.0000000 0.9268157 0.0000000
0.0000000 0.9372706 0.0000000
0.0000000 0.9477255 0.0000000
0.0000000 0.9581804 0.0000000
0.0000000 0.9686353 0.0000000
0.0000000 0.9790902 0.0000000
0.0000000 0.9895451 0.0000000
0.0000000 1.0000000 0.0000000
0.0575137 1.0000000 0.0000000
0.1150275 1.0000000 0.0000000
0.1725412 1.0000000 0.0000000
0.2300549 1.0000000 0.0000000
0.2875686 1.0000000 0.0000000
0.3450824 1.0000000 0.0000000
0.4025961 1.0000000 0.0000000
0.4601098 1.0000000 0.0000000
0.5176235 1.0000000 0.0000000
0.5751373 1.0000000 0.0000000
0.6326510 1.0000000 0.0000000
0.6901647 1.0000000 0.0000000
0.7372216 0.9986922 0.0000000
0.7529078 0.9934608 0.0000000
0.7685941 0.9882294 0.0000000
0.7842804 0.9829980 0.0000000
0.7999667 0.9777667 0.0000000
0.8156529 0.9725353 0.0000000
0.8313392 0.9673039 0.0000000
0.8470255 0.9620725 0.0000000
0.8627118 0.9568412 0.0000000
0.8783980 0.9516098 0.0000000
0.8940843 0.9463784 0.0000000
0.9097706 0.9411471 0.0000000
0.9254569 0.9359157 0.0000000
0.9359157 0.9280725 0.0000000
0.9411471 0.9176176 0.0000000
0.9463784 0.9071627 0.0000000
0.9516098 0.8967078 0.0000000
0.9568412 0.8862529 0.0000000
0.9620725 0.8757980 0.0000000
0.9673039 0.8653431 0.0000000
0.9725353 0.8548882 0.0000000
0.9777667 0.8444333 0.0000000
0.9829980 0.8339784 0.0000000
0.9882294 0.8235235 0.0000000
0.9934608 0.8130686 0.0000000
0.9986922 0.8026137 0.0000000
1.0000000 0.7882353 0.0000000
1.0000000 0.7725490 0.0000000
1.0000000 0.7568627 0.0000000
1.0000000 0.7411765 0.0000000
1.0000000 0.7254902 0.0000000
1.0000000 0.7098039 0.0000000
1.0000000 0.6941176 0.0000000
1.0000000 0.6784314 0.0000000
1.0000000 0.6627451 0.0000000
1.0000000 0.6470588 0.0000000
1.0000000 0.6313725 0.0000000
1.0000000 0.6156863 0.0000000
1.0000000 0.6000000 0.0000000
1.0000000 0.5529412 0.0000000
1.0000000 0.5058824 0.0000000
1.0000000 0.4588235 0.0000000
1.0000000 0.4117647 0.0000000
1.0000000 0.3647059 0.0000000
1.0000000 0.3176471 0.0000000
1.0000000 0.2705882 0.0000000
1.0000000 0.2235294 0.0000000
1.0000000 0.1764706 0.0000000
1.0000000 0.1294118 0.0000000
1.0000000 0.0823529 0.0000000
1.0000000 0.0352941 0.0000000
0.9973863 0.0000000 0.0000000
0.9869314 0.0000000 0.0000000
0.9764765 0.0000000 0.0000000
0.9660216 0.0000000 0.0000000
0.9555667 0.0000000 0.0000000
0.9451118 0.0000000 0.0000000
0.9346569 0.0000000 0.0000000
0.9242020 0.0000000 0.0000000
0.9137471 0.0000000 0.0000000
0.9032922 0.0000000 0.0000000
0.8928373 0.0000000 0.0000000
0.8823824 0.0000000 0.0000000
0.8719275 0.0000000 0.0000000
0.8640843 0.0000000 0.0000000
0.8588529 0.0000000 0.0000000
0.8536216 0.0000000 0.0000000
0.8483902 0.0000000 0.0000000
0.8431588 0.0000000 0.0000000
0.8379275 0.0000000 0.0000000
0.8326961 0.0000000 0.0000000
0.8274647 0.0000000 0.0000000
0.8222333 0.0000000 0.0000000
0.8170020 0.0000000 0.0000000
0.8117706 0.0000000 0.0000000
0.8065392 0.0000000 0.0000000
0.8013078 0.0000000 0.0000000
0.8000000 0.0470588 0.0470588
0.8000000 0.1098039 0.1098039
0.8000000 0.1725490 0.1725490
0.8000000 0.2352941 0.2352941
0.8000000 0.2980392 0.2980392
0.8000000 0.3607843 0.3607843
0.8000000 0.4235294 0.4235294
0.8000000 0.4862745 0.4862745
0.8000000 0.5490196 0.5490196
0.8000000 0.6117647 0.6117647
0.8000000 0.6745098 0.6745098
0.8000000 0.7372549 0.7372549
0.8000000 0.8000000 0.8000000
