posts/Davinci-Resolve-thermal-luts/colormaps-as-cube/Oranges.cube
TITLE "Colormap Oranges"
LUT_1D_SIZE 256
1.0000000 0.9607843 0.9215686
0.9998770 0.9589389 0.9180008
0.9997539 0.9570934 0.9144329
0.9996309 0.9552480 0.9108651
0.9995079 0.9534025 0.9072972
0.9993849 0.9515571 0.9037293
0.9992618 0.9497116 0.9001615
0.9991388 0.9478662 0.8965936
0.9990158 0.9460208 0.8930258
0.9988927 0.9441753 0.8894579
0.9987697 0.9423299 0.8858900
0.9986467 0.9404844 0.8823222
0.9985236 0.9386390 0.8787543
0.9984006 0.9367935 0.8751865
0.9982776 0.9349481 0.8716186
0.9981546 0.9331027 0.8680507
0.9980315 0.9312572 0.8644829
0.9979085 0.9294118 0.8609150
0.9977855 0.9275663 0.8573472
0.9976624 0.9257209 0.8537793
0.9975394 0.9238754 0.8502115
0.9974164 0.9220300 0.8466436
0.9972933 0.9201845 0.8430757
0.9971703 0.9183391 0.8395079
0.9970473 0.9164937 0.8359400
0.9969243 0.9146482 0.8323722
0.9968012 0.9128028 0.8288043
0.9966782 0.9109573 0.8252364
0.9965552 0.9091119 0.8216686
0.9964321 0.9072664 0.8181007
0.9963091 0.9054210 0.8145329
0.9961861 0.9035755 0.8109650
0.9960631 0.9016225 0.8071665
0.9959400 0.8989158 0.8017532
0.9958170 0.8962092 0.7963399
0.9956940 0.8935025 0.7909266
0.9955709 0.8907958 0.7855133
0.9954479 0.8880892 0.7801000
0.9953249 0.8853825 0.7746867
0.9952018 0.8826759 0.7692734
0.9950788 0.8799692 0.7638601
0.9949558 0.8772626 0.7584468
0.9948328 0.8745559 0.7530334
0.9947097 0.8718493 0.7476201
0.9945867 0.8691426 0.7422068
0.9944637 0.8664360 0.7367935
0.9943406 0.8637293 0.7313802
0.9942176 0.8610227 0.7259669
0.9940946 0.8583160 0.7205536
0.9939715 0.8556094 0.7151403
0.9938485 0.8529027 0.7097270
0.9937255 0.8501961 0.7043137
0.9936025 0.8474894 0.6989004
0.9934794 0.8447828 0.6934871
0.9933564 0.8420761 0.6880738
0.9932334 0.8393695 0.6826605
0.9931103 0.8366628 0.6772472
0.9929873 0.8339562 0.6718339
0.9928643 0.8312495 0.6664206
0.9927413 0.8285429 0.6610073
0.9926182 0.8258362 0.6555940
0.9924952 0.8231296 0.6501807
0.9923722 0.8204229 0.6447674
0.9922491 0.8177163 0.6393541
0.9921569 0.8146405 0.6336025
0.9921569 0.8104575 0.6268358
0.9921569 0.8062745 0.6200692
0.9921569 0.8020915 0.6133026
0.9921569 0.7979085 0.6065359
0.9921569 0.7937255 0.5997693
0.9921569 0.7895425 0.5930027
0.9921569 0.7853595 0.5862361
0.9921569 0.7811765 0.5794694
0.9921569 0.7769935 0.5727028
0.9921569 0.7728105 0.5659362
0.9921569 0.7686275 0.5591696
0.9921569 0.7644444 0.5524029
0.9921569 0.7602614 0.5456363
0.9921569 0.7560784 0.5388697
0.9921569 0.7518954 0.5321030
0.9921569 0.7477124 0.5253364
0.9921569 0.7435294 0.5185698
0.9921569 0.7393464 0.5118032
0.9921569 0.7351634 0.5050365
0.9921569 0.7309804 0.4982699
0.9921569 0.7267974 0.4915033
0.9921569 0.7226144 0.4847366
0.9921569 0.7184314 0.4779700
0.9921569 0.7142484 0.4712034
0.9921569 0.7100654 0.4644368
0.9921569 0.7058824 0.4576701
0.9921569 0.7016993 0.4509035
0.9921569 0.6975163 0.4441369
0.9921569 0.6933333 0.4373702
0.9921569 0.6891503 0.4306036
0.9921569 0.6849673 0.4238370
0.9921569 0.6808304 0.4174394
0.9921569 0.6767705 0.4116571
0.9921569 0.6727105 0.4058747
0.9921569 0.6686505 0.4000923
0.9921569 0.6645905 0.3943099
0.9921569 0.6605306 0.3885275
0.9921569 0.6564706 0.3827451
0.9921569 0.6524106 0.3769627
0.9921569 0.6483506 0.3711803
0.9921569 0.6442907 0.3653979
0.9921569 0.6402307 0.3596155
0.9921569 0.6361707 0.3538331
0.9921569 0.6321107 0.3480507
0.9921569 0.6280507 0.3422684
0.9921569 0.6239908 0.3364860
0.9921569 0.6199308 0.3307036
0.9921569 0.6158708 0.3249212
0.9921569 0.6118108 0.3191388
0.9921569 0.6077509 0.3133564
0.9921569 0.6036909 0.3075740
0.9921569 0.5996309 0.3017916
0.9921569 0.5955709 0.2960092
0.9921569 0.5915110 0.2902268
0.9921569 0.5874510 0.2844444
0.9921569 0.5833910 0.2786621
0.9921569 0.5793310 0.2728797
0.9921569 0.5752710 0.2670973
0.9921569 0.5712111 0.2613149
0.9921569 0.5671511 0.2555325
0.9921569 0.5630911 0.2497501
0.9921569 0.5590311 0.2439677
0.9921569 0.5549712 0.2381853
0.9914187 0.5507266 0.2327720
0.9899423 0.5462976 0.2277278
0.9884660 0.5418685 0.2226836
0.9869896 0.5374394 0.2176394
0.9855133 0.5330104 0.2125952
0.9840369 0.5285813 0.2075509
0.9825606 0.5241522 0.2025067
0.9810842 0.5197232 0.1974625
0.9796078 0.5152941 0.1924183
0.9781315 0.5108651 0.1873741
0.9766551 0.5064360 0.1823299
0.9751788 0.5020069 0.1772857
0.9737024 0.4975779 0.1722414
0.9722261 0.4931488 0.1671972
0.9707497 0.4887197 0.1621530
0.9692734 0.4842907 0.1571088
0.9677970 0.4798616 0.1520646
0.9663206 0.4754325 0.1470204
0.9648443 0.4710035 0.1419762
0.9633679 0.4665744 0.1369319
0.9618916 0.4621453 0.1318877
0.9604152 0.4577163 0.1268435
0.9589389 0.4532872 0.1217993
0.9574625 0.4488581 0.1167551
0.9559862 0.4444291 0.1117109
0.9545098 0.4400000 0.1066667
0.9530334 0.4355709 0.1016225
0.9515571 0.4311419 0.0965782
0.9500807 0.4267128 0.0915340
0.9486044 0.4222837 0.0864898
0.9471280 0.4178547 0.0814456
0.9456517 0.4134256 0.0764014
0.9432526 0.4092272 0.0731257
0.9402999 0.4051672 0.0709112
0.9373472 0.4011073 0.0686967
0.9343945 0.3970473 0.0664821
0.9314418 0.3929873 0.0642676
0.9284890 0.3889273 0.0620531
0.9255363 0.3848674 0.0598385
0.9225836 0.3808074 0.0576240
0.9196309 0.3767474 0.0554095
0.9166782 0.3726874 0.0531949
0.9137255 0.3686275 0.0509804
0.9107728 0.3645675 0.0487659
0.9078201 0.3605075 0.0465513
0.9048674 0.3564475 0.0443368
0.9019146 0.3523875 0.0421223
0.8989619 0.3483276 0.0399077
0.8960092 0.3442676 0.0376932
0.8930565 0.3402076 0.0354787
0.8901038 0.3361476 0.0332641
0.8871511 0.3320877 0.0310496
0.8841984 0.3280277 0.0288351
0.8812457 0.3239677 0.0266205
0.8782930 0.3199077 0.0244060
0.8753403 0.3158478 0.0221915
0.8723875 0.3117878 0.0199769
0.8694348 0.3077278 0.0177624
0.8664821 0.3036678 0.0155479
0.8635294 0.2996078 0.0133333
0.8605767 0.2955479 0.0111188
0.8576240 0.2914879 0.0089043
0.8546713 0.2874279 0.0066897
0.8517186 0.2833679 0.0044752
0.8462745 0.2806920 0.0041061
0.8400000 0.2784775 0.0043522
0.8337255 0.2762630 0.0045982
0.8274510 0.2740484 0.0048443
0.8211765 0.2718339 0.0050903
0.8149020 0.2696194 0.0053364
0.8086275 0.2674048 0.0055825
0.8023529 0.2651903 0.0058285
0.7960784 0.2629758 0.0060746
0.7898039 0.2607612 0.0063206
0.7835294 0.2585467 0.0065667
0.7772549 0.2563322 0.0068128
0.7709804 0.2541176 0.0070588
0.7647059 0.2519031 0.0073049
0.7584314 0.2496886 0.0075509
0.7521569 0.2474740 0.0077970
0.7458824 0.2452595 0.0080431
0.7396078 0.2430450 0.0082891
0.7333333 0.2408304 0.0085352
0.7270588 0.2386159 0.0087812
0.7207843 0.2364014 0.0090273
0.7145098 0.2341869 0.0092734
0.7082353 0.2319723 0.0095194
0.7019608 0.2297578 0.0097655
0.6956863 0.2275433 0.0100115
0.6894118 0.2253287 0.0102576
0.6831373 0.2231142 0.0105037
0.6768627 0.2208997 0.0107497
0.6705882 0.2186851 0.0109958
0.6643137 0.2164706 0.0112418
0.6580392 0.2142561 0.0114879
0.6517647 0.2120415 0.0117339
0.6467820 0.2101499 0.0118724
0.6419839 0.2083045 0.0119954
0.6371857 0.2064591 0.0121184
0.6323875 0.2046136 0.0122414
0.6275894 0.2027682 0.0123645
0.6227912 0.2009227 0.0124875
0.6179931 0.1990773 0.0126105
0.6131949 0.1972318 0.0127336
0.6083968 0.1953864 0.0128566
0.6035986 0.1935409 0.0129796
0.5988005 0.1916955 0.0131027
0.5940023 0.1898501 0.0132257
0.5892042 0.1880046 0.0133487
0.5844060 0.1861592 0.0134717
0.5796078 0.1843137 0.0135948
0.5748097 0.1824683 0.0137178
0.5700115 0.1806228 0.0138408
0.5652134 0.1787774 0.0139639
0.5604152 0.1769319 0.0140869
0.5556171 0.1750865 0.0142099
0.5508189 0.1732411 0.0143329
0.5460208 0.1713956 0.0144560
0.5412226 0.1695502 0.0145790
0.5364245 0.1677047 0.0147020
0.5316263 0.1658593 0.0148251
0.5268281 0.1640138 0.0149481
0.5220300 0.1621684 0.0150711
0.5172318 0.1603230 0.0151942
0.5124337 0.1584775 0.0153172
0.5076355 0.1566321 0.0154402
0.5028374 0.1547866 0.0155632
0.4980392 0.1529412 0.0156863
