posts/Davinci-Resolve-thermal-luts/colormaps-as-cube/OrRd_r.cube
TITLE "Colormap OrRd_r"
LUT_1D_SIZE 256
0.4980392 0.0000000 0.0000000
0.5044368 0.0000000 0.0000000
0.5108343 0.0000000 0.0000000
0.5172318 0.0000000 0.0000000
0.5236294 0.0000000 0.0000000
0.5300269 0.0000000 0.0000000
0.5364245 0.0000000 0.0000000
0.5428220 0.0000000 0.0000000
0.5492195 0.0000000 0.0000000
0.5556171 0.0000000 0.0000000
0.5620146 0.0000000 0.0000000
0.5684121 0.0000000 0.0000000
0.5748097 0.0000000 0.0000000
0.5812072 0.0000000 0.0000000
0.5876048 0.0000000 0.0000000
0.5940023 0.0000000 0.0000000
0.6003998 0.0000000 0.0000000
0.6067974 0.0000000 0.0000000
0.6131949 0.0000000 0.0000000
0.6195925 0.0000000 0.0000000
0.6259900 0.0000000 0.0000000
0.6323875 0.0000000 0.0000000
0.6387851 0.0000000 0.0000000
0.6451826 0.0000000 0.0000000
0.6515802 0.0000000 0.0000000
0.6579777 0.0000000 0.0000000
0.6643752 0.0000000 0.0000000
0.6707728 0.0000000 0.0000000
0.6771703 0.0000000 0.0000000
0.6835679 0.0000000 0.0000000
0.6899654 0.0000000 0.0000000
0.6963629 0.0000000 0.0000000
0.7025144 0.0007382 0.0004767
0.7069435 0.0066436 0.0042907
0.7113725 0.0125490 0.0081046
0.7158016 0.0184544 0.0119185
0.7202307 0.0243599 0.0157324
0.7246597 0.0302653 0.0195463
0.7290888 0.0361707 0.0233602
0.7335179 0.0420761 0.0271742
0.7379469 0.0479815 0.0309881
0.7423760 0.0538870 0.0348020
0.7468051 0.0597924 0.0386159
0.7512341 0.0656978 0.0424298
0.7556632 0.0716032 0.0462438
0.7600923 0.0775087 0.0500577
0.7645213 0.0834141 0.0538716
0.7689504 0.0893195 0.0576855
0.7733795 0.0952249 0.0614994
0.7778085 0.1011303 0.0653133
0.7822376 0.1070358 0.0691273
0.7866667 0.1129412 0.0729412
0.7910957 0.1188466 0.0767551
0.7955248 0.1247520 0.0805690
0.7999539 0.1306574 0.0843829
0.8043829 0.1365629 0.0881968
0.8088120 0.1424683 0.0920108
0.8132411 0.1483737 0.0958247
0.8176701 0.1542791 0.0996386
0.8220992 0.1601845 0.1034525
0.8265283 0.1660900 0.1072664
0.8309573 0.1719954 0.1110804
0.8353864 0.1779008 0.1148943
0.8398155 0.1838062 0.1187082
0.8438754 0.1898654 0.1228297
0.8468281 0.1963860 0.1278739
0.8497809 0.2029066 0.1329181
0.8527336 0.2094271 0.1379623
0.8556863 0.2159477 0.1430065
0.8586390 0.2224683 0.1480507
0.8615917 0.2289889 0.1530950
0.8645444 0.2355094 0.1581392
0.8674971 0.2420300 0.1631834
0.8704498 0.2485506 0.1682276
0.8734025 0.2550711 0.1732718
0.8763552 0.2615917 0.1783160
0.8793080 0.2681123 0.1833602
0.8822607 0.2746328 0.1884045
0.8852134 0.2811534 0.1934487
0.8881661 0.2876740 0.1984929
0.8911188 0.2941945 0.2035371
0.8940715 0.3007151 0.2085813
0.8970242 0.3072357 0.2136255
0.8999769 0.3137562 0.2186697
0.9029296 0.3202768 0.2237140
0.9058824 0.3267974 0.2287582
0.9088351 0.3333180 0.2338024
0.9117878 0.3398385 0.2388466
0.9147405 0.3463591 0.2438908
0.9176932 0.3528797 0.2489350
0.9206459 0.3594002 0.2539792
0.9235986 0.3659208 0.2590235
0.9265513 0.3724414 0.2640677
0.9295040 0.3789619 0.2691119
0.9324567 0.3854825 0.2741561
0.9354095 0.3920031 0.2792003
0.9378547 0.3979239 0.2831373
0.9394541 0.4028451 0.2852288
0.9410534 0.4077662 0.2873203
0.9426528 0.4126874 0.2894118
0.9442522 0.4176086 0.2915033
0.9458516 0.4225298 0.2935948
0.9474510 0.4274510 0.2956863
0.9490504 0.4323722 0.2977778
0.9506498 0.4372933 0.2998693
0.9522491 0.4422145 0.3019608
0.9538485 0.4471357 0.3040523
0.9554479 0.4520569 0.3061438
0.9570473 0.4569781 0.3082353
0.9586467 0.4618993 0.3103268
0.9602461 0.4668205 0.3124183
0.9618454 0.4717416 0.3145098
0.9634448 0.4766628 0.3166013
0.9650442 0.4815840 0.3186928
0.9666436 0.4865052 0.3207843
0.9682430 0.4914264 0.3228758
0.9698424 0.4963476 0.3249673
0.9714418 0.5012687 0.3270588
0.9730411 0.5061899 0.3291503
0.9746405 0.5111111 0.3312418
0.9762399 0.5160323 0.3333333
0.9778393 0.5209535 0.3354248
0.9794387 0.5258747 0.3375163
0.9810381 0.5307958 0.3396078
0.9826374 0.5357170 0.3416993
0.9842368 0.5406382 0.3437908
0.9858362 0.5455594 0.3458824
0.9874356 0.5504806 0.3479739
0.9882968 0.5557709 0.3516647
0.9884198 0.5614302 0.3569550
0.9885429 0.5670896 0.3622453
0.9886659 0.5727489 0.3675356
0.9887889 0.5784083 0.3728258
0.9889120 0.5840677 0.3781161
0.9890350 0.5897270 0.3834064
0.9891580 0.5953864 0.3886967
0.9892810 0.6010458 0.3939869
0.9894041 0.6067051 0.3992772
0.9895271 0.6123645 0.4045675
0.9896501 0.6180238 0.4098577
0.9897732 0.6236832 0.4151480
0.9898962 0.6293426 0.4204383
0.9900192 0.6350019 0.4257286
0.9901423 0.6406613 0.4310188
0.9902653 0.6463206 0.4363091
0.9903883 0.6519800 0.4415994
0.9905113 0.6576394 0.4468897
0.9906344 0.6632987 0.4521799
0.9907574 0.6689581 0.4574702
0.9908804 0.6746175 0.4627605
0.9910035 0.6802768 0.4680507
0.9911265 0.6859362 0.4733410
0.9912495 0.6915955 0.4786313
0.9913725 0.6972549 0.4839216
0.9914956 0.7029143 0.4892118
0.9916186 0.7085736 0.4945021
0.9917416 0.7142330 0.4997924
0.9918647 0.7198923 0.5050827
0.9919877 0.7255517 0.5103729
0.9921107 0.7312111 0.5156632
0.9921569 0.7352557 0.5196463
0.9921569 0.7383314 0.5228451
0.9921569 0.7414072 0.5260438
0.9921569 0.7444829 0.5292426
0.9921569 0.7475586 0.5324414
0.9921569 0.7506344 0.5356401
0.9921569 0.7537101 0.5388389
0.9921569 0.7567859 0.5420377
0.9921569 0.7598616 0.5452364
0.9921569 0.7629373 0.5484352
0.9921569 0.7660131 0.5516340
0.9921569 0.7690888 0.5548328
0.9921569 0.7721646 0.5580315
0.9921569 0.7752403 0.5612303
0.9921569 0.7783160 0.5644291
0.9921569 0.7813918 0.5676278
0.9921569 0.7844675 0.5708266
0.9921569 0.7875433 0.5740254
0.9921569 0.7906190 0.5772241
0.9921569 0.7936947 0.5804229
0.9921569 0.7967705 0.5836217
0.9921569 0.7998462 0.5868205
0.9921569 0.8029220 0.5900192
0.9921569 0.8059977 0.5932180
0.9921569 0.8090734 0.5964168
0.9921569 0.8121492 0.5996155
0.9921569 0.8152249 0.6028143
0.9921569 0.8183007 0.6060131
0.9921569 0.8213764 0.6092118
0.9921569 0.8244521 0.6124106
0.9921569 0.8275279 0.6156094
0.9921569 0.8306036 0.6188082
0.9922491 0.8332180 0.6234833
0.9923722 0.8356786 0.6286505
0.9924952 0.8381392 0.6338178
0.9926182 0.8405998 0.6389850
0.9927413 0.8430604 0.6441522
0.9928643 0.8455210 0.6493195
0.9929873 0.8479815 0.6544867
0.9931103 0.8504421 0.6596540
0.9932334 0.8529027 0.6648212
0.9933564 0.8553633 0.6699885
0.9934794 0.8578239 0.6751557
0.9936025 0.8602845 0.6803230
0.9937255 0.8627451 0.6854902
0.9938485 0.8652057 0.6906574
0.9939715 0.8676663 0.6958247
0.9940946 0.8701269 0.7009919
0.9942176 0.8725875 0.7061592
0.9943406 0.8750481 0.7113264
0.9944637 0.8775087 0.7164937
0.9945867 0.8799692 0.7216609
0.9947097 0.8824298 0.7268281
0.9948328 0.8848904 0.7319954
0.9949558 0.8873510 0.7371626
0.9950788 0.8898116 0.7423299
0.9952018 0.8922722 0.7474971
0.9953249 0.8947328 0.7526644
0.9954479 0.8971934 0.7578316
0.9955709 0.8996540 0.7629988
0.9956940 0.9021146 0.7681661
0.9958170 0.9045752 0.7733333
0.9959400 0.9070358 0.7785006
0.9960631 0.9094963 0.7836678
0.9961861 0.9114187 0.7881892
0.9963091 0.9132641 0.7926182
0.9964321 0.9151096 0.7970473
0.9965552 0.9169550 0.8014764
0.9966782 0.9188005 0.8059054
0.9968012 0.9206459 0.8103345
0.9969243 0.9224913 0.8147636
0.9970473 0.9243368 0.8191926
0.9971703 0.9261822 0.8236217
0.9972933 0.9280277 0.8280507
0.9974164 0.9298731 0.8324798
0.9975394 0.9317186 0.8369089
0.9976624 0.9335640 0.8413379
0.9977855 0.9354095 0.8457670
0.9979085 0.9372549 0.8501961
0.9980315 0.9391003 0.8546251
0.9981546 0.9409458 0.8590542
0.9982776 0.9427912 0.8634833
0.9984006 0.9446367 0.8679123
0.9985236 0.9464821 0.8723414
0.9986467 0.9483276 0.8767705
0.9987697 0.9501730 0.8811995
0.9988927 0.9520185 0.8856286
0.9990158 0.9538639 0.8900577
0.9991388 0.9557093 0.8944867
0.9992618 0.9575548 0.8989158
0.9993849 0.9594002 0.9033449
0.9995079 0.9612457 0.9077739
0.9996309 0.9630911 0.9122030
0.9997539 0.9649366 0.9166321
0.9998770 0.9667820 0.9210611
1.0000000 0.9686275 0.9254902
