posts/Davinci-Resolve-thermal-luts/colormaps-as-cube/Paired_r.cube
TITLE "Colormap Paired_r"
LUT_1D_SIZE 256
0.6941176 0.3490196 0.1568627
0.6941176 0.3490196 0.1568627
0.6941176 0.3490196 0.1568627
0.6941176 0.3490196 0.1568627
0.6941176 0.3490196 0.1568627
0.6941176 0.3490196 0.1568627
0.6941176 0.3490196 0.1568627
0.6941176 0.3490196 0.1568627
0.6941176 0.3490196 0.1568627
0.6941176 0.3490196 0.1568627
0.6941176 0.3490196 0.1568627
0.6941176 0.3490196 0.1568627
0.6941176 0.3490196 0.1568627
0.6941176 0.3490196 0.1568627
0.6941176 0.3490196 0.1568627
0.6941176 0.3490196 0.1568627
0.6941176 0.3490196 0.1568627
0.6941176 0.3490196 0.1568627
0.6941176 0.3490196 0.1568627
0.6941176 0.3490196 0.1568627
0.6941176 0.3490196 0.1568627
0.6941176 0.3490196 0.1568627
1.0000000 1.0000000 0.6000000
1.0000000 1.0000000 0.6000000
1.0000000 1.0000000 0.6000000
1.0000000 1.0000000 0.6000000
1.0000000 1.0000000 0.6000000
1.0000000 1.0000000 0.6000000
1.0000000 1.0000000 0.6000000
1.0000000 1.0000000 0.6000000
1.0000000 1.0000000 0.6000000
1.0000000 1.0000000 0.6000000
1.0000000 1.0000000 0.6000000
1.0000000 1.0000000 0.6000000
1.0000000 1.0000000 0.6000000
1.0000000 1.0000000 0.6000000
1.0000000 1.0000000 0.6000000
1.0000000 1.0000000 0.6000000
1.0000000 1.0000000 0.6000000
1.0000000 1.0000000 0.6000000
1.0000000 1.0000000 0.6000000
1.0000000 1.0000000 0.6000000
1.0000000 1.0000000 0.6000000
0.4156863 0.2392157 0.6039216
0.4156863 0.2392157 0.6039216
0.4156863 0.2392157 0.6039216
0.4156863 0.2392157 0.6039216
0.4156863 0.2392157 0.6039216
0.4156863 0.2392157 0.6039216
0.4156863 0.2392157 0.6039216
0.4156863 0.2392157 0.6039216
0.4156863 0.2392157 0.6039216
0.4156863 0.2392157 0.6039216
0.4156863 0.2392157 0.6039216
0.4156863 0.2392157 0.6039216
0.4156863 0.2392157 0.6039216
0.4156863 0.2392157 0.6039216
0.4156863 0.2392157 0.6039216
0.4156863 0.2392157 0.6039216
0.4156863 0.2392157 0.6039216
0.4156863 0.2392157 0.6039216
0.4156863 0.2392157 0.6039216
0.4156863 0.2392157 0.6039216
0.4156863 0.2392157 0.6039216
0.7921569 0.6980392 0.8392157
0.7921569 0.6980392 0.8392157
0.7921569 0.6980392 0.8392157
0.7921569 0.6980392 0.8392157
0.7921569 0.6980392 0.8392157
0.7921569 0.6980392 0.8392157
0.7921569 0.6980392 0.8392157
0.7921569 0.6980392 0.8392157
0.7921569 0.6980392 0.8392157
0.7921569 0.6980392 0.8392157
0.7921569 0.6980392 0.8392157
0.7921569 0.6980392 0.8392157
0.7921569 0.6980392 0.8392157
0.7921569 0.6980392 0.8392157
0.7921569 0.6980392 0.8392157
0.7921569 0.6980392 0.8392157
0.7921569 0.6980392 0.8392157
0.7921569 0.6980392 0.8392157
0.7921569 0.6980392 0.8392157
0.7921569 0.6980392 0.8392157
0.7921569 0.6980392 0.8392157
1.0000000 0.4980392 0.0000000
1.0000000 0.4980392 0.0000000
1.0000000 0.4980392 0.0000000
1.0000000 0.4980392 0.0000000
1.0000000 0.4980392 0.0000000
1.0000000 0.4980392 0.0000000
1.0000000 0.4980392 0.0000000
1.0000000 0.4980392 0.0000000
1.0000000 0.4980392 0.0000000
1.0000000 0.4980392 0.0000000
1.0000000 0.4980392 0.0000000
1.0000000 0.4980392 0.0000000
1.0000000 0.4980392 0.0000000
1.0000000 0.4980392 0.0000000
1.0000000 0.4980392 0.0000000
1.0000000 0.4980392 0.0000000
1.0000000 0.4980392 0.0000000
1.0000000 0.4980392 0.0000000
1.0000000 0.4980392 0.0000000
1.0000000 0.4980392 0.0000000
1.0000000 0.4980392 0.0000000
1.0000000 0.4980392 0.0000000
0.9921569 0.7490196 0.4352941
0.9921569 0.7490196 0.4352941
0.9921569 0.7490196 0.4352941
0.9921569 0.7490196 0.4352941
0.9921569 0.7490196 0.4352941
0.9921569 0.7490196 0.4352941
0.9921569 0.7490196 0.4352941
0.9921569 0.7490196 0.4352941
0.9921569 0.7490196 0.4352941
0.9921569 0.7490196 0.4352941
0.9921569 0.7490196 0.4352941
0.9921569 0.7490196 0.4352941
0.9921569 0.7490196 0.4352941
0.9921569 0.7490196 0.4352941
0.9921569 0.7490196 0.4352941
0.9921569 0.7490196 0.4352941
0.9921569 0.7490196 0.4352941
0.9921569 0.7490196 0.4352941
0.9921569 0.7490196 0.4352941
0.9921569 0.7490196 0.4352941
0.9921569 0.7490196 0.4352941
0.8901961 0.1019608 0.1098039
0.8901961 0.1019608 0.1098039
0.8901961 0.1019608 0.1098039
0.8901961 0.1019608 0.1098039
0.8901961 0.1019608 0.1098039
0.8901961 0.1019608 0.1098039
0.8901961 0.1019608 0.1098039
0.8901961 0.1019608 0.1098039
0.8901961 0.1019608 0.1098039
0.8901961 0.1019608 0.1098039
0.8901961 0.1019608 0.1098039
0.8901961 0.1019608 0.1098039
0.8901961 0.1019608 0.1098039
0.8901961 0.1019608 0.1098039
0.8901961 0.1019608 0.1098039
0.8901961 0.1019608 0.1098039
0.8901961 0.1019608 0.1098039
0.8901961 0.1019608 0.1098039
0.8901961 0.1019608 0.1098039
0.8901961 0.1019608 0.1098039
0.8901961 0.1019608 0.1098039
0.9843137 0.6039216 0.6000000
0.9843137 0.6039216 0.6000000
0.9843137 0.6039216 0.6000000
0.9843137 0.6039216 0.6000000
0.9843137 0.6039216 0.6000000
0.9843137 0.6039216 0.6000000
0.9843137 0.6039216 0.6000000
0.9843137 0.6039216 0.6000000
0.9843137 0.6039216 0.6000000
0.9843137 0.6039216 0.6000000
0.9843137 0.6039216 0.6000000
0.9843137 0.6039216 0.6000000
0.9843137 0.6039216 0.6000000
0.9843137 0.6039216 0.6000000
0.9843137 0.6039216 0.6000000
0.9843137 0.6039216 0.6000000
0.9843137 0.6039216 0.6000000
0.9843137 0.6039216 0.6000000
0.9843137 0.6039216 0.6000000
0.9843137 0.6039216 0.6000000
0.9843137 0.6039216 0.6000000
0.2000000 0.6274510 0.1725490
0.2000000 0.6274510 0.1725490
0.2000000 0.6274510 0.1725490
0.2000000 0.6274510 0.1725490
0.2000000 0.6274510 0.1725490
0.2000000 0.6274510 0.1725490
0.2000000 0.6274510 0.1725490
0.2000000 0.6274510 0.1725490
0.2000000 0.6274510 0.1725490
0.2000000 0.6274510 0.1725490
0.2000000 0.6274510 0.1725490
0.2000000 0.6274510 0.1725490
0.2000000 0.6274510 0.1725490
0.2000000 0.6274510 0.1725490
0.2000000 0.6274510 0.1725490
0.2000000 0.6274510 0.1725490
0.2000000 0.6274510 0.1725490
0.2000000 0.6274510 0.1725490
0.2000000 0.6274510 0.1725490
0.2000000 0.6274510 0.1725490
0.2000000 0.6274510 0.1725490
0.2000000 0.6274510 0.1725490
0.6980392 0.8745098 0.5411765
0.6980392 0.8745098 0.5411765
0.6980392 0.8745098 0.5411765
0.6980392 0.8745098 0.5411765
0.6980392 0.8745098 0.5411765
0.6980392 0.8745098 0.5411765
0.6980392 0.8745098 0.5411765
0.6980392 0.8745098 0.5411765
0.6980392 0.8745098 0.5411765
0.6980392 0.8745098 0.5411765
0.6980392 0.8745098 0.5411765
0.6980392 0.8745098 0.5411765
0.6980392 0.8745098 0.5411765
0.6980392 0.8745098 0.5411765
0.6980392 0.8745098 0.5411765
0.6980392 0.8745098 0.5411765
0.6980392 0.8745098 0.5411765
0.6980392 0.8745098 0.5411765
0.6980392 0.8745098 0.5411765
0.6980392 0.8745098 0.5411765
0.6980392 0.8745098 0.5411765
0.1215686 0.4705882 0.7058824
0.1215686 0.4705882 0.7058824
0.1215686 0.4705882 0.7058824
0.1215686 0.4705882 0.7058824
0.1215686 0.4705882 0.7058824
0.1215686 0.4705882 0.7058824
0.1215686 0.4705882 0.7058824
0.1215686 0.4705882 0.7058824
0.1215686 0.4705882 0.7058824
0.1215686 0.4705882 0.7058824
0.1215686 0.4705882 0.7058824
0.1215686 0.4705882 0.7058824
0.1215686 0.4705882 0.7058824
0.1215686 0.4705882 0.7058824
0.1215686 0.4705882 0.7058824
0.1215686 0.4705882 0.7058824
0.1215686 0.4705882 0.7058824
0.1215686 0.4705882 0.7058824
0.1215686 0.4705882 0.7058824
0.1215686 0.4705882 0.7058824
0.1215686 0.4705882 0.7058824
0.6509804 0.8078431 0.8901961
0.6509804 0.8078431 0.8901961
0.6509804 0.8078431 0.8901961
0.6509804 0.8078431 0.8901961
0.6509804 0.8078431 0.8901961
0.6509804 0.8078431 0.8901961
0.6509804 0.8078431 0.8901961
0.6509804 0.8078431 0.8901961
0.6509804 0.8078431 0.8901961
0.6509804 0.8078431 0.8901961
0.6509804 0.8078431 0.8901961
0.6509804 0.8078431 0.8901961
0.6509804 0.8078431 0.8901961
0.6509804 0.8078431 0.8901961
0.6509804 0.8078431 0.8901961
0.6509804 0.8078431 0.8901961
0.6509804 0.8078431 0.8901961
0.6509804 0.8078431 0.8901961
0.6509804 0.8078431 0.8901961
0.6509804 0.8078431 0.8901961
0.6509804 0.8078431 0.8901961
0.6509804 0.8078431 0.8901961
