posts/Davinci-Resolve-thermal-luts/colormaps-as-cube/Pastel2_r.cube
TITLE "Colormap Pastel2_r"
LUT_1D_SIZE 256
0.8000000 0.8000000 0.8000000
0.8000000 0.8000000 0.8000000
0.8000000 0.8000000 0.8000000
0.8000000 0.8000000 0.8000000
0.8000000 0.8000000 0.8000000
0.8000000 0.8000000 0.8000000
0.8000000 0.8000000 0.8000000
0.8000000 0.8000000 0.8000000
0.8000000 0.8000000 0.8000000
0.8000000 0.8000000 0.8000000
0.8000000 0.8000000 0.8000000
0.8000000 0.8000000 0.8000000
0.8000000 0.8000000 0.8000000
0.8000000 0.8000000 0.8000000
0.8000000 0.8000000 0.8000000
0.8000000 0.8000000 0.8000000
0.8000000 0.8000000 0.8000000
0.8000000 0.8000000 0.8000000
0.8000000 0.8000000 0.8000000
0.8000000 0.8000000 0.8000000
0.8000000 0.8000000 0.8000000
0.8000000 0.8000000 0.8000000
0.8000000 0.8000000 0.8000000
0.8000000 0.8000000 0.8000000
0.8000000 0.8000000 0.8000000
0.8000000 0.8000000 0.8000000
0.8000000 0.8000000 0.8000000
0.8000000 0.8000000 0.8000000
0.8000000 0.8000000 0.8000000
0.8000000 0.8000000 0.8000000
0.8000000 0.8000000 0.8000000
0.8000000 0.8000000 0.8000000
0.9450980 0.8862745 0.8000000
0.9450980 0.8862745 0.8000000
0.9450980 0.8862745 0.8000000
0.9450980 0.8862745 0.8000000
0.9450980 0.8862745 0.8000000
0.9450980 0.8862745 0.8000000
0.9450980 0.8862745 0.8000000
0.9450980 0.8862745 0.8000000
0.9450980 0.8862745 0.8000000
0.9450980 0.8862745 0.8000000
0.9450980 0.8862745 0.8000000
0.9450980 0.8862745 0.8000000
0.9450980 0.8862745 0.8000000
0.9450980 0.8862745 0.8000000
0.9450980 0.8862745 0.8000000
0.9450980 0.8862745 0.8000000
0.9450980 0.8862745 0.8000000
0.9450980 0.8862745 0.8000000
0.9450980 0.8862745 0.8000000
0.9450980 0.8862745 0.8000000
0.9450980 0.8862745 0.8000000
0.9450980 0.8862745 0.8000000
0.9450980 0.8862745 0.8000000
0.9450980 0.8862745 0.8000000
0.9450980 0.8862745 0.8000000
0.9450980 0.8862745 0.8000000
0.9450980 0.8862745 0.8000000
0.9450980 0.8862745 0.8000000
0.9450980 0.8862745 0.8000000
0.9450980 0.8862745 0.8000000
0.9450980 0.8862745 0.8000000
0.9450980 0.8862745 0.8000000
1.0000000 0.9490196 0.6823529
1.0000000 0.9490196 0.6823529
1.0000000 0.9490196 0.6823529
1.0000000 0.9490196 0.6823529
1.0000000 0.9490196 0.6823529
1.0000000 0.9490196 0.6823529
1.0000000 0.9490196 0.6823529
1.0000000 0.9490196 0.6823529
1.0000000 0.9490196 0.6823529
1.0000000 0.9490196 0.6823529
1.0000000 0.9490196 0.6823529
1.0000000 0.9490196 0.6823529
1.0000000 0.9490196 0.6823529
1.0000000 0.9490196 0.6823529
1.0000000 0.9490196 0.6823529
1.0000000 0.9490196 0.6823529
1.0000000 0.9490196 0.6823529
1.0000000 0.9490196 0.6823529
1.0000000 0.9490196 0.6823529
1.0000000 0.9490196 0.6823529
1.0000000 0.9490196 0.6823529
1.0000000 0.9490196 0.6823529
1.0000000 0.9490196 0.6823529
1.0000000 0.9490196 0.6823529
1.0000000 0.9490196 0.6823529
1.0000000 0.9490196 0.6823529
1.0000000 0.9490196 0.6823529
1.0000000 0.9490196 0.6823529
1.0000000 0.9490196 0.6823529
1.0000000 0.9490196 0.6823529
1.0000000 0.9490196 0.6823529
1.0000000 0.9490196 0.6823529
0.9019608 0.9607843 0.7882353
0.9019608 0.9607843 0.7882353
0.9019608 0.9607843 0.7882353
0.9019608 0.9607843 0.7882353
0.9019608 0.9607843 0.7882353
0.9019608 0.9607843 0.7882353
0.9019608 0.9607843 0.7882353
0.9019608 0.9607843 0.7882353
0.9019608 0.9607843 0.7882353
0.9019608 0.9607843 0.7882353
0.9019608 0.9607843 0.7882353
0.9019608 0.9607843 0.7882353
0.9019608 0.9607843 0.7882353
0.9019608 0.9607843 0.7882353
0.9019608 0.9607843 0.7882353
0.9019608 0.9607843 0.7882353
0.9019608 0.9607843 0.7882353
0.9019608 0.9607843 0.7882353
0.9019608 0.9607843 0.7882353
0.9019608 0.9607843 0.7882353
0.9019608 0.9607843 0.7882353
0.9019608 0.9607843 0.7882353
0.9019608 0.9607843 0.7882353
0.9019608 0.9607843 0.7882353
0.9019608 0.9607843 0.7882353
0.9019608 0.9607843 0.7882353
0.9019608 0.9607843 0.7882353
0.9019608 0.9607843 0.7882353
0.9019608 0.9607843 0.7882353
0.9019608 0.9607843 0.7882353
0.9019608 0.9607843 0.7882353
0.9019608 0.9607843 0.7882353
0.9568627 0.7921569 0.8941176
0.9568627 0.7921569 0.8941176
0.9568627 0.7921569 0.8941176
0.9568627 0.7921569 0.8941176
0.9568627 0.7921569 0.8941176
0.9568627 0.7921569 0.8941176
0.9568627 0.7921569 0.8941176
0.9568627 0.7921569 0.8941176
0.9568627 0.7921569 0.8941176
0.9568627 0.7921569 0.8941176
0.9568627 0.7921569 0.8941176
0.9568627 0.7921569 0.8941176
0.9568627 0.7921569 0.8941176
0.9568627 0.7921569 0.8941176
0.9568627 0.7921569 0.8941176
0.9568627 0.7921569 0.8941176
0.9568627 0.7921569 0.8941176
0.9568627 0.7921569 0.8941176
0.9568627 0.7921569 0.8941176
0.9568627 0.7921569 0.8941176
0.9568627 0.7921569 0.8941176
0.9568627 0.7921569 0.8941176
0.9568627 0.7921569 0.8941176
0.9568627 0.7921569 0.8941176
0.9568627 0.7921569 0.8941176
0.9568627 0.7921569 0.8941176
0.9568627 0.7921569 0.8941176
0.9568627 0.7921569 0.8941176
0.9568627 0.7921569 0.8941176
0.9568627 0.7921569 0.8941176
0.9568627 0.7921569 0.8941176
0.9568627 0.7921569 0.8941176
0.7960784 0.8352941 0.9098039
0.7960784 0.8352941 0.9098039
0.7960784 0.8352941 0.9098039
0.7960784 0.8352941 0.9098039
0.7960784 0.8352941 0.9098039
0.7960784 0.8352941 0.9098039
0.7960784 0.8352941 0.9098039
0.7960784 0.8352941 0.9098039
0.7960784 0.8352941 0.9098039
0.7960784 0.8352941 0.9098039
0.7960784 0.8352941 0.9098039
0.7960784 0.8352941 0.9098039
0.7960784 0.8352941 0.9098039
0.7960784 0.8352941 0.9098039
0.7960784 0.8352941 0.9098039
0.7960784 0.8352941 0.9098039
0.7960784 0.8352941 0.9098039
0.7960784 0.8352941 0.9098039
0.7960784 0.8352941 0.9098039
0.7960784 0.8352941 0.9098039
0.7960784 0.8352941 0.9098039
0.7960784 0.8352941 0.9098039
0.7960784 0.8352941 0.9098039
0.7960784 0.8352941 0.9098039
0.7960784 0.8352941 0.9098039
0.7960784 0.8352941 0.9098039
0.7960784 0.8352941 0.9098039
0.7960784 0.8352941 0.9098039
0.7960784 0.8352941 0.9098039
0.7960784 0.8352941 0.9098039
0.7960784 0.8352941 0.9098039
0.7960784 0.8352941 0.9098039
0.9921569 0.8039216 0.6745098
0.9921569 0.8039216 0.6745098
0.9921569 0.8039216 0.6745098
0.9921569 0.8039216 0.6745098
0.9921569 0.8039216 0.6745098
0.9921569 0.8039216 0.6745098
0.9921569 0.8039216 0.6745098
0.9921569 0.8039216 0.6745098
0.9921569 0.8039216 0.6745098
0.9921569 0.8039216 0.6745098
0.9921569 0.8039216 0.6745098
0.9921569 0.8039216 0.6745098
0.9921569 0.8039216 0.6745098
0.9921569 0.8039216 0.6745098
0.9921569 0.8039216 0.6745098
0.9921569 0.8039216 0.6745098
0.9921569 0.8039216 0.6745098
0.9921569 0.8039216 0.6745098
0.9921569 0.8039216 0.6745098
0.9921569 0.8039216 0.6745098
0.9921569 0.8039216 0.6745098
0.9921569 0.8039216 0.6745098
0.9921569 0.8039216 0.6745098
0.9921569 0.8039216 0.6745098
0.9921569 0.8039216 0.6745098
0.9921569 0.8039216 0.6745098
0.9921569 0.8039216 0.6745098
0.9921569 0.8039216 0.6745098
0.9921569 0.8039216 0.6745098
0.9921569 0.8039216 0.6745098
0.9921569 0.8039216 0.6745098
0.9921569 0.8039216 0.6745098
0.7019608 0.8862745 0.8039216
0.7019608 0.8862745 0.8039216
0.7019608 0.8862745 0.8039216
0.7019608 0.8862745 0.8039216
0.7019608 0.8862745 0.8039216
0.7019608 0.8862745 0.8039216
0.7019608 0.8862745 0.8039216
0.7019608 0.8862745 0.8039216
0.7019608 0.8862745 0.8039216
0.7019608 0.8862745 0.8039216
0.7019608 0.8862745 0.8039216
0.7019608 0.8862745 0.8039216
0.7019608 0.8862745 0.8039216
0.7019608 0.8862745 0.8039216
0.7019608 0.8862745 0.8039216
0.7019608 0.8862745 0.8039216
0.7019608 0.8862745 0.8039216
0.7019608 0.8862745 0.8039216
0.7019608 0.8862745 0.8039216
0.7019608 0.8862745 0.8039216
0.7019608 0.8862745 0.8039216
0.7019608 0.8862745 0.8039216
0.7019608 0.8862745 0.8039216
0.7019608 0.8862745 0.8039216
0.7019608 0.8862745 0.8039216
0.7019608 0.8862745 0.8039216
0.7019608 0.8862745 0.8039216
0.7019608 0.8862745 0.8039216
0.7019608 0.8862745 0.8039216
0.7019608 0.8862745 0.8039216
0.7019608 0.8862745 0.8039216
0.7019608 0.8862745 0.8039216
