posts/Davinci-Resolve-thermal-luts/colormaps-as-cube/Pastel1.cube
TITLE "Colormap Pastel1"
LUT_1D_SIZE 256
0.9843137 0.7058824 0.6823529
0.9843137 0.7058824 0.6823529
0.9843137 0.7058824 0.6823529
0.9843137 0.7058824 0.6823529
0.9843137 0.7058824 0.6823529
0.9843137 0.7058824 0.6823529
0.9843137 0.7058824 0.6823529
0.9843137 0.7058824 0.6823529
0.9843137 0.7058824 0.6823529
0.9843137 0.7058824 0.6823529
0.9843137 0.7058824 0.6823529
0.9843137 0.7058824 0.6823529
0.9843137 0.7058824 0.6823529
0.9843137 0.7058824 0.6823529
0.9843137 0.7058824 0.6823529
0.9843137 0.7058824 0.6823529
0.9843137 0.7058824 0.6823529
0.9843137 0.7058824 0.6823529
0.9843137 0.7058824 0.6823529
0.9843137 0.7058824 0.6823529
0.9843137 0.7058824 0.6823529
0.9843137 0.7058824 0.6823529
0.9843137 0.7058824 0.6823529
0.9843137 0.7058824 0.6823529
0.9843137 0.7058824 0.6823529
0.9843137 0.7058824 0.6823529
0.9843137 0.7058824 0.6823529
0.9843137 0.7058824 0.6823529
0.9843137 0.7058824 0.6823529
0.7019608 0.8039216 0.8901961
0.7019608 0.8039216 0.8901961
0.7019608 0.8039216 0.8901961
0.7019608 0.8039216 0.8901961
0.7019608 0.8039216 0.8901961
0.7019608 0.8039216 0.8901961
0.7019608 0.8039216 0.8901961
0.7019608 0.8039216 0.8901961
0.7019608 0.8039216 0.8901961
0.7019608 0.8039216 0.8901961
0.7019608 0.8039216 0.8901961
0.7019608 0.8039216 0.8901961
0.7019608 0.8039216 0.8901961
0.7019608 0.8039216 0.8901961
0.7019608 0.8039216 0.8901961
0.7019608 0.8039216 0.8901961
0.7019608 0.8039216 0.8901961
0.7019608 0.8039216 0.8901961
0.7019608 0.8039216 0.8901961
0.7019608 0.8039216 0.8901961
0.7019608 0.8039216 0.8901961
0.7019608 0.8039216 0.8901961
0.7019608 0.8039216 0.8901961
0.7019608 0.8039216 0.8901961
0.7019608 0.8039216 0.8901961
0.7019608 0.8039216 0.8901961
0.7019608 0.8039216 0.8901961
0.7019608 0.8039216 0.8901961
0.8000000 0.9215686 0.7725490
0.8000000 0.9215686 0.7725490
0.8000000 0.9215686 0.7725490
0.8000000 0.9215686 0.7725490
0.8000000 0.9215686 0.7725490
0.8000000 0.9215686 0.7725490
0.8000000 0.9215686 0.7725490
0.8000000 0.9215686 0.7725490
0.8000000 0.9215686 0.7725490
0.8000000 0.9215686 0.7725490
0.8000000 0.9215686 0.7725490
0.8000000 0.9215686 0.7725490
0.8000000 0.9215686 0.7725490
0.8000000 0.9215686 0.7725490
0.8000000 0.9215686 0.7725490
0.8000000 0.9215686 0.7725490
0.8000000 0.9215686 0.7725490
0.8000000 0.9215686 0.7725490
0.8000000 0.9215686 0.7725490
0.8000000 0.9215686 0.7725490
0.8000000 0.9215686 0.7725490
0.8000000 0.9215686 0.7725490
0.8000000 0.9215686 0.7725490
0.8000000 0.9215686 0.7725490
0.8000000 0.9215686 0.7725490
0.8000000 0.9215686 0.7725490
0.8000000 0.9215686 0.7725490
0.8000000 0.9215686 0.7725490
0.8705882 0.7960784 0.8941176
0.8705882 0.7960784 0.8941176
0.8705882 0.7960784 0.8941176
0.8705882 0.7960784 0.8941176
0.8705882 0.7960784 0.8941176
0.8705882 0.7960784 0.8941176
0.8705882 0.7960784 0.8941176
0.8705882 0.7960784 0.8941176
0.8705882 0.7960784 0.8941176
0.8705882 0.7960784 0.8941176
0.8705882 0.7960784 0.8941176
0.8705882 0.7960784 0.8941176
0.8705882 0.7960784 0.8941176
0.8705882 0.7960784 0.8941176
0.8705882 0.7960784 0.8941176
0.8705882 0.7960784 0.8941176
0.8705882 0.7960784 0.8941176
0.8705882 0.7960784 0.8941176
0.8705882 0.7960784 0.8941176
0.8705882 0.7960784 0.8941176
0.8705882 0.7960784 0.8941176
0.8705882 0.7960784 0.8941176
0.8705882 0.7960784 0.8941176
0.8705882 0.7960784 0.8941176
0.8705882 0.7960784 0.8941176
0.8705882 0.7960784 0.8941176
0.8705882 0.7960784 0.8941176
0.8705882 0.7960784 0.8941176
0.8705882 0.7960784 0.8941176
0.9960784 0.8509804 0.6509804
0.9960784 0.8509804 0.6509804
0.9960784 0.8509804 0.6509804
0.9960784 0.8509804 0.6509804
0.9960784 0.8509804 0.6509804
0.9960784 0.8509804 0.6509804
0.9960784 0.8509804 0.6509804
0.9960784 0.8509804 0.6509804
0.9960784 0.8509804 0.6509804
0.9960784 0.8509804 0.6509804
0.9960784 0.8509804 0.6509804
0.9960784 0.8509804 0.6509804
0.9960784 0.8509804 0.6509804
0.9960784 0.8509804 0.6509804
0.9960784 0.8509804 0.6509804
0.9960784 0.8509804 0.6509804
0.9960784 0.8509804 0.6509804
0.9960784 0.8509804 0.6509804
0.9960784 0.8509804 0.6509804
0.9960784 0.8509804 0.6509804
0.9960784 0.8509804 0.6509804
0.9960784 0.8509804 0.6509804
0.9960784 0.8509804 0.6509804
0.9960784 0.8509804 0.6509804
0.9960784 0.8509804 0.6509804
0.9960784 0.8509804 0.6509804
0.9960784 0.8509804 0.6509804
0.9960784 0.8509804 0.6509804
1.0000000 1.0000000 0.8000000
1.0000000 1.0000000 0.8000000
1.0000000 1.0000000 0.8000000
1.0000000 1.0000000 0.8000000
1.0000000 1.0000000 0.8000000
1.0000000 1.0000000 0.8000000
1.0000000 1.0000000 0.8000000
1.0000000 1.0000000 0.8000000
1.0000000 1.0000000 0.8000000
1.0000000 1.0000000 0.8000000
1.0000000 1.0000000 0.8000000
1.0000000 1.0000000 0.8000000
1.0000000 1.0000000 0.8000000
1.0000000 1.0000000 0.8000000
1.0000000 1.0000000 0.8000000
1.0000000 1.0000000 0.8000000
1.0000000 1.0000000 0.8000000
1.0000000 1.0000000 0.8000000
1.0000000 1.0000000 0.8000000
1.0000000 1.0000000 0.8000000
1.0000000 1.0000000 0.8000000
1.0000000 1.0000000 0.8000000
1.0000000 1.0000000 0.8000000
1.0000000 1.0000000 0.8000000
1.0000000 1.0000000 0.8000000
1.0000000 1.0000000 0.8000000
1.0000000 1.0000000 0.8000000
1.0000000 1.0000000 0.8000000
0.8980392 0.8470588 0.7411765
0.8980392 0.8470588 0.7411765
0.8980392 0.8470588 0.7411765
0.8980392 0.8470588 0.7411765
0.8980392 0.8470588 0.7411765
0.8980392 0.8470588 0.7411765
0.8980392 0.8470588 0.7411765
0.8980392 0.8470588 0.7411765
0.8980392 0.8470588 0.7411765
0.8980392 0.8470588 0.7411765
0.8980392 0.8470588 0.7411765
0.8980392 0.8470588 0.7411765
0.8980392 0.8470588 0.7411765
0.8980392 0.8470588 0.7411765
0.8980392 0.8470588 0.7411765
0.8980392 0.8470588 0.7411765
0.8980392 0.8470588 0.7411765
0.8980392 0.8470588 0.7411765
0.8980392 0.8470588 0.7411765
0.8980392 0.8470588 0.7411765
0.8980392 0.8470588 0.7411765
0.8980392 0.8470588 0.7411765
0.8980392 0.8470588 0.7411765
0.8980392 0.8470588 0.7411765
0.8980392 0.8470588 0.7411765
0.8980392 0.8470588 0.7411765
0.8980392 0.8470588 0.7411765
0.8980392 0.8470588 0.7411765
0.8980392 0.8470588 0.7411765
0.9921569 0.8549020 0.9254902
0.9921569 0.8549020 0.9254902
0.9921569 0.8549020 0.9254902
0.9921569 0.8549020 0.9254902
0.9921569 0.8549020 0.9254902
0.9921569 0.8549020 0.9254902
0.9921569 0.8549020 0.9254902
0.9921569 0.8549020 0.9254902
0.9921569 0.8549020 0.9254902
0.9921569 0.8549020 0.9254902
0.9921569 0.8549020 0.9254902
0.9921569 0.8549020 0.9254902
0.9921569 0.8549020 0.9254902
0.9921569 0.8549020 0.9254902
0.9921569 0.8549020 0.9254902
0.9921569 0.8549020 0.9254902
0.9921569 0.8549020 0.9254902
0.9921569 0.8549020 0.9254902
0.9921569 0.8549020 0.9254902
0.9921569 0.8549020 0.9254902
0.9921569 0.8549020 0.9254902
0.9921569 0.8549020 0.9254902
0.9921569 0.8549020 0.9254902
0.9921569 0.8549020 0.9254902
0.9921569 0.8549020 0.9254902
0.9921569 0.8549020 0.9254902
0.9921569 0.8549020 0.9254902
0.9921569 0.8549020 0.9254902
0.9490196 0.9490196 0.9490196
0.9490196 0.9490196 0.9490196
0.9490196 0.9490196 0.9490196
0.9490196 0.9490196 0.9490196
0.9490196 0.9490196 0.9490196
0.9490196 0.9490196 0.9490196
0.9490196 0.9490196 0.9490196
0.9490196 0.9490196 0.9490196
0.9490196 0.9490196 0.9490196
0.9490196 0.9490196 0.9490196
0.9490196 0.9490196 0.9490196
0.9490196 0.9490196 0.9490196
0.9490196 0.9490196 0.9490196
0.9490196 0.9490196 0.9490196
0.9490196 0.9490196 0.9490196
0.9490196 0.9490196 0.9490196
0.9490196 0.9490196 0.9490196
0.9490196 0.9490196 0.9490196
0.9490196 0.9490196 0.9490196
0.9490196 0.9490196 0.9490196
0.9490196 0.9490196 0.9490196
0.9490196 0.9490196 0.9490196
0.9490196 0.9490196 0.9490196
0.9490196 0.9490196 0.9490196
0.9490196 0.9490196 0.9490196
0.9490196 0.9490196 0.9490196
0.9490196 0.9490196 0.9490196
0.9490196 0.9490196 0.9490196
0.9490196 0.9490196 0.9490196
