posts/Davinci-Resolve-thermal-luts/colormaps-as-cube/pink_r.cube
TITLE "Colormap pink_r"
LUT_1D_SIZE 256
1.0000000 1.0000000 1.0000000
0.9986894 0.9986894 0.9960883
0.9973787 0.9973787 0.9921766
0.9960681 0.9960681 0.9882649
0.9947574 0.9947574 0.9843533
0.9934399 0.9934399 0.9803806
0.9921221 0.9921221 0.9764050
0.9908043 0.9908043 0.9724293
0.9894865 0.9894865 0.9684536
0.9881624 0.9881624 0.9644171
0.9868377 0.9868377 0.9603743
0.9855130 0.9855130 0.9563314
0.9841882 0.9841882 0.9522885
0.9828571 0.9828571 0.9481851
0.9815250 0.9815250 0.9440715
0.9801929 0.9801929 0.9399580
0.9788607 0.9788607 0.9358445
0.9775226 0.9775226 0.9316705
0.9761830 0.9761830 0.9274824
0.9748435 0.9748435 0.9232942
0.9735039 0.9735039 0.9191061
0.9721587 0.9721587 0.9148577
0.9708117 0.9708117 0.9105905
0.9694648 0.9694648 0.9063233
0.9681178 0.9681178 0.9020561
0.9667654 0.9667654 0.8977296
0.9654108 0.9654108 0.8933794
0.9640561 0.9640561 0.8890292
0.9627015 0.9627015 0.8846789
0.9613418 0.9613418 0.8802694
0.9599795 0.9599795 0.8758303
0.9586172 0.9586172 0.8713911
0.9572549 0.9572549 0.8669520
0.9558877 0.9558877 0.8624547
0.9545176 0.9545176 0.8579216
0.9531474 0.9531474 0.8533886
0.9517772 0.9517772 0.8488556
0.9504023 0.9504023 0.8442652
0.9490240 0.9490240 0.8396319
0.9476456 0.9476456 0.8349985
0.9462673 0.9462673 0.8303652
0.9448847 0.9448847 0.8256754
0.9434982 0.9434982 0.8209343
0.9421117 0.9421117 0.8161933
0.9407252 0.9407252 0.8114522
0.9393347 0.9393347 0.8066564
0.9379398 0.9379398 0.8018005
0.9365449 0.9365449 0.7969445
0.9351500 0.9351500 0.7920886
0.9337515 0.9337515 0.7871794
0.9323482 0.9323482 0.7821992
0.9309449 0.9309449 0.7772189
0.9295416 0.9295416 0.7722387
0.9281350 0.9281350 0.7672074
0.9267231 0.9267231 0.7620930
0.9253112 0.9253112 0.7569787
0.9238992 0.9238992 0.7518643
0.9224844 0.9224844 0.7467015
0.9210638 0.9210638 0.7414418
0.9196432 0.9196432 0.7361822
0.9182226 0.9182226 0.7309226
0.9167994 0.9167994 0.7256175
0.9153697 0.9153697 0.7201990
0.9139400 0.9139400 0.7147805
0.9125102 0.9125102 0.7093620
0.9110783 0.9106252 0.7047902
0.9096394 0.9072837 0.7029266
0.9082006 0.9039422 0.7010630
0.9067617 0.9006008 0.6991995
0.9053210 0.8972496 0.6973320
0.9038728 0.8938569 0.6954482
0.9024245 0.8904643 0.6935644
0.9009763 0.8870717 0.6916806
0.8995267 0.8836715 0.6897937
0.8980690 0.8802255 0.6878886
0.8966114 0.8767795 0.6859836
0.8951537 0.8733335 0.6840785
0.8936951 0.8698822 0.6821713
0.8922279 0.8663799 0.6802445
0.8907606 0.8628776 0.6783177
0.8892933 0.8593752 0.6763909
0.8878255 0.8558701 0.6744630
0.8863484 0.8523088 0.6725140
0.8848712 0.8487474 0.6705649
0.8833940 0.8451861 0.6686159
0.8819169 0.8416247 0.6666668
0.8804296 0.8380016 0.6646941
0.8789423 0.8343784 0.6627213
0.8774550 0.8307553 0.6607485
0.8759677 0.8271322 0.6587758
0.8744705 0.8234465 0.6567802
0.8729728 0.8197577 0.6547834
0.8714752 0.8160688 0.6527867
0.8699775 0.8123800 0.6507900
0.8684704 0.8086288 0.6487704
0.8669624 0.8048710 0.6467485
0.8654543 0.8011132 0.6447266
0.8639463 0.7973555 0.6427047
0.8624291 0.7935350 0.6406603
0.8609105 0.7897041 0.6386122
0.8593918 0.7858732 0.6365640
0.8578731 0.7820423 0.6345159
0.8563454 0.7781486 0.6324460
0.8548157 0.7742401 0.6303709
0.8532859 0.7703317 0.6282959
0.8517561 0.7664232 0.6262208
0.8502176 0.7624516 0.6241241
0.8486765 0.7584604 0.6220207
0.8471353 0.7544692 0.6199172
0.8455942 0.7504779 0.6178138
0.8440449 0.7464240 0.6156895
0.8424924 0.7423451 0.6135569
0.8409398 0.7382661 0.6114242
0.8393873 0.7341872 0.6092916
0.8378271 0.7300455 0.6071384
0.8362629 0.7258724 0.6049749
0.8346988 0.7216993 0.6028114
0.8331347 0.7175263 0.6006479
0.8315632 0.7132908 0.5984646
0.8299872 0.7090169 0.5962689
0.8284112 0.7047430 0.5940733
0.8268352 0.7004691 0.5918777
0.8252520 0.6961333 0.5896629
0.8236635 0.6917509 0.5874337
0.8220749 0.6873686 0.5852045
0.8204863 0.6829863 0.5829753
0.8188913 0.6785426 0.5807279
0.8172904 0.6740432 0.5784640
0.8156896 0.6695438 0.5762000
0.8140887 0.6650444 0.5739361
0.8124817 0.6604842 0.5716545
0.8108679 0.6558570 0.5693534
0.8092542 0.6512298 0.5670523
0.8076404 0.6466027 0.5647512
0.8060209 0.6419162 0.5624336
0.8043937 0.6371507 0.5600939
0.8027666 0.6323852 0.5577543
0.8011395 0.6276196 0.5554146
0.7995073 0.6227963 0.5530595
0.7978668 0.6178788 0.5506790
0.7962263 0.6129613 0.5482986
0.7945858 0.6080439 0.5459182
0.7929408 0.6030706 0.5435235
0.7912864 0.5979856 0.5411001
0.7896321 0.5929006 0.5386767
0.7879778 0.5878157 0.5362533
0.7863194 0.5826776 0.5338170
0.7846508 0.5774069 0.5313487
0.7829822 0.5721361 0.5288803
0.7813135 0.5668654 0.5264119
0.7796414 0.5615452 0.5239320
0.7779582 0.5560666 0.5214152
0.7762750 0.5505881 0.5188984
0.7745918 0.5451096 0.5163817
0.7729057 0.5395863 0.5138553
0.7712077 0.5338731 0.5112881
0.7695097 0.5281599 0.5087209
0.7678116 0.5224466 0.5061537
0.7661114 0.5166952 0.5035787
0.7643980 0.5107147 0.5009572
0.7626847 0.5047341 0.4983357
0.7609713 0.4987535 0.4957141
0.7590382 0.4930871 0.4930871
0.7550143 0.4904080 0.4904080
0.7509904 0.4877289 0.4877289
0.7469666 0.4850498 0.4850498
0.7429385 0.4823677 0.4823677
0.7388247 0.4796271 0.4796271
0.7347109 0.4768865 0.4768865
0.7305971 0.4741459 0.4741459
0.7264833 0.4714052 0.4714052
0.7222730 0.4685984 0.4685984
0.7180626 0.4657916 0.4657916
0.7138522 0.4629847 0.4629847
0.7096418 0.4601779 0.4601779
0.7053329 0.4573033 0.4573033
0.7010190 0.4544253 0.4544253
0.6967051 0.4515473 0.4515473
0.6923912 0.4486693 0.4486693
0.6879760 0.4457220 0.4457220
0.6835502 0.4427675 0.4427675
0.6791244 0.4398129 0.4398129
0.6746986 0.4368583 0.4368583
0.6701692 0.4338321 0.4338321
0.6656226 0.4307941 0.4307941
0.6610760 0.4277560 0.4277560
0.6565293 0.4247179 0.4247179
0.6518765 0.4216066 0.4216066
0.6471987 0.4184781 0.4184781
0.6425209 0.4153496 0.4153496
0.6378431 0.4122211 0.4122211
0.6330557 0.4090167 0.4090167
0.6282341 0.4057887 0.4057887
0.6234125 0.4025606 0.4025606
0.6185909 0.3993325 0.3993325
0.6136571 0.3960261 0.3960261
0.6086783 0.3926883 0.3926883
0.6036996 0.3893505 0.3893505
0.5987209 0.3860128 0.3860128
0.5936260 0.3825941 0.3825941
0.5884731 0.3791351 0.3791351
0.5833202 0.3756760 0.3756760
0.5781673 0.3722169 0.3722169
0.5728945 0.3686737 0.3686737
0.5675479 0.3650788 0.3650788
0.5622013 0.3614838 0.3614838
0.5568547 0.3578889 0.3578889
0.5513838 0.3542065 0.3542065
0.5458198 0.3504586 0.3504586
0.5402558 0.3467108 0.3467108
0.5346918 0.3429629 0.3429629
0.5289989 0.3391234 0.3391234
0.5231888 0.3352006 0.3352006
0.5173787 0.3312778 0.3312778
0.5115686 0.3273550 0.3273550
0.5056243 0.3233363 0.3233363
0.4995323 0.3192121 0.3192121
0.4934403 0.3150880 0.3150880
0.4873484 0.3109638 0.3109638
0.4811159 0.3067383 0.3067383
0.4746960 0.3023777 0.3023777
0.4682762 0.2980171 0.2980171
0.4618564 0.2936566 0.2936566
0.4552892 0.2891886 0.2891886
0.4484825 0.2845461 0.2845461
0.4416757 0.2799036 0.2799036
0.4348690 0.2752611 0.2752611
0.4279068 0.2705034 0.2705034
0.4206336 0.2655153 0.2655153
0.4133605 0.2605272 0.2605272
0.4060873 0.2555391 0.2555391
0.3986489 0.2504264 0.2504264
0.3907974 0.2450025 0.2450025
0.3829458 0.2395786 0.2395786
0.3750943 0.2341546 0.2341546
0.3670658 0.2285936 0.2285936
0.3584711 0.2225941 0.2225941
0.3498764 0.2165945 0.2165945
0.3412817 0.2105949 0.2105949
0.3324956 0.2044410 0.2044410
0.3228959 0.1976310 0.1976310
0.3132962 0.1908211 0.1908211
0.3036965 0.1840112 0.1840112
0.2938867 0.1770202 0.1770202
0.2828167 0.1689426 0.1689426
0.2717468 0.1608650 0.1608650
0.2606768 0.1527874 0.1527874
0.2493716 0.1444765 0.1444765
0.2358318 0.1339493 0.1339493
0.2222920 0.1234221 0.1234221
0.2087521 0.1128949 0.1128949
0.1949388 0.1016589 0.1016589
0.1756541 0.0762442 0.0762442
0.1563694 0.0508294 0.0508294
0.1370847 0.0254147 0.0254147
0.1178000 0.0000000 0.0000000
