posts/Davinci-Resolve-thermal-luts/colormaps-as-cube/PiYG.cube
TITLE "Colormap PiYG"
LUT_1D_SIZE 256
0.5568627 0.0039216 0.3215686
0.5653210 0.0079200 0.3281815
0.5737793 0.0119185 0.3347943
0.5822376 0.0159170 0.3414072
0.5906959 0.0199154 0.3480200
0.5991542 0.0239139 0.3546328
0.6076125 0.0279123 0.3612457
0.6160707 0.0319108 0.3678585
0.6245290 0.0359093 0.3744714
0.6329873 0.0399077 0.3810842
0.6414456 0.0439062 0.3876970
0.6499039 0.0479047 0.3943099
0.6583622 0.0519031 0.4009227
0.6668205 0.0559016 0.4075356
0.6752787 0.0599000 0.4141484
0.6837370 0.0638985 0.4207612
0.6921953 0.0678970 0.4273741
0.7006536 0.0718954 0.4339869
0.7091119 0.0758939 0.4405998
0.7175702 0.0798923 0.4472126
0.7260285 0.0838908 0.4538255
0.7344867 0.0878893 0.4604383
0.7429450 0.0918877 0.4670511
0.7514033 0.0958862 0.4736640
0.7598616 0.0998847 0.4802768
0.7683199 0.1038831 0.4868897
0.7744714 0.1129566 0.4939639
0.7783160 0.1271050 0.5014994
0.7821607 0.1412534 0.5090350
0.7860054 0.1554018 0.5165705
0.7898501 0.1695502 0.5241061
0.7936947 0.1836986 0.5316417
0.7975394 0.1978470 0.5391772
0.8013841 0.2119954 0.5467128
0.8052288 0.2261438 0.5542484
0.8090734 0.2402922 0.5617839
0.8129181 0.2544406 0.5693195
0.8167628 0.2685890 0.5768551
0.8206075 0.2827374 0.5843906
0.8244521 0.2968858 0.5919262
0.8282968 0.3110342 0.5994617
0.8321415 0.3251826 0.6069973
0.8359862 0.3393310 0.6145329
0.8398308 0.3534794 0.6220684
0.8436755 0.3676278 0.6296040
0.8475202 0.3817762 0.6371396
0.8513649 0.3959246 0.6446751
0.8552095 0.4100730 0.6522107
0.8590542 0.4242215 0.6597463
0.8628989 0.4383699 0.6672818
0.8667436 0.4525183 0.6748174
0.8705882 0.4666667 0.6823529
0.8735102 0.4763552 0.6891196
0.8764321 0.4860438 0.6958862
0.8793541 0.4957324 0.7026528
0.8822760 0.5054210 0.7094195
0.8851980 0.5151096 0.7161861
0.8881200 0.5247982 0.7229527
0.8910419 0.5344867 0.7297193
0.8939639 0.5441753 0.7364860
0.8968858 0.5538639 0.7432526
0.8998078 0.5635525 0.7500192
0.9027297 0.5732411 0.7567859
0.9056517 0.5829296 0.7635525
0.9085736 0.5926182 0.7703191
0.9114956 0.6023068 0.7770857
0.9144175 0.6119954 0.7838524
0.9173395 0.6216840 0.7906190
0.9202614 0.6313725 0.7973856
0.9231834 0.6410611 0.8041522
0.9261053 0.6507497 0.8109189
0.9290273 0.6604383 0.8176855
0.9319493 0.6701269 0.8244521
0.9348712 0.6798155 0.8312188
0.9377932 0.6895040 0.8379854
0.9407151 0.6991926 0.8447520
0.9436371 0.7088812 0.8515186
0.9460208 0.7169550 0.8565167
0.9478662 0.7234141 0.8597463
0.9497116 0.7298731 0.8629758
0.9515571 0.7363322 0.8662053
0.9534025 0.7427912 0.8694348
0.9552480 0.7492503 0.8726644
0.9570934 0.7557093 0.8758939
0.9589389 0.7621684 0.8791234
0.9607843 0.7686275 0.8823529
0.9626298 0.7750865 0.8855825
0.9644752 0.7815456 0.8888120
0.9663206 0.7880046 0.8920415
0.9681661 0.7944637 0.8952710
0.9700115 0.8009227 0.8985006
0.9718570 0.8073818 0.9017301
0.9737024 0.8138408 0.9049596
0.9755479 0.8202999 0.9081892
0.9773933 0.8267589 0.9114187
0.9792388 0.8332180 0.9146482
0.9810842 0.8396770 0.9178777
0.9829296 0.8461361 0.9211073
0.9847751 0.8525952 0.9243368
0.9866205 0.8590542 0.9275663
0.9884660 0.8655133 0.9307958
0.9903114 0.8719723 0.9340254
0.9921569 0.8784314 0.9372549
0.9912341 0.8819685 0.9384852
0.9903114 0.8855056 0.9397155
0.9893887 0.8890427 0.9409458
0.9884660 0.8925798 0.9421761
0.9875433 0.8961169 0.9434064
0.9866205 0.8996540 0.9446367
0.9856978 0.9031911 0.9458670
0.9847751 0.9067282 0.9470973
0.9838524 0.9102653 0.9483276
0.9829296 0.9138024 0.9495579
0.9820069 0.9173395 0.9507882
0.9810842 0.9208766 0.9520185
0.9801615 0.9244137 0.9532488
0.9792388 0.9279508 0.9544790
0.9783160 0.9314879 0.9557093
0.9773933 0.9350250 0.9569396
0.9764706 0.9385621 0.9581699
0.9755479 0.9420992 0.9594002
0.9746251 0.9456363 0.9606305
0.9737024 0.9491734 0.9618608
0.9727797 0.9527105 0.9630911
0.9718570 0.9562476 0.9643214
0.9709343 0.9597847 0.9655517
0.9700115 0.9633218 0.9667820
0.9690888 0.9668589 0.9680123
0.9673203 0.9684737 0.9656286
0.9647059 0.9681661 0.9596309
0.9620915 0.9678585 0.9536332
0.9594771 0.9675509 0.9476355
0.9568627 0.9672434 0.9416378
0.9542484 0.9669358 0.9356401
0.9516340 0.9666282 0.9296424
0.9490196 0.9663206 0.9236448
0.9464052 0.9660131 0.9176471
0.9437908 0.9657055 0.9116494
0.9411765 0.9653979 0.9056517
0.9385621 0.9650903 0.8996540
0.9359477 0.9647828 0.8936563
0.9333333 0.9644752 0.8876586
0.9307190 0.9641676 0.8816609
0.9281046 0.9638601 0.8756632
0.9254902 0.9635525 0.8696655
0.9228758 0.9632449 0.8636678
0.9202614 0.9629373 0.8576701
0.9176471 0.9626298 0.8516724
0.9150327 0.9623222 0.8456747
0.9124183 0.9620146 0.8396770
0.9098039 0.9617070 0.8336794
0.9071895 0.9613995 0.8276817
0.9045752 0.9610919 0.8216840
0.9019608 0.9607843 0.8156863
0.8948866 0.9577086 0.8043060
0.8878124 0.9546328 0.7929258
0.8807382 0.9515571 0.7815456
0.8736640 0.9484814 0.7701653
0.8665898 0.9454056 0.7587851
0.8595156 0.9423299 0.7474048
0.8524414 0.9392541 0.7360246
0.8453672 0.9361784 0.7246444
0.8382930 0.9331027 0.7132641
0.8312188 0.9300269 0.7018839
0.8241446 0.9269512 0.6905037
0.8170704 0.9238754 0.6791234
0.8099962 0.9207997 0.6677432
0.8029220 0.9177240 0.6563629
0.7958478 0.9146482 0.6449827
0.7887735 0.9115725 0.6336025
0.7816993 0.9084967 0.6222222
0.7746251 0.9054210 0.6108420
0.7675509 0.9023453 0.5994617
0.7604767 0.8992695 0.5880815
0.7534025 0.8961938 0.5767013
0.7463283 0.8931180 0.5653210
0.7392541 0.8900423 0.5539408
0.7321799 0.8869666 0.5425606
0.7251057 0.8838908 0.5311803
0.7171857 0.8795079 0.5201845
0.7084198 0.8738178 0.5095732
0.6996540 0.8681276 0.4989619
0.6908881 0.8624375 0.4883506
0.6821223 0.8567474 0.4777393
0.6733564 0.8510573 0.4671280
0.6645905 0.8453672 0.4565167
0.6558247 0.8396770 0.4459054
0.6470588 0.8339869 0.4352941
0.6382930 0.8282968 0.4246828
0.6295271 0.8226067 0.4140715
0.6207612 0.8169166 0.4034602
0.6119954 0.8112265 0.3928489
0.6032295 0.8055363 0.3822376
0.5944637 0.7998462 0.3716263
0.5856978 0.7941561 0.3610150
0.5769319 0.7884660 0.3504037
0.5681661 0.7827759 0.3397924
0.5594002 0.7770857 0.3291811
0.5506344 0.7713956 0.3185698
0.5418685 0.7657055 0.3079585
0.5331027 0.7600154 0.2973472
0.5243368 0.7543253 0.2867359
0.5155709 0.7486351 0.2761246
0.5068051 0.7429450 0.2655133
0.4980392 0.7372549 0.2549020
0.4903499 0.7307958 0.2499808
0.4826605 0.7243368 0.2450596
0.4749712 0.7178777 0.2401384
0.4672818 0.7114187 0.2352172
0.4595925 0.7049596 0.2302960
0.4519031 0.6985006 0.2253749
0.4442138 0.6920415 0.2204537
0.4365244 0.6855825 0.2155325
0.4288351 0.6791234 0.2106113
0.4211457 0.6726644 0.2056901
0.4134564 0.6662053 0.2007689
0.4057670 0.6597463 0.1958478
0.3980777 0.6532872 0.1909266
0.3903883 0.6468281 0.1860054
0.3826990 0.6403691 0.1810842
0.3750096 0.6339100 0.1761630
0.3673203 0.6274510 0.1712418
0.3596309 0.6209919 0.1663206
0.3519416 0.6145329 0.1613995
0.3442522 0.6080738 0.1564783
0.3365629 0.6016148 0.1515571
0.3288735 0.5951557 0.1466359
0.3211842 0.5886967 0.1417147
0.3134948 0.5822376 0.1367935
0.3058055 0.5757785 0.1318724
0.2990388 0.5690119 0.1287966
0.2931949 0.5619377 0.1275663
0.2873510 0.5548635 0.1263360
0.2815071 0.5477893 0.1251057
0.2756632 0.5407151 0.1238754
0.2698193 0.5336409 0.1226451
0.2639754 0.5265667 0.1214148
0.2581315 0.5194925 0.1201845
0.2522876 0.5124183 0.1189542
0.2464437 0.5053441 0.1177240
0.2405998 0.4982699 0.1164937
0.2347559 0.4911957 0.1152634
0.2289120 0.4841215 0.1140331
0.2230681 0.4770473 0.1128028
0.2172241 0.4699731 0.1115725
0.2113802 0.4628989 0.1103422
0.2055363 0.4558247 0.1091119
0.1996924 0.4487505 0.1078816
0.1938485 0.4416763 0.1066513
0.1880046 0.4346021 0.1054210
0.1821607 0.4275279 0.1041907
0.1763168 0.4204537 0.1029604
0.1704729 0.4133795 0.1017301
0.1646290 0.4063053 0.1004998
0.1587851 0.3992311 0.0992695
0.1529412 0.3921569 0.0980392
