posts/Davinci-Resolve-thermal-luts/colormaps-as-cube/plasma.cube
TITLE "Colormap plasma"
LUT_1D_SIZE 256
0.0503830 0.0298030 0.5279750
0.0635360 0.0284260 0.5331240
0.0753530 0.0272060 0.5380070
0.0862220 0.0261250 0.5426580
0.0963790 0.0251650 0.5471030
0.1059800 0.0243090 0.5513680
0.1151240 0.0235560 0.5554680
0.1239030 0.0228780 0.5594230
0.1323810 0.0222580 0.5632500
0.1406030 0.0216870 0.5669590
0.1486070 0.0211540 0.5705620
0.1564210 0.0206510 0.5740650
0.1640700 0.0201710 0.5774780
0.1715740 0.0197060 0.5808060
0.1789500 0.0192520 0.5840540
0.1862130 0.0188030 0.5872280
0.1933740 0.0183540 0.5903300
0.2004450 0.0179020 0.5933640
0.2074350 0.0174420 0.5963330
0.2143500 0.0169730 0.5992390
0.2211970 0.0164970 0.6020830
0.2279830 0.0160070 0.6048670
0.2347150 0.0155020 0.6075920
0.2413960 0.0149790 0.6102590
0.2480320 0.0144390 0.6128680
0.2546270 0.0138820 0.6154190
0.2611830 0.0133080 0.6179110
0.2677030 0.0127160 0.6203460
0.2741910 0.0121090 0.6227220
0.2806480 0.0114880 0.6250380
0.2870760 0.0108550 0.6272950
0.2934780 0.0102130 0.6294900
0.2998550 0.0095610 0.6316240
0.3062100 0.0089020 0.6336940
0.3125430 0.0082390 0.6357000
0.3188560 0.0075760 0.6376400
0.3251500 0.0069150 0.6395120
0.3314260 0.0062610 0.6413160
0.3376830 0.0056180 0.6430490
0.3439250 0.0049910 0.6447100
0.3501500 0.0043820 0.6462980
0.3563590 0.0037980 0.6478100
0.3625530 0.0032430 0.6492450
0.3687330 0.0027240 0.6506010
0.3748970 0.0022450 0.6518760
0.3810470 0.0018140 0.6530680
0.3871830 0.0014340 0.6541770
0.3933040 0.0011140 0.6551990
0.3994110 0.0008590 0.6561330
0.4055030 0.0006780 0.6569770
0.4115800 0.0005770 0.6577300
0.4176420 0.0005640 0.6583900
0.4236890 0.0006460 0.6589560
0.4297190 0.0008310 0.6594250
0.4357340 0.0011270 0.6597970
0.4417320 0.0015400 0.6600690
0.4477140 0.0020800 0.6602400
0.4536770 0.0027550 0.6603100
0.4596230 0.0035740 0.6602770
0.4655500 0.0045450 0.6601390
0.4714570 0.0056780 0.6598970
0.4773440 0.0069800 0.6595490
0.4832100 0.0084600 0.6590950
0.4890550 0.0101270 0.6585340
0.4948770 0.0119900 0.6578650
0.5006780 0.0140550 0.6570880
0.5064540 0.0163330 0.6562020
0.5122060 0.0188330 0.6552090
0.5179330 0.0215630 0.6541090
0.5236330 0.0245320 0.6529010
0.5293060 0.0277470 0.6515860
0.5349520 0.0312170 0.6501650
0.5405700 0.0349500 0.6486400
0.5461570 0.0389540 0.6470100
0.5517150 0.0431360 0.6452770
0.5572430 0.0473310 0.6434430
0.5627380 0.0515450 0.6415090
0.5682010 0.0557780 0.6394770
0.5736320 0.0600280 0.6373490
0.5790290 0.0642960 0.6351260
0.5843910 0.0685790 0.6328120
0.5897190 0.0728780 0.6304080
0.5950110 0.0771900 0.6279170
0.6002660 0.0815160 0.6253420
0.6054850 0.0858540 0.6226860
0.6106670 0.0902040 0.6199510
0.6158120 0.0945640 0.6171400
0.6209190 0.0989340 0.6142570
0.6259870 0.1033120 0.6113050
0.6310170 0.1076990 0.6082870
0.6360080 0.1120920 0.6052050
0.6409590 0.1164920 0.6020650
0.6458720 0.1208980 0.5988670
0.6507460 0.1253090 0.5956170
0.6555800 0.1297250 0.5923170
0.6603740 0.1341440 0.5889710
0.6651290 0.1385660 0.5855820
0.6698450 0.1429920 0.5821540
0.6745220 0.1474190 0.5786880
0.6791600 0.1518480 0.5751890
0.6837580 0.1562780 0.5716600
0.6883180 0.1607090 0.5681030
0.6928400 0.1651410 0.5645220
0.6973240 0.1695730 0.5609190
0.7017690 0.1740050 0.5572960
0.7061780 0.1784370 0.5536570
0.7105490 0.1828680 0.5500040
0.7148830 0.1872990 0.5463380
0.7191810 0.1917290 0.5426630
0.7234440 0.1961580 0.5389810
0.7276700 0.2005860 0.5352930
0.7318620 0.2050130 0.5316010
0.7360190 0.2094390 0.5279080
0.7401430 0.2138640 0.5242160
0.7442320 0.2182880 0.5205240
0.7482890 0.2227110 0.5168340
0.7523120 0.2271330 0.5131490
0.7563040 0.2315550 0.5094680
0.7602640 0.2359760 0.5057940
0.7641930 0.2403960 0.5021260
0.7680900 0.2448170 0.4984650
0.7719580 0.2492370 0.4948130
0.7757960 0.2536580 0.4911710
0.7796040 0.2580780 0.4875390
0.7833830 0.2625000 0.4839180
0.7871330 0.2669220 0.4803070
0.7908550 0.2713450 0.4767060
0.7945490 0.2757700 0.4731170
0.7982160 0.2801970 0.4695380
0.8018550 0.2846260 0.4659710
0.8054670 0.2890570 0.4624150
0.8090520 0.2934910 0.4588700
0.8126120 0.2979280 0.4553380
0.8161440 0.3023680 0.4518160
0.8196510 0.3068120 0.4483060
0.8231320 0.3112610 0.4448060
0.8265880 0.3157140 0.4413160
0.8300180 0.3201720 0.4378360
0.8334220 0.3246350 0.4343660
0.8368010 0.3291050 0.4309050
0.8401550 0.3335800 0.4274550
0.8434840 0.3380620 0.4240130
0.8467880 0.3425510 0.4205790
0.8500660 0.3470480 0.4171530
0.8533190 0.3515530 0.4137340
0.8565470 0.3560660 0.4103220
0.8597500 0.3605880 0.4069170
0.8629270 0.3651190 0.4035190
0.8660780 0.3696600 0.4001260
0.8692030 0.3742120 0.3967380
0.8723030 0.3787740 0.3933550
0.8753760 0.3833470 0.3899760
0.8784230 0.3879320 0.3866000
0.8814430 0.3925290 0.3832290
0.8844360 0.3971390 0.3798600
0.8874020 0.4017620 0.3764940
0.8903400 0.4063980 0.3731300
0.8932500 0.4110480 0.3697680
0.8961310 0.4157120 0.3664070
0.8989840 0.4203920 0.3630470
0.9018070 0.4250870 0.3596880
0.9046010 0.4297970 0.3563290
0.9073650 0.4345240 0.3529700
0.9100980 0.4392680 0.3496100
0.9128000 0.4440290 0.3462510
0.9154710 0.4488070 0.3428900
0.9181090 0.4536030 0.3395290
0.9207140 0.4584170 0.3361660
0.9232870 0.4632510 0.3328010
0.9258250 0.4681030 0.3294350
0.9283290 0.4729750 0.3260670
0.9307980 0.4778670 0.3226970
0.9332320 0.4827800 0.3193250
0.9356300 0.4877120 0.3159520
0.9379900 0.4926670 0.3125750
0.9403130 0.4976420 0.3091970
0.9425980 0.5026390 0.3058160
0.9448440 0.5076580 0.3024330
0.9470510 0.5126990 0.2990490
0.9492170 0.5177630 0.2956620
0.9513440 0.5228500 0.2922750
0.9534280 0.5279600 0.2888830
0.9554700 0.5330930 0.2854900
0.9574690 0.5382500 0.2820960
0.9594240 0.5434310 0.2787010
0.9613360 0.5486360 0.2753050
0.9632030 0.5538650 0.2719090
0.9650240 0.5591180 0.2685130
0.9667980 0.5643960 0.2651180
0.9685260 0.5697000 0.2617210
0.9702050 0.5750280 0.2583250
0.9718350 0.5803820 0.2549310
0.9734160 0.5857610 0.2515400
0.9749470 0.5911650 0.2481510
0.9764280 0.5965950 0.2447670
0.9778560 0.6020510 0.2413870
0.9792330 0.6075320 0.2380130
0.9805560 0.6130390 0.2346460
0.9818260 0.6185720 0.2312870
0.9830410 0.6241310 0.2279370
0.9841990 0.6297180 0.2245950
0.9853010 0.6353300 0.2212650
0.9863450 0.6409690 0.2179480
0.9873320 0.6466330 0.2146480
0.9882600 0.6523250 0.2113640
0.9891280 0.6580430 0.2081000
0.9899350 0.6637870 0.2048590
0.9906810 0.6695580 0.2016420
0.9913650 0.6753550 0.1984530
0.9919850 0.6811790 0.1952950
0.9925410 0.6870300 0.1921700
0.9930320 0.6929070 0.1890840
0.9934560 0.6988100 0.1860410
0.9938140 0.7047410 0.1830430
0.9941030 0.7106980 0.1800970
0.9943240 0.7166810 0.1772080
0.9944740 0.7226910 0.1743810
0.9945530 0.7287280 0.1716220
0.9945610 0.7347910 0.1689380
0.9944950 0.7408800 0.1663350
0.9943550 0.7469950 0.1638210
0.9941410 0.7531370 0.1614040
0.9938510 0.7593040 0.1590920
0.9934820 0.7654990 0.1568910
0.9930330 0.7717200 0.1548080
0.9925050 0.7779670 0.1528550
0.9918970 0.7842390 0.1510420
0.9912090 0.7905370 0.1493770
0.9904390 0.7968590 0.1478700
0.9895870 0.8032050 0.1465290
0.9886480 0.8095790 0.1453570
0.9876210 0.8159780 0.1443630
0.9865090 0.8224010 0.1435570
0.9853140 0.8288460 0.1429450
0.9840310 0.8353150 0.1425280
0.9826530 0.8418120 0.1423030
0.9811900 0.8483290 0.1422790
0.9796440 0.8548660 0.1424530
0.9779950 0.8614320 0.1428080
0.9762650 0.8680160 0.1433510
0.9744430 0.8746220 0.1440610
0.9725300 0.8812500 0.1449230
0.9705330 0.8878960 0.1459190
0.9684430 0.8945640 0.1470140
0.9662710 0.9012490 0.1481800
0.9640210 0.9079500 0.1493700
0.9616810 0.9146720 0.1505200
0.9592760 0.9214070 0.1515660
0.9568080 0.9281520 0.1524090
0.9542870 0.9349080 0.1529210
0.9517260 0.9416710 0.1529250
0.9491510 0.9484350 0.1521780
0.9466020 0.9551900 0.1503280
0.9441520 0.9619160 0.1468610
0.9418960 0.9685900 0.1409560
0.9400150 0.9751580 0.1313260
