posts/Davinci-Resolve-thermal-luts/colormaps-as-cube/PRGn_r.cube
TITLE "Colormap PRGn_r"
LUT_1D_SIZE 256
0.0000000 0.2666667 0.1058824
0.0041522 0.2746636 0.1101884
0.0083045 0.2826605 0.1144944
0.0124567 0.2906574 0.1188005
0.0166090 0.2986544 0.1231065
0.0207612 0.3066513 0.1274125
0.0249135 0.3146482 0.1317186
0.0290657 0.3226451 0.1360246
0.0332180 0.3306421 0.1403306
0.0373702 0.3386390 0.1446367
0.0415225 0.3466359 0.1489427
0.0456747 0.3546328 0.1532488
0.0498270 0.3626298 0.1575548
0.0539792 0.3706267 0.1618608
0.0581315 0.3786236 0.1661669
0.0622837 0.3866205 0.1704729
0.0664360 0.3946175 0.1747789
0.0705882 0.4026144 0.1790850
0.0747405 0.4106113 0.1833910
0.0788927 0.4186082 0.1876970
0.0830450 0.4266052 0.1920031
0.0871972 0.4346021 0.1963091
0.0913495 0.4425990 0.2006151
0.0955017 0.4505959 0.2049212
0.0996540 0.4585928 0.2092272
0.1038062 0.4665898 0.2135333
0.1107266 0.4747405 0.2189158
0.1204152 0.4830450 0.2253749
0.1301038 0.4913495 0.2318339
0.1397924 0.4996540 0.2382930
0.1494810 0.5079585 0.2447520
0.1591696 0.5162630 0.2512111
0.1688581 0.5245675 0.2576701
0.1785467 0.5328720 0.2641292
0.1882353 0.5411765 0.2705882
0.1979239 0.5494810 0.2770473
0.2076125 0.5577855 0.2835063
0.2173010 0.5660900 0.2899654
0.2269896 0.5743945 0.2964245
0.2366782 0.5826990 0.3028835
0.2463668 0.5910035 0.3093426
0.2560554 0.5993080 0.3158016
0.2657439 0.6076125 0.3222607
0.2754325 0.6159170 0.3287197
0.2851211 0.6242215 0.3351788
0.2948097 0.6325260 0.3416378
0.3044983 0.6408304 0.3480969
0.3141869 0.6491349 0.3545559
0.3238754 0.6574394 0.3610150
0.3335640 0.6657439 0.3674740
0.3432526 0.6740484 0.3739331
0.3529412 0.6823529 0.3803922
0.3646290 0.6892734 0.3900807
0.3763168 0.6961938 0.3997693
0.3880046 0.7031142 0.4094579
0.3996924 0.7100346 0.4191465
0.4113802 0.7169550 0.4288351
0.4230681 0.7238754 0.4385236
0.4347559 0.7307958 0.4482122
0.4464437 0.7377163 0.4579008
0.4581315 0.7446367 0.4675894
0.4698193 0.7515571 0.4772780
0.4815071 0.7584775 0.4869666
0.4931949 0.7653979 0.4966551
0.5048827 0.7723183 0.5063437
0.5165705 0.7792388 0.5160323
0.5282584 0.7861592 0.5257209
0.5399462 0.7930796 0.5354095
0.5516340 0.8000000 0.5450980
0.5633218 0.8069204 0.5547866
0.5750096 0.8138408 0.5644752
0.5866974 0.8207612 0.5741638
0.5983852 0.8276817 0.5838524
0.6100730 0.8346021 0.5935409
0.6217609 0.8415225 0.6032295
0.6334487 0.8484429 0.6129181
0.6451365 0.8553633 0.6226067
0.6549020 0.8604383 0.6313725
0.6627451 0.8636678 0.6392157
0.6705882 0.8668973 0.6470588
0.6784314 0.8701269 0.6549020
0.6862745 0.8733564 0.6627451
0.6941176 0.8765859 0.6705882
0.7019608 0.8798155 0.6784314
0.7098039 0.8830450 0.6862745
0.7176471 0.8862745 0.6941176
0.7254902 0.8895040 0.7019608
0.7333333 0.8927336 0.7098039
0.7411765 0.8959631 0.7176471
0.7490196 0.8991926 0.7254902
0.7568627 0.9024221 0.7333333
0.7647059 0.9056517 0.7411765
0.7725490 0.9088812 0.7490196
0.7803922 0.9121107 0.7568627
0.7882353 0.9153403 0.7647059
0.7960784 0.9185698 0.7725490
0.8039216 0.9217993 0.7803922
0.8117647 0.9250288 0.7882353
0.8196078 0.9282584 0.7960784
0.8274510 0.9314879 0.8039216
0.8352941 0.9347174 0.8117647
0.8431373 0.9379469 0.8196078
0.8509804 0.9411765 0.8274510
0.8555940 0.9422530 0.8329873
0.8602076 0.9433295 0.8385236
0.8648212 0.9444060 0.8440600
0.8694348 0.9454825 0.8495963
0.8740484 0.9465590 0.8551326
0.8786621 0.9476355 0.8606690
0.8832757 0.9487120 0.8662053
0.8878893 0.9497885 0.8717416
0.8925029 0.9508651 0.8772780
0.8971165 0.9519416 0.8828143
0.9017301 0.9530181 0.8883506
0.9063437 0.9540946 0.8938870
0.9109573 0.9551711 0.8994233
0.9155709 0.9562476 0.9049596
0.9201845 0.9573241 0.9104960
0.9247982 0.9584006 0.9160323
0.9294118 0.9594771 0.9215686
0.9340254 0.9605536 0.9271050
0.9386390 0.9616301 0.9326413
0.9432526 0.9627067 0.9381776
0.9478662 0.9637832 0.9437140
0.9524798 0.9648597 0.9492503
0.9570934 0.9659362 0.9547866
0.9617070 0.9670127 0.9603230
0.9663206 0.9680892 0.9658593
0.9673972 0.9659362 0.9674740
0.9649366 0.9605536 0.9651672
0.9624760 0.9551711 0.9628604
0.9600154 0.9497885 0.9605536
0.9575548 0.9444060 0.9582468
0.9550942 0.9390235 0.9559400
0.9526336 0.9336409 0.9536332
0.9501730 0.9282584 0.9513264
0.9477124 0.9228758 0.9490196
0.9452518 0.9174933 0.9467128
0.9427912 0.9121107 0.9444060
0.9403306 0.9067282 0.9420992
0.9378700 0.9013456 0.9397924
0.9354095 0.8959631 0.9374856
0.9329489 0.8905805 0.9351788
0.9304883 0.8851980 0.9328720
0.9280277 0.8798155 0.9305652
0.9255671 0.8744329 0.9282584
0.9231065 0.8690504 0.9259516
0.9206459 0.8636678 0.9236448
0.9181853 0.8582853 0.9213379
0.9157247 0.8529027 0.9190311
0.9132641 0.8475202 0.9167243
0.9108035 0.8421376 0.9144175
0.9083429 0.8367551 0.9121107
0.9058824 0.8313725 0.9098039
0.9001922 0.8241446 0.9059592
0.8945021 0.8169166 0.9021146
0.8888120 0.8096886 0.8982699
0.8831219 0.8024606 0.8944252
0.8774318 0.7952326 0.8905805
0.8717416 0.7880046 0.8867359
0.8660515 0.7807766 0.8828912
0.8603614 0.7735486 0.8790465
0.8546713 0.7663206 0.8752018
0.8489812 0.7590927 0.8713572
0.8432910 0.7518647 0.8675125
0.8376009 0.7446367 0.8636678
0.8319108 0.7374087 0.8598231
0.8262207 0.7301807 0.8559785
0.8205306 0.7229527 0.8521338
0.8148404 0.7157247 0.8482891
0.8091503 0.7084967 0.8444444
0.8034602 0.7012687 0.8405998
0.7977701 0.6940408 0.8367551
0.7920800 0.6868128 0.8329104
0.7863899 0.6795848 0.8290657
0.7806997 0.6723568 0.8252211
0.7750096 0.6651288 0.8213764
0.7693195 0.6579008 0.8175317
0.7636294 0.6506728 0.8136870
0.7576317 0.6429835 0.8089965
0.7513264 0.6348328 0.8034602
0.7450211 0.6266820 0.7979239
0.7387159 0.6185313 0.7923875
0.7324106 0.6103806 0.7868512
0.7261053 0.6022299 0.7813149
0.7198001 0.5940792 0.7757785
0.7134948 0.5859285 0.7702422
0.7071895 0.5777778 0.7647059
0.7008843 0.5696271 0.7591696
0.6945790 0.5614764 0.7536332
0.6882737 0.5533256 0.7480969
0.6819685 0.5451749 0.7425606
0.6756632 0.5370242 0.7370242
0.6693579 0.5288735 0.7314879
0.6630527 0.5207228 0.7259516
0.6567474 0.5125721 0.7204152
0.6504421 0.5044214 0.7148789
0.6441369 0.4962707 0.7093426
0.6378316 0.4881200 0.7038062
0.6315263 0.4799692 0.6982699
0.6252211 0.4718185 0.6927336
0.6189158 0.4636678 0.6871972
0.6126105 0.4555171 0.6816609
0.6063053 0.4473664 0.6761246
0.6000000 0.4392157 0.6705882
0.5946175 0.4284506 0.6644368
0.5892349 0.4176855 0.6582853
0.5838524 0.4069204 0.6521338
0.5784698 0.3961553 0.6459823
0.5730873 0.3853902 0.6398308
0.5677047 0.3746251 0.6336794
0.5623222 0.3638601 0.6275279
0.5569396 0.3530950 0.6213764
0.5515571 0.3423299 0.6152249
0.5461745 0.3315648 0.6090734
0.5407920 0.3207997 0.6029220
0.5354095 0.3100346 0.5967705
0.5300269 0.2992695 0.5906190
0.5246444 0.2885044 0.5844675
0.5192618 0.2777393 0.5783160
0.5138793 0.2669742 0.5721646
0.5084967 0.2562092 0.5660131
0.5031142 0.2454441 0.5598616
0.4977316 0.2346790 0.5537101
0.4923491 0.2239139 0.5475586
0.4869666 0.2131488 0.5414072
0.4815840 0.2023837 0.5352557
0.4762015 0.1916186 0.5291042
0.4708189 0.1808535 0.5229527
0.4654364 0.1700884 0.5168012
0.4585928 0.1614764 0.5094195
0.4502884 0.1550173 0.5008074
0.4419839 0.1485582 0.4921953
0.4336794 0.1420992 0.4835832
0.4253749 0.1356401 0.4749712
0.4170704 0.1291811 0.4663591
0.4087659 0.1227220 0.4577470
0.4004614 0.1162630 0.4491349
0.3921569 0.1098039 0.4405229
0.3838524 0.1033449 0.4319108
0.3755479 0.0968858 0.4232987
0.3672434 0.0904268 0.4146867
0.3589389 0.0839677 0.4060746
0.3506344 0.0775087 0.3974625
0.3423299 0.0710496 0.3888504
0.3340254 0.0645905 0.3802384
0.3257209 0.0581315 0.3716263
0.3174164 0.0516724 0.3630142
0.3091119 0.0452134 0.3544022
0.3008074 0.0387543 0.3457901
0.2925029 0.0322953 0.3371780
0.2841984 0.0258362 0.3285659
0.2758939 0.0193772 0.3199539
0.2675894 0.0129181 0.3113418
0.2592849 0.0064591 0.3027297
0.2509804 0.0000000 0.2941176
