posts/Davinci-Resolve-thermal-luts/colormaps-as-cube/prism_r.cube
TITLE "Colormap prism_r"
LUT_1D_SIZE 256
0.3295071 0.9982549 0.0000000
0.5109044 1.0000000 0.0000000
0.7027915 1.0000000 0.0000000
0.8925165 1.0000000 0.0000000
1.0000000 0.9659545 0.0000000
1.0000000 0.8437470 0.0000000
1.0000000 0.6876660 0.0000000
1.0000000 0.5080026 0.0000000
1.0000000 0.3166027 0.0000000
1.0000000 0.1260862 0.0000000
1.0000000 0.0000000 0.0000000
1.0000000 0.0000000 0.0054208
1.0000000 0.0000000 0.2853554
0.8667905 0.0000000 0.5464753
0.6760059 0.0000000 0.7715638
0.4848254 0.0000000 0.9457798
0.3058541 0.0000000 1.0000000
0.1508926 0.0000000 1.0000000
0.0301581 0.0000000 1.0000000
0.0000000 0.1145534 0.9684715
0.0000000 0.3045949 0.8037184
0.0000000 0.4963115 0.5859728
0.0051334 0.6770625 0.3295914
0.1154322 0.8349302 0.0514787
0.2622960 0.9595057 0.0000000
0.4360414 1.0000000 0.0000000
0.6252128 1.0000000 0.0000000
0.8173371 1.0000000 0.0000000
0.9997469 1.0000000 0.0000000
1.0000000 0.8974443 0.0000000
1.0000000 0.7538523 0.0000000
1.0000000 0.5823139 0.0000000
1.0000000 0.3941394 0.0000000
1.0000000 0.2017359 0.0000000
1.0000000 0.0177894 0.0000000
1.0000000 0.0000000 0.0000000
1.0000000 0.0000000 0.1740854
0.9405004 0.0000000 0.4449329
0.7534487 0.0000000 0.6864441
0.5608948 0.0000000 0.8826951
0.3755347 0.0000000 1.0000000
0.2095900 0.0000000 1.0000000
0.0740020 0.0000000 1.0000000
0.0000000 0.0414942 1.0000000
0.0000000 0.2272979 0.8770016
0.0000000 0.4198733 0.6790060
0.0000000 0.6065229 0.4362407
0.0662383 0.7749402 0.1647122
0.1994473 0.9140207 0.0000000
0.3636819 1.0000000 0.0000000
0.5481133 1.0000000 0.0000000
0.7405812 1.0000000 0.0000000
0.9283955 1.0000000 0.0000000
1.0000000 0.9450698 0.0000000
1.0000000 0.8155033 0.0000000
1.0000000 0.6539254 0.0000000
1.0000000 0.4709898 0.0000000
1.0000000 0.2787581 0.0000000
1.0000000 0.0899050 0.0000000
1.0000000 0.0000000 0.0000000
1.0000000 0.0000000 0.0609526
1.0000000 0.0000000 0.3386296
0.8299985 0.0000000 0.5939792
0.6381317 0.0000000 0.8101653
0.4483661 0.0000000 0.9729337
0.2732138 0.0000000 1.0000000
0.1242232 0.0000000 1.0000000
0.0112181 0.0000000 1.0000000
0.0000000 0.1510999 0.9409007
0.0000000 0.3424734 0.7647738
0.0000000 0.5330245 0.5382222
0.0235047 0.7101893 0.2761833
0.1416336 0.8622866 0.0000000
0.2946000 0.9792879 0.0000000
0.4723180 1.0000000 0.0000000
0.6630701 1.0000000 0.0000000
0.8542791 1.0000000 0.0000000
1.0000000 0.9861140 0.0000000
1.0000000 0.8719593 0.0000000
1.0000000 0.7220709 0.0000000
1.0000000 0.5463315 0.0000000
1.0000000 0.3563285 0.0000000
1.0000000 0.1645896 0.0000000
1.0000000 0.0000000 0.0000000
1.0000000 0.0000000 0.0000000
1.0000000 0.0000000 0.2287029
0.9048363 0.0000000 0.4951587
0.7157095 0.0000000 0.7289666
0.5235690 0.0000000 0.9147107
0.3410832 0.0000000 1.0000000
0.1802844 0.0000000 1.0000000
0.0517745 0.0000000 1.0000000
0.0000000 0.0768161 0.9947320
0.0000000 0.2649400 0.8423584
0.0000000 0.4573536 0.6344446
0.0000000 0.6413702 0.3846992
0.0894736 0.8048569 0.1095888
0.2295349 0.9370342 0.0000000
0.3986380 1.0000000 0.0000000
0.5856331 1.0000000 0.0000000
0.7781910 1.0000000 0.0000000
0.9636153 1.0000000 0.0000000
1.0000000 0.9226163 0.0000000
1.0000000 0.7860211 0.0000000
1.0000000 0.6193585 0.0000000
1.0000000 0.4336173 0.0000000
1.0000000 0.2410441 0.0000000
1.0000000 0.0543362 0.0000000
1.0000000 0.0000000 0.0000000
1.0000000 0.0000000 0.1163290
0.9771613 0.0000000 0.3910399
0.7927983 0.0000000 0.6399679
0.6003387 0.0000000 0.8467001
0.4124722 0.0000000 0.9976057
0.2415855 0.0000000 1.0000000
0.0989461 0.0000000 1.0000000
0.0000000 0.0052414 1.0000000
0.0000000 0.1881028 0.9109297
0.0000000 0.3803201 0.7238784
0.0000000 0.5692195 0.4890987
0.0435252 0.7423462 0.2220707
0.1691829 0.8882851 0.0000000
0.3278616 0.9974139 0.0000000
0.5090989 1.0000000 0.0000000
0.7009451 1.0000000 0.0000000
0.8907510 1.0000000 0.0000000
1.0000000 0.9669321 0.0000000
1.0000000 0.8450918 0.0000000
1.0000000 0.6892893 0.0000000
1.0000000 0.5097973 0.0000000
1.0000000 0.3184505 0.0000000
1.0000000 0.1278652 0.0000000
1.0000000 0.0000000 0.0000000
1.0000000 0.0000000 0.0027104
1.0000000 0.0000000 0.2827369
0.8685731 0.0000000 0.5441214
0.6778538 0.0000000 0.7696297
0.4866167 0.0000000 0.9443930
0.3074708 0.0000000 1.0000000
0.1522280 0.0000000 1.0000000
0.0311241 0.0000000 1.0000000
0.0000000 0.1127839 0.9697538
0.0000000 0.3027481 0.8055665
0.0000000 0.4945091 0.5882648
0.0042803 0.6754233 0.3321763
0.1141897 0.8335622 0.0541859
0.2607461 0.9584992 0.0000000
0.4342864 1.0000000 0.0000000
0.6233682 1.0000000 0.0000000
0.8155247 1.0000000 0.0000000
0.9980861 1.0000000 0.0000000
1.0000000 0.8986510 0.0000000
1.0000000 0.7553756 0.0000000
1.0000000 0.5840534 0.0000000
1.0000000 0.3959804 0.0000000
1.0000000 0.2035571 0.0000000
1.0000000 0.0194706 0.0000000
1.0000000 0.0000000 0.0000000
1.0000000 0.0000000 0.1714086
0.9422232 0.0000000 0.4424528
0.7552849 0.0000000 0.6843241
0.5627235 0.0000000 0.8810750
0.3772352 0.0000000 1.0000000
0.2110502 0.0000000 1.0000000
0.0751256 0.0000000 1.0000000
0.0000000 0.0397893 1.0000000
0.0000000 0.2254677 0.8786350
0.0000000 0.4180383 0.6811364
0.0000000 0.6048043 0.4387275
0.0651438 0.7734512 0.1673915
0.1980097 0.9128595 0.0000000
0.3619960 1.0000000 0.0000000
0.5462902 1.0000000 0.0000000
0.7387412 1.0000000 0.0000000
0.9266598 1.0000000 0.0000000
1.0000000 0.9461255 0.0000000
1.0000000 0.8169104 0.0000000
1.0000000 0.6555912 0.0000000
1.0000000 0.4728044 0.0000000
1.0000000 0.2806019 0.0000000
1.0000000 0.0916564 0.0000000
1.0000000 0.0000000 0.0000000
1.0000000 0.0000000 0.0582462
1.0000000 0.0000000 0.3360498
0.8318034 0.0000000 0.5916961
0.6399781 0.0000000 0.8083295
0.4501322 0.0000000 0.9716662
0.2747832 0.0000000 1.0000000
0.1254924 0.0000000 1.0000000
0.0121034 0.0000000 1.0000000
0.0000000 0.1493058 0.9423019
0.0000000 0.3406256 0.7667197
0.0000000 0.5312448 0.5405844
0.0225699 0.7085951 0.2788060
0.1403237 0.8609830 0.0000000
0.2930013 0.9783610 0.0000000
0.4705360 1.0000000 0.0000000
0.6612222 1.0000000 0.0000000
0.8524872 1.0000000 0.0000000
1.0000000 0.9870073 0.0000000
1.0000000 0.8732351 0.0000000
1.0000000 0.7236451 0.0000000
1.0000000 0.5481003 0.0000000
1.0000000 0.3581753 0.0000000
1.0000000 0.1663926 0.0000000
1.0000000 0.0000000 0.0000000
1.0000000 0.0000000 0.0000000
1.0000000 0.0000000 0.2260510
0.9065906 0.0000000 0.4927369
0.7175540 0.0000000 0.7269346
0.5253819 0.0000000 0.9132024
0.3427450 0.0000000 1.0000000
0.1816855 0.0000000 1.0000000
0.0528227 0.0000000 1.0000000
0.0000000 0.0750774 0.9958860
0.0000000 0.2630992 0.8440989
0.0000000 0.4555321 0.6366568
0.0000000 0.6396881 0.3872372
0.0883053 0.8034250 0.1122854
0.2280405 0.9359470 0.0000000
0.3969160 1.0000000 0.0000000
0.5837971 1.0000000 0.0000000
0.7763620 1.0000000 0.0000000
0.9619139 1.0000000 0.0000000
1.0000000 0.9237471 0.0000000
1.0000000 0.7874869 0.0000000
1.0000000 0.6210625 0.0000000
1.0000000 0.4354472 0.0000000
1.0000000 0.2428793 0.0000000
1.0000000 0.0560557 0.0000000
1.0000000 0.0000000 0.0000000
1.0000000 0.0000000 0.1136334
0.9788463 0.0000000 0.3885054
0.7946210 0.0000000 0.6377615
0.6021789 0.0000000 0.8449673
0.4142086 0.0000000 0.9964608
0.2431037 0.0000000 1.0000000
0.1001458 0.0000000 1.0000000
0.0000000 0.0035767 1.0000000
0.0000000 0.1862886 0.9124462
0.0000000 0.3784761 0.7259170
0.0000000 0.5674673 0.4915249
0.0425111 0.7408013 0.2247246
0.1678088 0.8870494 0.0000000
0.3262181 0.9965688 0.0000000
0.5072944 1.0000000 0.0000000
0.6990986 1.0000000 0.0000000
0.8889842 1.0000000 0.0000000
1.0000000 0.9679059 0.0000000
1.0000000 0.8464335 0.0000000
1.0000000 0.6909103 0.0000000
1.0000000 0.5115908 0.0000000
1.0000000 0.3202983 0.0000000
1.0000000 0.1296454 0.0000000
1.0000000 0.0000000 0.0000000
1.0000000 0.0000000 0.0000000
