posts/Davinci-Resolve-thermal-luts/colormaps-as-cube/PuBuGn_r.cube
TITLE "Colormap PuBuGn_r"
LUT_1D_SIZE 256
0.0039216 0.2745098 0.2117647
0.0039216 0.2791849 0.2160707
0.0039216 0.2838601 0.2203768
0.0039216 0.2885352 0.2246828
0.0039216 0.2932103 0.2289889
0.0039216 0.2978854 0.2332949
0.0039216 0.3025606 0.2376009
0.0039216 0.3072357 0.2419070
0.0039216 0.3119108 0.2462130
0.0039216 0.3165859 0.2505190
0.0039216 0.3212611 0.2548251
0.0039216 0.3259362 0.2591311
0.0039216 0.3306113 0.2634371
0.0039216 0.3352864 0.2677432
0.0039216 0.3399616 0.2720492
0.0039216 0.3446367 0.2763552
0.0039216 0.3493118 0.2806613
0.0039216 0.3539869 0.2849673
0.0039216 0.3586621 0.2892734
0.0039216 0.3633372 0.2935794
0.0039216 0.3680123 0.2978854
0.0039216 0.3726874 0.3021915
0.0039216 0.3773626 0.3064975
0.0039216 0.3820377 0.3108035
0.0039216 0.3867128 0.3151096
0.0039216 0.3913879 0.3194156
0.0039216 0.3960631 0.3237216
0.0039216 0.4007382 0.3280277
0.0039216 0.4054133 0.3323337
0.0039216 0.4100884 0.3366398
0.0039216 0.4147636 0.3409458
0.0039216 0.4194387 0.3452518
0.0039369 0.4238524 0.3497732
0.0040600 0.4264360 0.3558016
0.0041830 0.4290196 0.3618301
0.0043060 0.4316032 0.3678585
0.0044291 0.4341869 0.3738870
0.0045521 0.4367705 0.3799154
0.0046751 0.4393541 0.3859439
0.0047982 0.4419377 0.3919723
0.0049212 0.4445213 0.3980008
0.0050442 0.4471050 0.4040292
0.0051672 0.4496886 0.4100577
0.0052903 0.4522722 0.4160861
0.0054133 0.4548558 0.4221146
0.0055363 0.4574394 0.4281430
0.0056594 0.4600231 0.4341715
0.0057824 0.4626067 0.4401999
0.0059054 0.4651903 0.4462284
0.0060285 0.4677739 0.4522568
0.0061515 0.4703576 0.4582853
0.0062745 0.4729412 0.4643137
0.0063975 0.4755248 0.4703422
0.0065206 0.4781084 0.4763706
0.0066436 0.4806920 0.4823991
0.0067666 0.4832757 0.4884275
0.0068897 0.4858593 0.4944560
0.0070127 0.4884429 0.5004844
0.0071357 0.4910265 0.5065129
0.0072587 0.4936101 0.5125413
0.0073818 0.4961938 0.5185698
0.0075048 0.4987774 0.5245982
0.0076278 0.5013610 0.5306267
0.0077509 0.5039446 0.5366551
0.0094425 0.5063437 0.5428374
0.0158401 0.5081892 0.5494810
0.0222376 0.5100346 0.5561246
0.0286351 0.5118800 0.5627682
0.0350327 0.5137255 0.5694118
0.0414302 0.5155709 0.5760554
0.0478278 0.5174164 0.5826990
0.0542253 0.5192618 0.5893426
0.0606228 0.5211073 0.5959862
0.0670204 0.5229527 0.6026298
0.0734179 0.5247982 0.6092734
0.0798155 0.5266436 0.6159170
0.0862130 0.5284890 0.6225606
0.0926105 0.5303345 0.6292042
0.0990081 0.5321799 0.6358478
0.1054056 0.5340254 0.6424913
0.1118032 0.5358708 0.6491349
0.1182007 0.5377163 0.6557785
0.1245982 0.5395617 0.6624221
0.1309958 0.5414072 0.6690657
0.1373933 0.5432526 0.6757093
0.1437908 0.5450980 0.6823529
0.1501884 0.5469435 0.6889965
0.1565859 0.5487889 0.6956401
0.1629835 0.5506344 0.7022837
0.1693810 0.5524798 0.7089273
0.1757785 0.5543253 0.7155709
0.1821761 0.5561707 0.7222145
0.1885736 0.5580161 0.7288581
0.1949712 0.5598616 0.7355017
0.2013687 0.5617070 0.7421453
0.2077662 0.5635525 0.7487889
0.2140254 0.5658593 0.7536332
0.2200538 0.5689350 0.7554787
0.2260823 0.5720108 0.7573241
0.2321107 0.5750865 0.7591696
0.2381392 0.5781622 0.7610150
0.2441676 0.5812380 0.7628604
0.2501961 0.5843137 0.7647059
0.2562245 0.5873895 0.7665513
0.2622530 0.5904652 0.7683968
0.2682814 0.5935409 0.7702422
0.2743099 0.5966167 0.7720877
0.2803383 0.5996924 0.7739331
0.2863668 0.6027682 0.7757785
0.2923952 0.6058439 0.7776240
0.2984237 0.6089196 0.7794694
0.3044521 0.6119954 0.7813149
0.3104806 0.6150711 0.7831603
0.3165090 0.6181469 0.7850058
0.3225375 0.6212226 0.7868512
0.3285659 0.6242983 0.7886967
0.3345944 0.6273741 0.7905421
0.3406228 0.6304498 0.7923875
0.3466513 0.6335256 0.7942330
0.3526797 0.6366013 0.7960784
0.3587082 0.6396770 0.7979239
0.3647366 0.6427528 0.7997693
0.3707651 0.6458285 0.8016148
0.3767935 0.6489043 0.8034602
0.3828220 0.6519800 0.8053057
0.3888504 0.6550557 0.8071511
0.3948789 0.6581315 0.8089965
0.4009073 0.6612072 0.8108420
0.4077970 0.6639754 0.8125029
0.4155479 0.6664360 0.8139792
0.4232987 0.6688966 0.8154556
0.4310496 0.6713572 0.8169319
0.4388005 0.6738178 0.8184083
0.4465513 0.6762784 0.8198847
0.4543022 0.6787389 0.8213610
0.4620531 0.6811995 0.8228374
0.4698039 0.6836601 0.8243137
0.4775548 0.6861207 0.8257901
0.4853057 0.6885813 0.8272664
0.4930565 0.6910419 0.8287428
0.5008074 0.6935025 0.8302191
0.5085582 0.6959631 0.8316955
0.5163091 0.6984237 0.8331719
0.5240600 0.7008843 0.8346482
0.5318108 0.7033449 0.8361246
0.5395617 0.7058055 0.8376009
0.5473126 0.7082661 0.8390773
0.5550634 0.7107266 0.8405536
0.5628143 0.7131872 0.8420300
0.5705652 0.7156478 0.8435063
0.5783160 0.7181084 0.8449827
0.5860669 0.7205690 0.8464591
0.5938178 0.7230296 0.8479354
0.6015686 0.7254902 0.8494118
0.6093195 0.7279508 0.8508881
0.6170704 0.7304114 0.8523645
0.6248212 0.7328720 0.8538408
0.6325721 0.7353326 0.8553172
0.6403230 0.7377932 0.8567935
0.6480738 0.7402537 0.8582699
0.6542099 0.7427143 0.8596694
0.6593772 0.7451749 0.8610227
0.6645444 0.7476355 0.8623760
0.6697116 0.7500961 0.8637293
0.6748789 0.7525567 0.8650827
0.6800461 0.7550173 0.8664360
0.6852134 0.7574779 0.8677893
0.6903806 0.7599385 0.8691426
0.6955479 0.7623991 0.8704960
0.7007151 0.7648597 0.8718493
0.7058824 0.7673203 0.8732026
0.7110496 0.7697809 0.8745559
0.7162168 0.7722414 0.8759093
0.7213841 0.7747020 0.8772626
0.7265513 0.7771626 0.8786159
0.7317186 0.7796232 0.8799692
0.7368858 0.7820838 0.8813226
0.7420531 0.7845444 0.8826759
0.7472203 0.7870050 0.8840292
0.7523875 0.7894656 0.8853825
0.7575548 0.7919262 0.8867359
0.7627220 0.7943868 0.8880892
0.7678893 0.7968474 0.8894425
0.7730565 0.7993080 0.8907958
0.7782238 0.8017686 0.8921492
0.7833910 0.8042291 0.8935025
0.7885582 0.8066897 0.8948558
0.7937255 0.8091503 0.8962092
0.7988927 0.8116109 0.8975625
0.8040600 0.8140715 0.8989158
0.8092272 0.8165321 0.9002691
0.8143945 0.8189927 0.9016225
0.8182699 0.8211765 0.9028835
0.8217147 0.8232680 0.9041138
0.8251596 0.8253595 0.9053441
0.8286044 0.8274510 0.9065744
0.8320492 0.8295425 0.9078047
0.8354940 0.8316340 0.9090350
0.8389389 0.8337255 0.9102653
0.8423837 0.8358170 0.9114956
0.8458285 0.8379085 0.9127259
0.8492734 0.8400000 0.9139562
0.8527182 0.8420915 0.9151865
0.8561630 0.8441830 0.9164168
0.8596078 0.8462745 0.9176471
0.8630527 0.8483660 0.9188774
0.8664975 0.8504575 0.9201077
0.8699423 0.8525490 0.9213379
0.8733872 0.8546405 0.9225682
0.8768320 0.8567320 0.9237985
0.8802768 0.8588235 0.9250288
0.8837216 0.8609150 0.9262591
0.8871665 0.8630065 0.9274894
0.8906113 0.8650980 0.9287197
0.8940561 0.8671895 0.9299500
0.8975010 0.8692810 0.9311803
0.9009458 0.8713725 0.9324106
0.9043906 0.8734641 0.9336409
0.9078354 0.8755556 0.9348712
0.9112803 0.8776471 0.9361015
0.9147251 0.8797386 0.9373318
0.9181699 0.8818301 0.9385621
0.9216148 0.8839216 0.9397924
0.9250596 0.8860131 0.9410227
0.9275356 0.8885352 0.9423606
0.9298731 0.8911188 0.9437140
0.9322107 0.8937024 0.9450673
0.9345483 0.8962860 0.9464206
0.9368858 0.8988697 0.9477739
0.9392234 0.9014533 0.9491273
0.9415609 0.9040369 0.9504806
0.9438985 0.9066205 0.9518339
0.9462361 0.9092042 0.9531872
0.9485736 0.9117878 0.9545406
0.9509112 0.9143714 0.9558939
0.9532488 0.9169550 0.9572472
0.9555863 0.9195386 0.9586005
0.9579239 0.9221223 0.9599539
0.9602614 0.9247059 0.9613072
0.9625990 0.9272895 0.9626605
0.9649366 0.9298731 0.9640138
0.9672741 0.9324567 0.9653672
0.9696117 0.9350404 0.9667205
0.9719493 0.9376240 0.9680738
0.9742868 0.9402076 0.9694271
0.9766244 0.9427912 0.9707805
0.9789619 0.9453749 0.9721338
0.9812995 0.9479585 0.9734871
0.9836371 0.9505421 0.9748404
0.9859746 0.9531257 0.9761938
0.9883122 0.9557093 0.9775471
0.9906498 0.9582930 0.9789004
0.9929873 0.9608766 0.9802537
0.9953249 0.9634602 0.9816071
0.9976624 0.9660438 0.9829604
1.0000000 0.9686275 0.9843137
