posts/Davinci-Resolve-thermal-luts/colormaps-as-cube/PuBu_r.cube
TITLE "Colormap PuBu_r"
LUT_1D_SIZE 256
0.0078431 0.2196078 0.3450980
0.0080892 0.2237908 0.3516186
0.0083353 0.2279739 0.3581392
0.0085813 0.2321569 0.3646597
0.0088274 0.2363399 0.3711803
0.0090734 0.2405229 0.3777009
0.0093195 0.2447059 0.3842215
0.0095656 0.2488889 0.3907420
0.0098116 0.2530719 0.3972626
0.0100577 0.2572549 0.4037832
0.0103037 0.2614379 0.4103037
0.0105498 0.2656209 0.4168243
0.0107958 0.2698039 0.4233449
0.0110419 0.2739869 0.4298654
0.0112880 0.2781699 0.4363860
0.0115340 0.2823529 0.4429066
0.0117801 0.2865359 0.4494271
0.0120261 0.2907190 0.4559477
0.0122722 0.2949020 0.4624683
0.0125183 0.2990850 0.4689889
0.0127643 0.3032680 0.4755094
0.0130104 0.3074510 0.4820300
0.0132564 0.3116340 0.4885506
0.0135025 0.3158170 0.4950711
0.0137486 0.3200000 0.5015917
0.0139946 0.3241830 0.5081123
0.0142407 0.3283660 0.5146328
0.0144867 0.3325490 0.5211534
0.0147328 0.3367320 0.5276740
0.0149789 0.3409150 0.5341945
0.0152249 0.3450980 0.5407151
0.0154710 0.3492810 0.5472357
0.0157017 0.3532795 0.5534794
0.0158247 0.3559862 0.5577855
0.0159477 0.3586928 0.5620915
0.0160707 0.3613995 0.5663975
0.0161938 0.3641061 0.5707036
0.0163168 0.3668128 0.5750096
0.0164398 0.3695194 0.5793156
0.0165629 0.3722261 0.5836217
0.0166859 0.3749327 0.5879277
0.0168089 0.3776394 0.5922338
0.0169319 0.3803460 0.5965398
0.0170550 0.3830527 0.6008458
0.0171780 0.3857593 0.6051519
0.0173010 0.3884660 0.6094579
0.0174241 0.3911726 0.6137639
0.0175471 0.3938793 0.6180700
0.0176701 0.3965859 0.6223760
0.0177932 0.3992926 0.6266820
0.0179162 0.4019992 0.6309881
0.0180392 0.4047059 0.6352941
0.0181622 0.4074125 0.6396002
0.0182853 0.4101192 0.6439062
0.0184083 0.4128258 0.6482122
0.0185313 0.4155325 0.6525183
0.0186544 0.4182391 0.6568243
0.0187774 0.4209458 0.6611303
0.0189004 0.4236524 0.6654364
0.0190235 0.4263591 0.6697424
0.0191465 0.4290657 0.6740484
0.0192695 0.4317724 0.6783545
0.0193925 0.4344790 0.6826605
0.0195156 0.4371857 0.6869666
0.0211150 0.4401999 0.6906882
0.0271434 0.4441369 0.6926567
0.0331719 0.4480738 0.6946251
0.0392003 0.4520108 0.6965936
0.0452288 0.4559477 0.6985621
0.0512572 0.4598847 0.7005306
0.0572857 0.4638216 0.7024990
0.0633141 0.4677586 0.7044675
0.0693426 0.4716955 0.7064360
0.0753710 0.4756324 0.7084045
0.0813995 0.4795694 0.7103729
0.0874279 0.4835063 0.7123414
0.0934564 0.4874433 0.7143099
0.0994848 0.4913802 0.7162784
0.1055133 0.4953172 0.7182468
0.1115417 0.4992541 0.7202153
0.1175702 0.5031911 0.7221838
0.1235986 0.5071280 0.7241522
0.1296271 0.5110650 0.7261207
0.1356555 0.5150019 0.7280892
0.1416840 0.5189389 0.7300577
0.1477124 0.5228758 0.7320261
0.1537409 0.5268128 0.7339946
0.1597693 0.5307497 0.7359631
0.1657978 0.5346867 0.7379316
0.1718262 0.5386236 0.7399000
0.1778547 0.5425606 0.7418685
0.1838831 0.5464975 0.7438370
0.1899116 0.5504344 0.7458055
0.1959400 0.5543714 0.7477739
0.2019685 0.5583083 0.7497424
0.2079969 0.5622453 0.7517109
0.2146251 0.5658593 0.7536332
0.2222530 0.5689350 0.7554787
0.2298808 0.5720108 0.7573241
0.2375087 0.5750865 0.7591696
0.2451365 0.5781622 0.7610150
0.2527643 0.5812380 0.7628604
0.2603922 0.5843137 0.7647059
0.2680200 0.5873895 0.7665513
0.2756478 0.5904652 0.7683968
0.2832757 0.5935409 0.7702422
0.2909035 0.5966167 0.7720877
0.2985313 0.5996924 0.7739331
0.3061592 0.6027682 0.7757785
0.3137870 0.6058439 0.7776240
0.3214148 0.6089196 0.7794694
0.3290427 0.6119954 0.7813149
0.3366705 0.6150711 0.7831603
0.3442983 0.6181469 0.7850058
0.3519262 0.6212226 0.7868512
0.3595540 0.6242983 0.7886967
0.3671819 0.6273741 0.7905421
0.3748097 0.6304498 0.7923875
0.3824375 0.6335256 0.7942330
0.3900654 0.6366013 0.7960784
0.3976932 0.6396770 0.7979239
0.4053210 0.6427528 0.7997693
0.4129489 0.6458285 0.8016148
0.4205767 0.6489043 0.8034602
0.4282045 0.6519800 0.8053057
0.4358324 0.6550557 0.8071511
0.4434602 0.6581315 0.8089965
0.4510880 0.6612072 0.8108420
0.4579777 0.6639754 0.8125029
0.4641292 0.6664360 0.8139792
0.4702807 0.6688966 0.8154556
0.4764321 0.6713572 0.8169319
0.4825836 0.6738178 0.8184083
0.4887351 0.6762784 0.8198847
0.4948866 0.6787389 0.8213610
0.5010381 0.6811995 0.8228374
0.5071895 0.6836601 0.8243137
0.5133410 0.6861207 0.8257901
0.5194925 0.6885813 0.8272664
0.5256440 0.6910419 0.8287428
0.5317955 0.6935025 0.8302191
0.5379469 0.6959631 0.8316955
0.5440984 0.6984237 0.8331719
0.5502499 0.7008843 0.8346482
0.5564014 0.7033449 0.8361246
0.5625529 0.7058055 0.8376009
0.5687043 0.7082661 0.8390773
0.5748558 0.7107266 0.8405536
0.5810073 0.7131872 0.8420300
0.5871588 0.7156478 0.8435063
0.5933103 0.7181084 0.8449827
0.5994617 0.7205690 0.8464591
0.6056132 0.7230296 0.8479354
0.6117647 0.7254902 0.8494118
0.6179162 0.7279508 0.8508881
0.6240677 0.7304114 0.8523645
0.6302191 0.7328720 0.8538408
0.6363706 0.7353326 0.8553172
0.6425221 0.7377932 0.8567935
0.6486736 0.7402537 0.8582699
0.6542099 0.7427143 0.8596694
0.6593772 0.7451749 0.8610227
0.6645444 0.7476355 0.8623760
0.6697116 0.7500961 0.8637293
0.6748789 0.7525567 0.8650827
0.6800461 0.7550173 0.8664360
0.6852134 0.7574779 0.8677893
0.6903806 0.7599385 0.8691426
0.6955479 0.7623991 0.8704960
0.7007151 0.7648597 0.8718493
0.7058824 0.7673203 0.8732026
0.7110496 0.7697809 0.8745559
0.7162168 0.7722414 0.8759093
0.7213841 0.7747020 0.8772626
0.7265513 0.7771626 0.8786159
0.7317186 0.7796232 0.8799692
0.7368858 0.7820838 0.8813226
0.7420531 0.7845444 0.8826759
0.7472203 0.7870050 0.8840292
0.7523875 0.7894656 0.8853825
0.7575548 0.7919262 0.8867359
0.7627220 0.7943868 0.8880892
0.7678893 0.7968474 0.8894425
0.7730565 0.7993080 0.8907958
0.7782238 0.8017686 0.8921492
0.7833910 0.8042291 0.8935025
0.7885582 0.8066897 0.8948558
0.7937255 0.8091503 0.8962092
0.7988927 0.8116109 0.8975625
0.8040600 0.8140715 0.8989158
0.8092272 0.8165321 0.9002691
0.8143945 0.8189927 0.9016225
0.8182699 0.8216378 0.9030681
0.8217147 0.8243445 0.9045444
0.8251596 0.8270511 0.9060208
0.8286044 0.8297578 0.9074971
0.8320492 0.8324644 0.9089735
0.8354940 0.8351711 0.9104498
0.8389389 0.8378777 0.9119262
0.8423837 0.8405844 0.9134025
0.8458285 0.8432910 0.9148789
0.8492734 0.8459977 0.9163552
0.8527182 0.8487043 0.9178316
0.8561630 0.8514110 0.9193080
0.8596078 0.8541176 0.9207843
0.8630527 0.8568243 0.9222607
0.8664975 0.8595309 0.9237370
0.8699423 0.8622376 0.9252134
0.8733872 0.8649443 0.9266897
0.8768320 0.8676509 0.9281661
0.8802768 0.8703576 0.9296424
0.8837216 0.8730642 0.9311188
0.8871665 0.8757709 0.9325952
0.8906113 0.8784775 0.9340715
0.8940561 0.8811842 0.9355479
0.8975010 0.8838908 0.9370242
0.9009458 0.8865975 0.9385006
0.9043906 0.8893041 0.9399769
0.9078354 0.8920108 0.9414533
0.9112803 0.8947174 0.9429296
0.9147251 0.8974241 0.9444060
0.9181699 0.9001307 0.9458824
0.9216148 0.9028374 0.9473587
0.9250596 0.9055440 0.9488351
0.9275356 0.9076048 0.9499885
0.9298731 0.9095732 0.9510957
0.9322107 0.9115417 0.9522030
0.9345483 0.9135102 0.9533103
0.9368858 0.9154787 0.9544175
0.9392234 0.9174471 0.9555248
0.9415609 0.9194156 0.9566321
0.9438985 0.9213841 0.9577393
0.9462361 0.9233526 0.9588466
0.9485736 0.9253210 0.9599539
0.9509112 0.9272895 0.9610611
0.9532488 0.9292580 0.9621684
0.9555863 0.9312265 0.9632757
0.9579239 0.9331949 0.9643829
0.9602614 0.9351634 0.9654902
0.9625990 0.9371319 0.9665975
0.9649366 0.9391003 0.9677047
0.9672741 0.9410688 0.9688120
0.9696117 0.9430373 0.9699193
0.9719493 0.9450058 0.9710265
0.9742868 0.9469742 0.9721338
0.9766244 0.9489427 0.9732411
0.9789619 0.9509112 0.9743483
0.9812995 0.9528797 0.9754556
0.9836371 0.9548481 0.9765629
0.9859746 0.9568166 0.9776701
0.9883122 0.9587851 0.9787774
0.9906498 0.9607536 0.9798847
0.9929873 0.9627220 0.9809919
0.9953249 0.9646905 0.9820992
0.9976624 0.9666590 0.9832065
1.0000000 0.9686275 0.9843137
