posts/Davinci-Resolve-thermal-luts/colormaps-as-cube/PuOr_r.cube
TITLE "Colormap PuOr_r"
LUT_1D_SIZE 256
0.1764706 0.0000000 0.2941176
0.1824683 0.0059977 0.3034987
0.1884660 0.0119954 0.3128797
0.1944637 0.0179931 0.3222607
0.2004614 0.0239908 0.3316417
0.2064591 0.0299885 0.3410227
0.2124567 0.0359862 0.3504037
0.2184544 0.0419839 0.3597847
0.2244521 0.0479815 0.3691657
0.2304498 0.0539792 0.3785467
0.2364475 0.0599769 0.3879277
0.2424452 0.0659746 0.3973087
0.2484429 0.0719723 0.4066897
0.2544406 0.0779700 0.4160707
0.2604383 0.0839677 0.4254517
0.2664360 0.0899654 0.4348328
0.2724337 0.0959631 0.4442138
0.2784314 0.1019608 0.4535948
0.2844291 0.1079585 0.4629758
0.2904268 0.1139562 0.4723568
0.2964245 0.1199539 0.4817378
0.3024221 0.1259516 0.4911188
0.3084198 0.1319493 0.5004998
0.3144175 0.1379469 0.5098808
0.3204152 0.1439446 0.5192618
0.3264129 0.1499423 0.5286428
0.3327951 0.1587851 0.5361015
0.3395617 0.1704729 0.5416378
0.3463283 0.1821607 0.5471742
0.3530950 0.1938485 0.5527105
0.3598616 0.2055363 0.5582468
0.3666282 0.2172241 0.5637832
0.3733948 0.2289120 0.5693195
0.3801615 0.2405998 0.5748558
0.3869281 0.2522876 0.5803922
0.3936947 0.2639754 0.5859285
0.4004614 0.2756632 0.5914648
0.4072280 0.2873510 0.5970012
0.4139946 0.2990388 0.6025375
0.4207612 0.3107266 0.6080738
0.4275279 0.3224145 0.6136101
0.4342945 0.3341023 0.6191465
0.4410611 0.3457901 0.6246828
0.4478278 0.3574779 0.6302191
0.4545944 0.3691657 0.6357555
0.4613610 0.3808535 0.6412918
0.4681276 0.3925413 0.6468281
0.4748943 0.4042291 0.6523645
0.4816609 0.4159170 0.6579008
0.4884275 0.4276048 0.6634371
0.4951942 0.4392926 0.6689735
0.5019608 0.4509804 0.6745098
0.5096501 0.4595925 0.6803537
0.5173395 0.4682045 0.6861976
0.5250288 0.4768166 0.6920415
0.5327182 0.4854287 0.6978854
0.5404075 0.4940408 0.7037293
0.5480969 0.5026528 0.7095732
0.5557862 0.5112649 0.7154171
0.5634756 0.5198770 0.7212611
0.5711649 0.5284890 0.7271050
0.5788543 0.5371011 0.7329489
0.5865436 0.5457132 0.7387928
0.5942330 0.5543253 0.7446367
0.6019223 0.5629373 0.7504806
0.6096117 0.5715494 0.7563245
0.6173010 0.5801615 0.7621684
0.6249904 0.5887735 0.7680123
0.6326797 0.5973856 0.7738562
0.6403691 0.6059977 0.7797001
0.6480584 0.6146098 0.7855440
0.6557478 0.6232218 0.7913879
0.6634371 0.6318339 0.7972318
0.6711265 0.6404460 0.8030757
0.6788158 0.6490581 0.8089196
0.6865052 0.6576701 0.8147636
0.6941945 0.6662822 0.8206075
0.7009612 0.6742022 0.8254517
0.7068051 0.6814302 0.8292964
0.7126490 0.6886582 0.8331411
0.7184929 0.6958862 0.8369858
0.7243368 0.7031142 0.8408304
0.7301807 0.7103422 0.8446751
0.7360246 0.7175702 0.8485198
0.7418685 0.7247982 0.8523645
0.7477124 0.7320261 0.8562092
0.7535563 0.7392541 0.8600538
0.7594002 0.7464821 0.8638985
0.7652441 0.7537101 0.8677432
0.7710880 0.7609381 0.8715879
0.7769319 0.7681661 0.8754325
0.7827759 0.7753941 0.8792772
0.7886198 0.7826221 0.8831219
0.7944637 0.7898501 0.8869666
0.8003076 0.7970780 0.8908112
0.8061515 0.8043060 0.8946559
0.8119954 0.8115340 0.8985006
0.8178393 0.8187620 0.9023453
0.8236832 0.8259900 0.9061899
0.8295271 0.8332180 0.9100346
0.8353710 0.8404460 0.9138793
0.8412149 0.8476740 0.9177240
0.8470588 0.8549020 0.9215686
0.8518262 0.8593618 0.9234141
0.8565936 0.8638216 0.9252595
0.8613610 0.8682814 0.9271050
0.8661284 0.8727413 0.9289504
0.8708958 0.8772011 0.9307958
0.8756632 0.8816609 0.9326413
0.8804306 0.8861207 0.9344867
0.8851980 0.8905805 0.9363322
0.8899654 0.8950404 0.9381776
0.8947328 0.8995002 0.9400231
0.8995002 0.9039600 0.9418685
0.9042676 0.9084198 0.9437140
0.9090350 0.9128797 0.9455594
0.9138024 0.9173395 0.9474048
0.9185698 0.9217993 0.9492503
0.9233372 0.9262591 0.9510957
0.9281046 0.9307190 0.9529412
0.9328720 0.9351788 0.9547866
0.9376394 0.9396386 0.9566321
0.9424068 0.9440984 0.9584775
0.9471742 0.9485582 0.9603230
0.9519416 0.9530181 0.9621684
0.9567090 0.9574779 0.9640138
0.9614764 0.9619377 0.9658593
0.9662438 0.9663975 0.9677047
0.9691657 0.9668589 0.9636294
0.9702422 0.9633218 0.9536332
0.9713187 0.9597847 0.9436371
0.9723952 0.9562476 0.9336409
0.9734717 0.9527105 0.9236448
0.9745483 0.9491734 0.9136486
0.9756248 0.9456363 0.9036524
0.9767013 0.9420992 0.8936563
0.9777778 0.9385621 0.8836601
0.9788543 0.9350250 0.8736640
0.9799308 0.9314879 0.8636678
0.9810073 0.9279508 0.8536717
0.9820838 0.9244137 0.8436755
0.9831603 0.9208766 0.8336794
0.9842368 0.9173395 0.8236832
0.9853133 0.9138024 0.8136870
0.9863899 0.9102653 0.8036909
0.9874664 0.9067282 0.7936947
0.9885429 0.9031911 0.7836986
0.9896194 0.8996540 0.7737024
0.9906959 0.8961169 0.7637063
0.9917724 0.8925798 0.7537101
0.9928489 0.8890427 0.7437140
0.9939254 0.8855056 0.7337178
0.9950019 0.8819685 0.7237216
0.9960784 0.8784314 0.7137255
0.9959246 0.8722799 0.7009612
0.9957709 0.8661284 0.6881968
0.9956171 0.8599769 0.6754325
0.9954633 0.8538255 0.6626682
0.9953095 0.8476740 0.6499039
0.9951557 0.8415225 0.6371396
0.9950019 0.8353710 0.6243752
0.9948481 0.8292195 0.6116109
0.9946943 0.8230681 0.5988466
0.9945406 0.8169166 0.5860823
0.9943868 0.8107651 0.5733180
0.9942330 0.8046136 0.5605536
0.9940792 0.7984621 0.5477893
0.9939254 0.7923106 0.5350250
0.9937716 0.7861592 0.5222607
0.9936178 0.7800077 0.5094963
0.9934641 0.7738562 0.4967320
0.9933103 0.7677047 0.4839677
0.9931565 0.7615532 0.4712034
0.9930027 0.7554018 0.4584391
0.9928489 0.7492503 0.4456747
0.9926951 0.7430988 0.4329104
0.9925413 0.7369473 0.4201461
0.9923875 0.7307958 0.4073818
0.9922338 0.7246444 0.3946175
0.9899270 0.7174164 0.3821607
0.9854671 0.7091119 0.3700115
0.9810073 0.7008074 0.3578624
0.9765475 0.6925029 0.3457132
0.9720877 0.6841984 0.3335640
0.9676278 0.6758939 0.3214148
0.9631680 0.6675894 0.3092657
0.9587082 0.6592849 0.2971165
0.9542484 0.6509804 0.2849673
0.9497885 0.6426759 0.2728181
0.9453287 0.6343714 0.2606690
0.9408689 0.6260669 0.2485198
0.9364091 0.6177624 0.2363706
0.9319493 0.6094579 0.2242215
0.9274894 0.6011534 0.2120723
0.9230296 0.5928489 0.1999231
0.9185698 0.5845444 0.1877739
0.9141100 0.5762399 0.1756248
0.9096501 0.5679354 0.1634756
0.9051903 0.5596309 0.1513264
0.9007305 0.5513264 0.1391772
0.8962707 0.5430219 0.1270281
0.8918108 0.5347174 0.1148789
0.8873510 0.5264129 0.1027297
0.8828912 0.5181084 0.0905805
0.8784314 0.5098039 0.0784314
0.8715110 0.5033449 0.0762784
0.8645905 0.4968858 0.0741253
0.8576701 0.4904268 0.0719723
0.8507497 0.4839677 0.0698193
0.8438293 0.4775087 0.0676663
0.8369089 0.4710496 0.0655133
0.8299885 0.4645905 0.0633602
0.8230681 0.4581315 0.0612072
0.8161476 0.4516724 0.0590542
0.8092272 0.4452134 0.0569012
0.8023068 0.4387543 0.0547482
0.7953864 0.4322953 0.0525952
0.7884660 0.4258362 0.0504421
0.7815456 0.4193772 0.0482891
0.7746251 0.4129181 0.0461361
0.7677047 0.4064591 0.0439831
0.7607843 0.4000000 0.0418301
0.7538639 0.3935409 0.0396770
0.7469435 0.3870819 0.0375240
0.7400231 0.3806228 0.0353710
0.7331027 0.3741638 0.0332180
0.7261822 0.3677047 0.0310650
0.7192618 0.3612457 0.0289120
0.7123414 0.3547866 0.0267589
0.7054210 0.3483276 0.0246059
0.6979623 0.3428681 0.0236832
0.6899654 0.3384083 0.0239908
0.6819685 0.3339485 0.0242983
0.6739715 0.3294887 0.0246059
0.6659746 0.3250288 0.0249135
0.6579777 0.3205690 0.0252211
0.6499808 0.3161092 0.0255286
0.6419839 0.3116494 0.0258362
0.6339869 0.3071895 0.0261438
0.6259900 0.3027297 0.0264514
0.6179931 0.2982699 0.0267589
0.6099962 0.2938101 0.0270665
0.6019992 0.2893502 0.0273741
0.5940023 0.2848904 0.0276817
0.5860054 0.2804306 0.0279892
0.5780085 0.2759708 0.0282968
0.5700115 0.2715110 0.0286044
0.5620146 0.2670511 0.0289120
0.5540177 0.2625913 0.0292195
0.5460208 0.2581315 0.0295271
0.5380238 0.2536717 0.0298347
0.5300269 0.2492118 0.0301423
0.5220300 0.2447520 0.0304498
0.5140331 0.2402922 0.0307574
0.5060361 0.2358324 0.0310650
0.4980392 0.2313725 0.0313725
