posts/Davinci-Resolve-thermal-luts/colormaps-as-cube/PuRd_r.cube
TITLE "Colormap PuRd_r"
LUT_1D_SIZE 256
0.4039216 0.0000000 0.1215686
0.4099500 0.0000000 0.1259977
0.4159785 0.0000000 0.1304268
0.4220069 0.0000000 0.1348558
0.4280354 0.0000000 0.1392849
0.4340638 0.0000000 0.1437140
0.4400923 0.0000000 0.1481430
0.4461207 0.0000000 0.1525721
0.4521492 0.0000000 0.1570012
0.4581776 0.0000000 0.1614302
0.4642061 0.0000000 0.1658593
0.4702345 0.0000000 0.1702884
0.4762630 0.0000000 0.1747174
0.4822914 0.0000000 0.1791465
0.4883199 0.0000000 0.1835755
0.4943483 0.0000000 0.1880046
0.5003768 0.0000000 0.1924337
0.5064052 0.0000000 0.1968627
0.5124337 0.0000000 0.2012918
0.5184621 0.0000000 0.2057209
0.5244906 0.0000000 0.2101499
0.5305190 0.0000000 0.2145790
0.5365475 0.0000000 0.2190081
0.5425759 0.0000000 0.2234371
0.5486044 0.0000000 0.2278662
0.5546328 0.0000000 0.2322953
0.5606613 0.0000000 0.2367243
0.5666897 0.0000000 0.2411534
0.5727182 0.0000000 0.2455825
0.5787466 0.0000000 0.2500115
0.5847751 0.0000000 0.2544406
0.5908035 0.0000000 0.2588697
0.5969089 0.0002768 0.2630373
0.6035525 0.0024913 0.2653749
0.6101961 0.0047059 0.2677124
0.6168397 0.0069204 0.2700500
0.6234833 0.0091349 0.2723875
0.6301269 0.0113495 0.2747251
0.6367705 0.0135640 0.2770627
0.6434141 0.0157785 0.2794002
0.6500577 0.0179931 0.2817378
0.6567013 0.0202076 0.2840754
0.6633449 0.0224221 0.2864129
0.6699885 0.0246367 0.2887505
0.6766321 0.0268512 0.2910880
0.6832757 0.0290657 0.2934256
0.6899193 0.0312803 0.2957632
0.6965629 0.0334948 0.2981007
0.7032065 0.0357093 0.3004383
0.7098501 0.0379239 0.3027759
0.7164937 0.0401384 0.3051134
0.7231373 0.0423529 0.3074510
0.7297809 0.0445675 0.3097885
0.7364245 0.0467820 0.3121261
0.7430681 0.0489965 0.3144637
0.7497116 0.0512111 0.3168012
0.7563552 0.0534256 0.3191388
0.7629988 0.0556401 0.3214764
0.7696424 0.0578547 0.3238139
0.7762860 0.0600692 0.3261515
0.7829296 0.0622837 0.3284890
0.7895732 0.0644983 0.3308266
0.7962168 0.0667128 0.3331642
0.8028604 0.0689273 0.3355017
0.8086121 0.0712957 0.3388543
0.8116878 0.0741253 0.3452518
0.8147636 0.0769550 0.3516494
0.8178393 0.0797847 0.3580469
0.8209150 0.0826144 0.3644444
0.8239908 0.0854441 0.3708420
0.8270665 0.0882737 0.3772395
0.8301423 0.0911034 0.3836371
0.8332180 0.0939331 0.3900346
0.8362937 0.0967628 0.3964321
0.8393695 0.0995925 0.4028297
0.8424452 0.1024221 0.4092272
0.8455210 0.1052518 0.4156248
0.8485967 0.1080815 0.4220223
0.8516724 0.1109112 0.4284198
0.8547482 0.1137409 0.4348174
0.8578239 0.1165705 0.4412149
0.8608997 0.1194002 0.4476125
0.8639754 0.1222299 0.4540100
0.8670511 0.1250596 0.4604075
0.8701269 0.1278893 0.4668051
0.8732026 0.1307190 0.4732026
0.8762784 0.1335486 0.4796002
0.8793541 0.1363783 0.4859977
0.8824298 0.1392080 0.4923952
0.8855056 0.1420377 0.4987928
0.8885813 0.1448674 0.5051903
0.8916571 0.1476970 0.5115879
0.8947328 0.1505267 0.5179854
0.8978085 0.1533564 0.5243829
0.9008843 0.1561861 0.5307805
0.9039600 0.1590158 0.5371780
0.9055133 0.1635525 0.5429296
0.9045290 0.1709343 0.5476048
0.9035448 0.1783160 0.5522799
0.9025606 0.1856978 0.5569550
0.9015763 0.1930796 0.5616301
0.9005921 0.2004614 0.5663053
0.8996078 0.2078431 0.5709804
0.8986236 0.2152249 0.5756555
0.8976394 0.2226067 0.5803306
0.8966551 0.2299885 0.5850058
0.8956709 0.2373702 0.5896809
0.8946867 0.2447520 0.5943560
0.8937024 0.2521338 0.5990311
0.8927182 0.2595156 0.6037063
0.8917339 0.2668973 0.6083814
0.8907497 0.2742791 0.6130565
0.8897655 0.2816609 0.6177316
0.8887812 0.2890427 0.6224068
0.8877970 0.2964245 0.6270819
0.8868128 0.3038062 0.6317570
0.8858285 0.3111880 0.6364321
0.8848443 0.3185698 0.6411073
0.8838601 0.3259516 0.6457824
0.8828758 0.3333333 0.6504575
0.8818916 0.3407151 0.6551326
0.8809073 0.3480969 0.6598078
0.8799231 0.3554787 0.6644829
0.8789389 0.3628604 0.6691580
0.8779546 0.3702422 0.6738331
0.8769704 0.3776240 0.6785083
0.8759862 0.3850058 0.6831834
0.8750019 0.3923875 0.6878585
0.8731565 0.3989696 0.6916109
0.8704498 0.4047520 0.6944406
0.8677432 0.4105344 0.6972703
0.8650365 0.4163168 0.7001000
0.8623299 0.4220992 0.7029296
0.8596232 0.4278816 0.7057593
0.8569166 0.4336640 0.7085890
0.8542099 0.4394464 0.7114187
0.8515033 0.4452288 0.7142484
0.8487966 0.4510111 0.7170780
0.8460900 0.4567935 0.7199077
0.8433833 0.4625759 0.7227374
0.8406767 0.4683583 0.7255671
0.8379700 0.4741407 0.7283968
0.8352634 0.4799231 0.7312265
0.8325567 0.4857055 0.7340561
0.8298501 0.4914879 0.7368858
0.8271434 0.4972703 0.7397155
0.8244368 0.5030527 0.7425452
0.8217301 0.5088351 0.7453749
0.8190235 0.5146175 0.7482045
0.8163168 0.5203998 0.7510342
0.8136101 0.5261822 0.7538639
0.8109035 0.5319646 0.7566936
0.8081968 0.5377470 0.7595233
0.8054902 0.5435294 0.7623529
0.8027835 0.5493118 0.7651826
0.8000769 0.5550942 0.7680123
0.7973702 0.5608766 0.7708420
0.7946636 0.5666590 0.7736717
0.7919569 0.5724414 0.7765013
0.7892503 0.5782238 0.7793310
0.7890811 0.5832372 0.7818531
0.7904344 0.5877893 0.7841907
0.7917878 0.5923414 0.7865283
0.7931411 0.5968935 0.7888658
0.7944944 0.6014456 0.7912034
0.7958478 0.6059977 0.7935409
0.7972011 0.6105498 0.7958785
0.7985544 0.6151019 0.7982161
0.7999077 0.6196540 0.8005536
0.8012611 0.6242061 0.8028912
0.8026144 0.6287582 0.8052288
0.8039677 0.6333103 0.8075663
0.8053210 0.6378624 0.8099039
0.8066744 0.6424145 0.8122414
0.8080277 0.6469666 0.8145790
0.8093810 0.6515186 0.8169166
0.8107343 0.6560707 0.8192541
0.8120877 0.6606228 0.8215917
0.8134410 0.6651749 0.8239293
0.8147943 0.6697270 0.8262668
0.8161476 0.6742791 0.8286044
0.8175010 0.6788312 0.8309419
0.8188543 0.6833833 0.8332795
0.8202076 0.6879354 0.8356171
0.8215609 0.6924875 0.8379546
0.8229143 0.6970396 0.8402922
0.8242676 0.7015917 0.8426298
0.8256209 0.7061438 0.8449673
0.8269742 0.7106959 0.8473049
0.8283276 0.7152480 0.8496424
0.8296809 0.7198001 0.8519800
0.8310342 0.7243522 0.8543176
0.8331257 0.7291811 0.8568397
0.8354633 0.7341023 0.8594233
0.8378008 0.7390235 0.8620069
0.8401384 0.7439446 0.8645905
0.8424760 0.7488658 0.8671742
0.8448135 0.7537870 0.8697578
0.8471511 0.7587082 0.8723414
0.8494887 0.7636294 0.8749250
0.8518262 0.7685506 0.8775087
0.8541638 0.7734717 0.8800923
0.8565013 0.7783929 0.8826759
0.8588389 0.7833141 0.8852595
0.8611765 0.7882353 0.8878431
0.8635140 0.7931565 0.8904268
0.8658516 0.7980777 0.8930104
0.8681892 0.8029988 0.8955940
0.8705267 0.8079200 0.8981776
0.8728643 0.8128412 0.9007612
0.8752018 0.8177624 0.9033449
0.8775394 0.8226836 0.9059285
0.8798770 0.8276048 0.9085121
0.8822145 0.8325260 0.9110957
0.8845521 0.8374471 0.9136794
0.8868897 0.8423683 0.9162630
0.8892272 0.8472895 0.9188466
0.8915648 0.8522107 0.9214302
0.8939023 0.8571319 0.9240138
0.8962399 0.8620531 0.9265975
0.8985775 0.8669742 0.9291811
0.9009150 0.8718954 0.9317647
0.9032526 0.8768166 0.9343483
0.9055902 0.8817378 0.9369319
0.9076048 0.8843983 0.9383314
0.9095732 0.8867359 0.9395617
0.9115417 0.8890734 0.9407920
0.9135102 0.8914110 0.9420223
0.9154787 0.8937486 0.9432526
0.9174471 0.8960861 0.9444829
0.9194156 0.8984237 0.9457132
0.9213841 0.9007612 0.9469435
0.9233526 0.9030988 0.9481738
0.9253210 0.9054364 0.9494041
0.9272895 0.9077739 0.9506344
0.9292580 0.9101115 0.9518647
0.9312265 0.9124491 0.9530950
0.9331949 0.9147866 0.9543253
0.9351634 0.9171242 0.9555556
0.9371319 0.9194617 0.9567859
0.9391003 0.9217993 0.9580161
0.9410688 0.9241369 0.9592464
0.9430373 0.9264744 0.9604767
0.9450058 0.9288120 0.9617070
0.9469742 0.9311496 0.9629373
0.9489427 0.9334871 0.9641676
0.9509112 0.9358247 0.9653979
0.9528797 0.9381622 0.9666282
0.9548481 0.9404998 0.9678585
0.9568166 0.9428374 0.9690888
0.9587851 0.9451749 0.9703191
0.9607536 0.9475125 0.9715494
0.9627220 0.9498501 0.9727797
0.9646905 0.9521876 0.9740100
0.9666590 0.9545252 0.9752403
0.9686275 0.9568627 0.9764706
