posts/Davinci-Resolve-thermal-luts/colormaps-as-cube/Purples.cube
TITLE "Colormap Purples"
LUT_1D_SIZE 256
0.9882353 0.9843137 0.9921569
0.9866359 0.9825913 0.9911726
0.9850365 0.9808689 0.9901884
0.9834371 0.9791465 0.9892042
0.9818378 0.9774241 0.9882199
0.9802384 0.9757017 0.9872357
0.9786390 0.9739792 0.9862514
0.9770396 0.9722568 0.9852672
0.9754402 0.9705344 0.9842830
0.9738408 0.9688120 0.9832987
0.9722414 0.9670896 0.9823145
0.9706421 0.9653672 0.9813303
0.9690427 0.9636448 0.9803460
0.9674433 0.9619223 0.9793618
0.9658439 0.9601999 0.9783775
0.9642445 0.9584775 0.9773933
0.9626451 0.9567551 0.9764091
0.9610458 0.9550327 0.9754248
0.9594464 0.9533103 0.9744406
0.9578470 0.9515879 0.9734564
0.9562476 0.9498654 0.9724721
0.9546482 0.9481430 0.9714879
0.9530488 0.9464206 0.9705037
0.9514494 0.9446982 0.9695194
0.9498501 0.9429758 0.9685352
0.9482507 0.9412534 0.9675509
0.9466513 0.9395309 0.9665667
0.9450519 0.9378085 0.9655825
0.9434525 0.9360861 0.9645982
0.9418531 0.9343637 0.9636140
0.9402537 0.9326413 0.9626298
0.9386544 0.9309189 0.9616455
0.9369319 0.9291196 0.9606305
0.9343483 0.9267820 0.9594002
0.9317647 0.9244444 0.9581699
0.9291811 0.9221069 0.9569396
0.9265975 0.9197693 0.9557093
0.9240138 0.9174318 0.9544790
0.9214302 0.9150942 0.9532488
0.9188466 0.9127566 0.9520185
0.9162630 0.9104191 0.9507882
0.9136794 0.9080815 0.9495579
0.9110957 0.9057439 0.9483276
0.9085121 0.9034064 0.9470973
0.9059285 0.9010688 0.9458670
0.9033449 0.8987313 0.9446367
0.9007612 0.8963937 0.9434064
0.8981776 0.8940561 0.9421761
0.8955940 0.8917186 0.9409458
0.8930104 0.8893810 0.9397155
0.8904268 0.8870434 0.9384852
0.8878431 0.8847059 0.9372549
0.8852595 0.8823683 0.9360246
0.8826759 0.8800308 0.9347943
0.8800923 0.8776932 0.9335640
0.8775087 0.8753556 0.9323337
0.8749250 0.8730181 0.9311034
0.8723414 0.8706805 0.9298731
0.8697578 0.8683429 0.9286428
0.8671742 0.8660054 0.9274125
0.8645905 0.8636678 0.9261822
0.8620069 0.8613303 0.9249519
0.8594233 0.8589927 0.9237216
0.8568397 0.8566551 0.9224913
0.8539792 0.8540100 0.9211073
0.8502884 0.8504421 0.9192618
0.8465975 0.8468743 0.9174164
0.8429066 0.8433064 0.9155709
0.8392157 0.8397386 0.9137255
0.8355248 0.8361707 0.9118800
0.8318339 0.8326028 0.9100346
0.8281430 0.8290350 0.9081892
0.8244521 0.8254671 0.9063437
0.8207612 0.8218993 0.9044983
0.8170704 0.8183314 0.9026528
0.8133795 0.8147636 0.9008074
0.8096886 0.8111957 0.8989619
0.8059977 0.8076278 0.8971165
0.8023068 0.8040600 0.8952710
0.7986159 0.8004921 0.8934256
0.7949250 0.7969243 0.8915802
0.7912341 0.7933564 0.8897347
0.7875433 0.7897885 0.8878893
0.7838524 0.7862207 0.8860438
0.7801615 0.7826528 0.8841984
0.7764706 0.7790850 0.8823529
0.7727797 0.7755171 0.8805075
0.7690888 0.7719493 0.8786621
0.7653979 0.7683814 0.8768166
0.7617070 0.7648135 0.8749712
0.7580161 0.7612457 0.8731257
0.7543253 0.7576778 0.8712803
0.7506344 0.7541100 0.8694348
0.7469435 0.7505421 0.8675894
0.7432526 0.7469742 0.8657439
0.7395617 0.7434064 0.8638985
0.7358708 0.7395617 0.8618224
0.7321799 0.7352557 0.8593618
0.7284890 0.7309496 0.8569012
0.7247982 0.7266436 0.8544406
0.7211073 0.7223376 0.8519800
0.7174164 0.7180315 0.8495194
0.7137255 0.7137255 0.8470588
0.7100346 0.7094195 0.8445982
0.7063437 0.7051134 0.8421376
0.7026528 0.7008074 0.8396770
0.6989619 0.6965013 0.8372165
0.6952710 0.6921953 0.8347559
0.6915802 0.6878893 0.8322953
0.6878893 0.6835832 0.8298347
0.6841984 0.6792772 0.8273741
0.6805075 0.6749712 0.8249135
0.6768166 0.6706651 0.8224529
0.6731257 0.6663591 0.8199923
0.6694348 0.6620531 0.8175317
0.6657439 0.6577470 0.8150711
0.6620531 0.6534410 0.8126105
0.6583622 0.6491349 0.8101499
0.6546713 0.6448289 0.8076894
0.6509804 0.6405229 0.8052288
0.6472895 0.6362168 0.8027682
0.6435986 0.6319108 0.8003076
0.6399077 0.6276048 0.7978470
0.6362168 0.6232987 0.7953864
0.6325260 0.6189927 0.7929258
0.6288351 0.6146867 0.7904652
0.6251442 0.6103806 0.7880046
0.6214533 0.6060746 0.7855440
0.6177624 0.6021376 0.7834525
0.6140715 0.5985698 0.7817301
0.6103806 0.5950019 0.7800077
0.6066897 0.5914341 0.7782853
0.6029988 0.5878662 0.7765629
0.5993080 0.5842983 0.7748404
0.5956171 0.5807305 0.7731180
0.5919262 0.5771626 0.7713956
0.5882353 0.5735948 0.7696732
0.5845444 0.5700269 0.7679508
0.5808535 0.5664591 0.7662284
0.5771626 0.5628912 0.7645060
0.5734717 0.5593233 0.7627835
0.5697809 0.5557555 0.7610611
0.5660900 0.5521876 0.7593387
0.5623991 0.5486198 0.7576163
0.5587082 0.5450519 0.7558939
0.5550173 0.5414840 0.7541715
0.5513264 0.5379162 0.7524491
0.5476355 0.5343483 0.7507266
0.5439446 0.5307805 0.7490042
0.5402537 0.5272126 0.7472818
0.5365629 0.5236448 0.7455594
0.5328720 0.5200769 0.7438370
0.5291811 0.5165090 0.7421146
0.5254902 0.5129412 0.7403922
0.5217993 0.5093733 0.7386697
0.5181084 0.5058055 0.7369473
0.5144175 0.5022376 0.7352249
0.5107266 0.4986697 0.7335025
0.5070358 0.4951019 0.7317801
0.5033449 0.4915340 0.7300577
0.5002691 0.4868128 0.7276432
0.4975625 0.4813995 0.7248135
0.4948558 0.4759862 0.7219839
0.4921492 0.4705729 0.7191542
0.4894425 0.4651596 0.7163245
0.4867359 0.4597463 0.7134948
0.4840292 0.4543329 0.7106651
0.4813226 0.4489196 0.7078354
0.4786159 0.4435063 0.7050058
0.4759093 0.4380930 0.7021761
0.4732026 0.4326797 0.6993464
0.4704960 0.4272664 0.6965167
0.4677893 0.4218531 0.6936870
0.4650827 0.4164398 0.6908574
0.4623760 0.4110265 0.6880277
0.4596694 0.4056132 0.6851980
0.4569627 0.4001999 0.6823683
0.4542561 0.3947866 0.6795386
0.4515494 0.3893733 0.6767090
0.4488428 0.3839600 0.6738793
0.4461361 0.3785467 0.6710496
0.4434295 0.3731334 0.6682199
0.4407228 0.3677201 0.6653902
0.4380161 0.3623068 0.6625606
0.4353095 0.3568935 0.6597309
0.4326028 0.3514802 0.6569012
0.4298962 0.3460669 0.6540715
0.4271895 0.3406536 0.6512418
0.4244829 0.3352403 0.6484121
0.4217762 0.3298270 0.6455825
0.4190696 0.3244137 0.6427528
0.4163629 0.3190004 0.6399231
0.4136563 0.3137716 0.6373702
0.4109496 0.3086044 0.6349097
0.4082430 0.3034371 0.6324491
0.4055363 0.2982699 0.6299885
0.4028297 0.2931027 0.6275279
0.4001230 0.2879354 0.6250673
0.3974164 0.2827682 0.6226067
0.3947097 0.2776009 0.6201461
0.3920031 0.2724337 0.6176855
0.3892964 0.2672664 0.6152249
0.3865898 0.2620992 0.6127643
0.3838831 0.2569319 0.6103037
0.3811765 0.2517647 0.6078431
0.3784698 0.2465975 0.6053825
0.3757632 0.2414302 0.6029220
0.3730565 0.2362630 0.6004614
0.3703499 0.2310957 0.5980008
0.3676432 0.2259285 0.5955402
0.3649366 0.2207612 0.5930796
0.3622299 0.2155940 0.5906190
0.3595233 0.2104268 0.5881584
0.3568166 0.2052595 0.5856978
0.3541100 0.2000923 0.5832372
0.3514033 0.1949250 0.5807766
0.3486967 0.1897578 0.5783160
0.3459900 0.1845905 0.5758554
0.3432834 0.1794233 0.5733948
0.3405767 0.1742561 0.5709343
0.3378700 0.1690888 0.5684737
0.3351634 0.1639216 0.5660131
0.3324567 0.1587543 0.5635525
0.3297501 0.1535871 0.5610919
0.3271511 0.1487428 0.5588466
0.3245675 0.1439446 0.5566321
0.3219839 0.1391465 0.5544175
0.3194002 0.1343483 0.5522030
0.3168166 0.1295502 0.5499885
0.3142330 0.1247520 0.5477739
0.3116494 0.1199539 0.5455594
0.3090657 0.1151557 0.5433449
0.3064821 0.1103576 0.5411303
0.3038985 0.1055594 0.5389158
0.3013149 0.1007612 0.5367013
0.2987313 0.0959631 0.5344867
0.2961476 0.0911649 0.5322722
0.2935640 0.0863668 0.5300577
0.2909804 0.0815686 0.5278431
0.2883968 0.0767705 0.5256286
0.2858131 0.0719723 0.5234141
0.2832295 0.0671742 0.5211995
0.2806459 0.0623760 0.5189850
0.2780623 0.0575779 0.5167705
0.2754787 0.0527797 0.5145559
0.2728950 0.0479815 0.5123414
0.2703114 0.0431834 0.5101269
0.2677278 0.0383852 0.5079123
0.2651442 0.0335871 0.5056978
0.2625606 0.0287889 0.5034833
0.2599769 0.0239908 0.5012687
0.2573933 0.0191926 0.4990542
0.2548097 0.0143945 0.4968397
0.2522261 0.0095963 0.4946251
0.2496424 0.0047982 0.4924106
0.2470588 0.0000000 0.4901961
