posts/Davinci-Resolve-thermal-luts/colormaps-as-cube/rainbow_r.cube
TITLE "Colormap rainbow_r"
LUT_1D_SIZE 256
1.0000000 0.0000000 0.0000000
1.0000000 0.0123197 0.0061599
1.0000000 0.0246374 0.0123197
1.0000000 0.0369515 0.0184789
1.0000000 0.0492599 0.0246374
1.0000000 0.0615609 0.0307951
1.0000000 0.0738525 0.0369515
1.0000000 0.0861329 0.0431065
1.0000000 0.0984003 0.0492599
1.0000000 0.1106527 0.0554115
1.0000000 0.1228883 0.0615609
1.0000000 0.1351052 0.0677080
1.0000000 0.1473017 0.0738525
1.0000000 0.1594758 0.0799943
1.0000000 0.1716257 0.0861329
1.0000000 0.1837495 0.0922684
1.0000000 0.1958455 0.0984003
1.0000000 0.2079117 0.1045285
1.0000000 0.2199464 0.1106527
1.0000000 0.2319476 0.1167727
1.0000000 0.2439137 0.1228883
1.0000000 0.2558428 0.1289992
1.0000000 0.2677330 0.1351052
1.0000000 0.2795826 0.1412062
1.0000000 0.2913897 0.1473017
1.0000000 0.3031527 0.1533917
1.0000000 0.3148696 0.1594758
1.0000000 0.3265387 0.1655539
1.0000000 0.3381583 0.1716257
1.0000000 0.3497265 0.1776910
1.0000000 0.3612417 0.1837495
1.0000000 0.3727020 0.1898011
1.0000000 0.3841057 0.1958455
1.0000000 0.3954512 0.2018824
1.0000000 0.4067366 0.2079117
1.0000000 0.4179603 0.2139331
1.0000000 0.4291206 0.2199464
1.0000000 0.4402157 0.2259513
1.0000000 0.4512441 0.2319476
1.0000000 0.4622039 0.2379352
1.0000000 0.4730936 0.2439137
1.0000000 0.4839114 0.2498830
1.0000000 0.4946558 0.2558428
1.0000000 0.5053252 0.2617929
1.0000000 0.5159178 0.2677330
1.0000000 0.5264322 0.2736630
1.0000000 0.5368666 0.2795826
1.0000000 0.5472195 0.2854916
1.0000000 0.5574894 0.2913897
1.0000000 0.5676747 0.2972769
1.0000000 0.5777738 0.3031527
1.0000000 0.5877853 0.3090170
1.0000000 0.5977075 0.3148696
1.0000000 0.6075389 0.3207102
1.0000000 0.6172782 0.3265387
1.0000000 0.6269238 0.3323548
1.0000000 0.6364742 0.3381583
1.0000000 0.6459281 0.3439489
1.0000000 0.6552839 0.3497265
1.0000000 0.6645402 0.3554908
1.0000000 0.6736956 0.3612417
1.0000000 0.6827489 0.3669788
1.0000000 0.6916984 0.3727020
1.0000000 0.7005430 0.3784111
0.9980392 0.7092813 0.3841057
0.9901961 0.7179119 0.3897859
0.9823529 0.7264336 0.3954512
0.9745098 0.7348450 0.4011015
0.9666667 0.7431448 0.4067366
0.9588235 0.7513319 0.4123563
0.9509804 0.7594049 0.4179603
0.9431373 0.7673627 0.4235485
0.9352941 0.7752040 0.4291206
0.9274510 0.7829276 0.4346764
0.9196078 0.7905324 0.4402157
0.9117647 0.7980172 0.4457384
0.9039216 0.8053809 0.4512441
0.8960784 0.8126224 0.4567326
0.8882353 0.8197405 0.4622039
0.8803922 0.8267342 0.4676576
0.8725490 0.8336024 0.4730936
0.8647059 0.8403441 0.4785116
0.8568627 0.8469582 0.4839114
0.8490196 0.8534438 0.4892929
0.8411765 0.8597999 0.4946558
0.8333333 0.8660254 0.5000000
0.8254902 0.8721195 0.5053252
0.8176471 0.8780812 0.5106312
0.8098039 0.8839097 0.5159178
0.8019608 0.8896040 0.5211849
0.7941176 0.8951633 0.5264322
0.7862745 0.9005867 0.5316595
0.7784314 0.9058734 0.5368666
0.7705882 0.9110226 0.5420534
0.7627451 0.9160336 0.5472195
0.7549020 0.9209055 0.5523650
0.7470588 0.9256377 0.5574894
0.7392157 0.9302293 0.5625928
0.7313725 0.9346798 0.5676747
0.7235294 0.9389884 0.5727351
0.7156863 0.9431544 0.5777738
0.7078431 0.9471774 0.5827906
0.7000000 0.9510565 0.5877853
0.6921569 0.9547913 0.5927576
0.6843137 0.9583812 0.5977075
0.6764706 0.9618256 0.6026346
0.6686275 0.9651241 0.6075389
0.6607843 0.9682760 0.6124202
0.6529412 0.9712810 0.6172782
0.6450980 0.9741386 0.6221128
0.6372549 0.9768483 0.6269238
0.6294118 0.9794098 0.6317110
0.6215686 0.9818226 0.6364742
0.6137255 0.9840863 0.6412133
0.6058824 0.9862007 0.6459281
0.5980392 0.9881655 0.6506183
0.5901961 0.9899802 0.6552839
0.5823529 0.9916447 0.6599245
0.5745098 0.9931587 0.6645402
0.5666667 0.9945219 0.6691306
0.5588235 0.9957342 0.6736956
0.5509804 0.9967953 0.6782351
0.5431373 0.9977052 0.6827489
0.5352941 0.9984636 0.6872367
0.5274510 0.9990705 0.6916984
0.5196078 0.9995257 0.6961339
0.5117647 0.9998293 0.7005430
0.5039216 0.9999810 0.7049255
0.4960784 0.9999810 0.7092813
0.4882353 0.9998293 0.7136102
0.4803922 0.9995257 0.7179119
0.4725490 0.9990705 0.7221865
0.4647059 0.9984636 0.7264336
0.4568627 0.9977052 0.7306531
0.4490196 0.9967953 0.7348450
0.4411765 0.9957342 0.7390089
0.4333333 0.9945219 0.7431448
0.4254902 0.9931587 0.7472525
0.4176471 0.9916447 0.7513319
0.4098039 0.9899802 0.7553827
0.4019608 0.9881655 0.7594049
0.3941176 0.9862007 0.7633983
0.3862745 0.9840863 0.7673627
0.3784314 0.9818226 0.7712980
0.3705882 0.9794098 0.7752040
0.3627451 0.9768483 0.7790806
0.3549020 0.9741386 0.7829276
0.3470588 0.9712810 0.7867449
0.3392157 0.9682760 0.7905324
0.3313725 0.9651241 0.7942899
0.3235294 0.9618256 0.7980172
0.3156863 0.9583812 0.8017143
0.3078431 0.9547913 0.8053809
0.3000000 0.9510565 0.8090170
0.2921569 0.9471774 0.8126224
0.2843137 0.9431544 0.8161969
0.2764706 0.9389884 0.8197405
0.2686275 0.9346798 0.8232529
0.2607843 0.9302293 0.8267342
0.2529412 0.9256377 0.8301840
0.2450980 0.9209055 0.8336024
0.2372549 0.9160336 0.8369891
0.2294118 0.9110226 0.8403441
0.2215686 0.9058734 0.8436671
0.2137255 0.9005867 0.8469582
0.2058824 0.8951633 0.8502171
0.1980392 0.8896040 0.8534438
0.1901961 0.8839097 0.8566381
0.1823529 0.8780812 0.8597999
0.1745098 0.8721195 0.8629290
0.1666667 0.8660254 0.8660254
0.1588235 0.8597999 0.8690889
0.1509804 0.8534438 0.8721195
0.1431373 0.8469582 0.8751170
0.1352941 0.8403441 0.8780812
0.1274510 0.8336024 0.8810122
0.1196078 0.8267342 0.8839097
0.1117647 0.8197405 0.8867737
0.1039216 0.8126224 0.8896040
0.0960784 0.8053809 0.8924006
0.0882353 0.7980172 0.8951633
0.0803922 0.7905324 0.8978920
0.0725490 0.7829276 0.9005867
0.0647059 0.7752040 0.9032472
0.0568627 0.7673627 0.9058734
0.0490196 0.7594049 0.9084653
0.0411765 0.7513319 0.9110226
0.0333333 0.7431448 0.9135455
0.0254902 0.7348450 0.9160336
0.0176471 0.7264336 0.9184870
0.0098039 0.7179119 0.9209055
0.0019608 0.7092813 0.9232891
0.0058824 0.7005430 0.9256377
0.0137255 0.6916984 0.9279511
0.0215686 0.6827489 0.9302293
0.0294118 0.6736956 0.9324722
0.0372549 0.6645402 0.9346798
0.0450980 0.6552839 0.9368518
0.0529412 0.6459281 0.9389884
0.0607843 0.6364742 0.9410893
0.0686275 0.6269238 0.9431544
0.0764706 0.6172782 0.9451838
0.0843137 0.6075389 0.9471774
0.0921569 0.5977075 0.9491349
0.1000000 0.5877853 0.9510565
0.1078431 0.5777738 0.9529420
0.1156863 0.5676747 0.9547913
0.1235294 0.5574894 0.9566044
0.1313725 0.5472195 0.9583812
0.1392157 0.5368666 0.9601216
0.1470588 0.5264322 0.9618256
0.1549020 0.5159178 0.9634931
0.1627451 0.5053252 0.9651241
0.1705882 0.4946558 0.9667184
0.1784314 0.4839114 0.9682760
0.1862745 0.4730936 0.9697969
0.1941176 0.4622039 0.9712810
0.2019608 0.4512441 0.9727283
0.2098039 0.4402157 0.9741386
0.2176471 0.4291206 0.9755120
0.2254902 0.4179603 0.9768483
0.2333333 0.4067366 0.9781476
0.2411765 0.3954512 0.9794098
0.2490196 0.3841057 0.9806348
0.2568627 0.3727020 0.9818226
0.2647059 0.3612417 0.9829731
0.2725490 0.3497265 0.9840863
0.2803922 0.3381583 0.9851622
0.2882353 0.3265387 0.9862007
0.2960784 0.3148696 0.9872018
0.3039216 0.3031527 0.9881655
0.3117647 0.2913897 0.9890916
0.3196078 0.2795826 0.9899802
0.3274510 0.2677330 0.9908313
0.3352941 0.2558428 0.9916447
0.3431373 0.2439137 0.9924205
0.3509804 0.2319476 0.9931587
0.3588235 0.2199464 0.9938591
0.3666667 0.2079117 0.9945219
0.3745098 0.1958455 0.9951469
0.3823529 0.1837495 0.9957342
0.3901961 0.1716257 0.9962837
0.3980392 0.1594758 0.9967953
0.4058824 0.1473017 0.9972692
0.4137255 0.1351052 0.9977052
0.4215686 0.1228883 0.9981033
0.4294118 0.1106527 0.9984636
0.4372549 0.0984003 0.9987860
0.4450980 0.0861329 0.9990705
0.4529412 0.0738525 0.9993171
0.4607843 0.0615609 0.9995257
0.4686275 0.0492599 0.9996965
0.4764706 0.0369515 0.9998293
0.4843137 0.0246374 0.9999241
0.4921569 0.0123197 0.9999810
0.5000000 0.0000000 1.0000000
