posts/Davinci-Resolve-thermal-luts/colormaps-as-cube/RdBu_r.cube
TITLE "Colormap RdBu_r"
LUT_1D_SIZE 256
0.0196078 0.1882353 0.3803922
0.0239139 0.1965398 0.3919262
0.0282199 0.2048443 0.4034602
0.0325260 0.2131488 0.4149942
0.0368320 0.2214533 0.4265283
0.0411380 0.2297578 0.4380623
0.0454441 0.2380623 0.4495963
0.0497501 0.2463668 0.4611303
0.0540561 0.2546713 0.4726644
0.0583622 0.2629758 0.4841984
0.0626682 0.2712803 0.4957324
0.0669742 0.2795848 0.5072664
0.0712803 0.2878893 0.5188005
0.0755863 0.2961938 0.5303345
0.0798923 0.3044983 0.5418685
0.0841984 0.3128028 0.5534025
0.0885044 0.3211073 0.5649366
0.0928105 0.3294118 0.5764706
0.0971165 0.3377163 0.5880046
0.1014225 0.3460208 0.5995386
0.1057286 0.3543253 0.6110727
0.1100346 0.3626298 0.6226067
0.1143406 0.3709343 0.6341407
0.1186467 0.3792388 0.6456747
0.1229527 0.3875433 0.6572088
0.1272587 0.3958478 0.6687428
0.1320261 0.4034602 0.6762784
0.1372549 0.4103806 0.6798155
0.1424837 0.4173010 0.6833526
0.1477124 0.4242215 0.6868897
0.1529412 0.4311419 0.6904268
0.1581699 0.4380623 0.6939639
0.1633987 0.4449827 0.6975010
0.1686275 0.4519031 0.7010381
0.1738562 0.4588235 0.7045752
0.1790850 0.4657439 0.7081123
0.1843137 0.4726644 0.7116494
0.1895425 0.4795848 0.7151865
0.1947712 0.4865052 0.7187236
0.2000000 0.4934256 0.7222607
0.2052288 0.5003460 0.7257978
0.2104575 0.5072664 0.7293349
0.2156863 0.5141869 0.7328720
0.2209150 0.5211073 0.7364091
0.2261438 0.5280277 0.7399462
0.2313725 0.5349481 0.7434833
0.2366013 0.5418685 0.7470204
0.2418301 0.5487889 0.7505575
0.2470588 0.5557093 0.7540946
0.2522876 0.5626298 0.7576317
0.2575163 0.5695502 0.7611688
0.2627451 0.5764706 0.7647059
0.2748943 0.5841599 0.7688581
0.2870434 0.5918493 0.7730104
0.2991926 0.5995386 0.7771626
0.3113418 0.6072280 0.7813149
0.3234910 0.6149173 0.7854671
0.3356401 0.6226067 0.7896194
0.3477893 0.6302960 0.7937716
0.3599385 0.6379854 0.7979239
0.3720877 0.6456747 0.8020761
0.3842368 0.6533641 0.8062284
0.3963860 0.6610534 0.8103806
0.4085352 0.6687428 0.8145329
0.4206844 0.6764321 0.8186851
0.4328335 0.6841215 0.8228374
0.4449827 0.6918108 0.8269896
0.4571319 0.6995002 0.8311419
0.4692810 0.7071895 0.8352941
0.4814302 0.7148789 0.8394464
0.4935794 0.7225682 0.8435986
0.5057286 0.7302576 0.8477509
0.5178777 0.7379469 0.8519031
0.5300269 0.7456363 0.8560554
0.5421761 0.7533256 0.8602076
0.5543253 0.7610150 0.8643599
0.5664744 0.7687043 0.8685121
0.5773933 0.7750096 0.8719723
0.5870819 0.7799308 0.8747405
0.5967705 0.7848520 0.8775087
0.6064591 0.7897732 0.8802768
0.6161476 0.7946943 0.8830450
0.6258362 0.7996155 0.8858131
0.6355248 0.8045367 0.8885813
0.6452134 0.8094579 0.8913495
0.6549020 0.8143791 0.8941176
0.6645905 0.8193003 0.8968858
0.6742791 0.8242215 0.8996540
0.6839677 0.8291426 0.9024221
0.6936563 0.8340638 0.9051903
0.7033449 0.8389850 0.9079585
0.7130334 0.8439062 0.9107266
0.7227220 0.8488274 0.9134948
0.7324106 0.8537486 0.9162630
0.7420992 0.8586697 0.9190311
0.7517878 0.8635909 0.9217993
0.7614764 0.8685121 0.9245675
0.7711649 0.8734333 0.9273356
0.7808535 0.8783545 0.9301038
0.7905421 0.8832757 0.9328720
0.8002307 0.8881968 0.9356401
0.8099193 0.8931180 0.9384083
0.8196078 0.8980392 0.9411765
0.8254517 0.9008074 0.9422530
0.8312957 0.9035755 0.9433295
0.8371396 0.9063437 0.9444060
0.8429835 0.9091119 0.9454825
0.8488274 0.9118800 0.9465590
0.8546713 0.9146482 0.9476355
0.8605152 0.9174164 0.9487120
0.8663591 0.9201845 0.9497885
0.8722030 0.9229527 0.9508651
0.8780469 0.9257209 0.9519416
0.8838908 0.9284890 0.9530181
0.8897347 0.9312572 0.9540946
0.8955786 0.9340254 0.9551711
0.9014225 0.9367935 0.9562476
0.9072664 0.9395617 0.9573241
0.9131103 0.9423299 0.9584006
0.9189542 0.9450980 0.9594771
0.9247982 0.9478662 0.9605536
0.9306421 0.9506344 0.9616301
0.9364860 0.9534025 0.9627067
0.9423299 0.9561707 0.9637832
0.9481738 0.9589389 0.9648597
0.9540177 0.9617070 0.9659362
0.9598616 0.9644752 0.9670127
0.9657055 0.9672434 0.9680892
0.9690888 0.9664744 0.9649366
0.9700115 0.9621684 0.9575548
0.9709343 0.9578624 0.9501730
0.9718570 0.9535563 0.9427912
0.9727797 0.9492503 0.9354095
0.9737024 0.9449443 0.9280277
0.9746251 0.9406382 0.9206459
0.9755479 0.9363322 0.9132641
0.9764706 0.9320261 0.9058824
0.9773933 0.9277201 0.8985006
0.9783160 0.9234141 0.8911188
0.9792388 0.9191080 0.8837370
0.9801615 0.9148020 0.8763552
0.9810842 0.9104960 0.8689735
0.9820069 0.9061899 0.8615917
0.9829296 0.9018839 0.8542099
0.9838524 0.8975779 0.8468281
0.9847751 0.8932718 0.8394464
0.9856978 0.8889658 0.8320646
0.9866205 0.8846597 0.8246828
0.9875433 0.8803537 0.8173010
0.9884660 0.8760477 0.8099193
0.9893887 0.8717416 0.8025375
0.9903114 0.8674356 0.7951557
0.9912341 0.8631296 0.7877739
0.9921569 0.8588235 0.7803922
0.9907728 0.8505190 0.7697809
0.9893887 0.8422145 0.7591696
0.9880046 0.8339100 0.7485582
0.9866205 0.8256055 0.7379469
0.9852364 0.8173010 0.7273356
0.9838524 0.8089965 0.7167243
0.9824683 0.8006920 0.7061130
0.9810842 0.7923875 0.6955017
0.9797001 0.7840830 0.6848904
0.9783160 0.7757785 0.6742791
0.9769319 0.7674740 0.6636678
0.9755479 0.7591696 0.6530565
0.9741638 0.7508651 0.6424452
0.9727797 0.7425606 0.6318339
0.9713956 0.7342561 0.6212226
0.9700115 0.7259516 0.6106113
0.9686275 0.7176471 0.6000000
0.9672434 0.7093426 0.5893887
0.9658593 0.7010381 0.5787774
0.9644752 0.6927336 0.5681661
0.9630911 0.6844291 0.5575548
0.9617070 0.6761246 0.5469435
0.9603230 0.6678201 0.5363322
0.9589389 0.6595156 0.5257209
0.9575548 0.6512111 0.5151096
0.9545559 0.6417532 0.5057286
0.9499423 0.6311419 0.4975779
0.9453287 0.6205306 0.4894271
0.9407151 0.6099193 0.4812764
0.9361015 0.5993080 0.4731257
0.9314879 0.5886967 0.4649750
0.9268743 0.5780854 0.4568243
0.9222607 0.5674740 0.4486736
0.9176471 0.5568627 0.4405229
0.9130334 0.5462514 0.4323722
0.9084198 0.5356401 0.4242215
0.9038062 0.5250288 0.4160707
0.8991926 0.5144175 0.4079200
0.8945790 0.5038062 0.3997693
0.8899654 0.4931949 0.3916186
0.8853518 0.4825836 0.3834679
0.8807382 0.4719723 0.3753172
0.8761246 0.4613610 0.3671665
0.8715110 0.4507497 0.3590158
0.8668973 0.4401384 0.3508651
0.8622837 0.4295271 0.3427143
0.8576701 0.4189158 0.3345636
0.8530565 0.4083045 0.3264129
0.8484429 0.3976932 0.3182622
0.8438293 0.3870819 0.3101115
0.8392157 0.3764706 0.3019608
0.8336794 0.3653979 0.2967320
0.8281430 0.3543253 0.2915033
0.8226067 0.3432526 0.2862745
0.8170704 0.3321799 0.2810458
0.8115340 0.3211073 0.2758170
0.8059977 0.3100346 0.2705882
0.8004614 0.2989619 0.2653595
0.7949250 0.2878893 0.2601307
0.7893887 0.2768166 0.2549020
0.7838524 0.2657439 0.2496732
0.7783160 0.2546713 0.2444444
0.7727797 0.2435986 0.2392157
0.7672434 0.2325260 0.2339869
0.7617070 0.2214533 0.2287582
0.7561707 0.2103806 0.2235294
0.7506344 0.1993080 0.2183007
0.7450980 0.1882353 0.2130719
0.7395617 0.1771626 0.2078431
0.7340254 0.1660900 0.2026144
0.7284890 0.1550173 0.1973856
0.7229527 0.1439446 0.1921569
0.7174164 0.1328720 0.1869281
0.7118800 0.1217993 0.1816993
0.7063437 0.1107266 0.1764706
0.7008074 0.0996540 0.1712418
0.6922722 0.0922722 0.1677047
0.6807382 0.0885813 0.1658593
0.6692042 0.0848904 0.1640138
0.6576701 0.0811995 0.1621684
0.6461361 0.0775087 0.1603230
0.6346021 0.0738178 0.1584775
0.6230681 0.0701269 0.1566321
0.6115340 0.0664360 0.1547866
0.6000000 0.0627451 0.1529412
0.5884660 0.0590542 0.1510957
0.5769319 0.0553633 0.1492503
0.5653979 0.0516724 0.1474048
0.5538639 0.0479815 0.1455594
0.5423299 0.0442907 0.1437140
0.5307958 0.0405998 0.1418685
0.5192618 0.0369089 0.1400231
0.5077278 0.0332180 0.1381776
0.4961938 0.0295271 0.1363322
0.4846597 0.0258362 0.1344867
0.4731257 0.0221453 0.1326413
0.4615917 0.0184544 0.1307958
0.4500577 0.0147636 0.1289504
0.4385236 0.0110727 0.1271050
0.4269896 0.0073818 0.1252595
0.4154556 0.0036909 0.1234141
0.4039216 0.0000000 0.1215686
