posts/Davinci-Resolve-thermal-luts/colormaps-as-cube/RdGy_r.cube
TITLE "Colormap RdGy_r"
LUT_1D_SIZE 256
0.1019608 0.1019608 0.1019608
0.1098039 0.1098039 0.1098039
0.1176471 0.1176471 0.1176471
0.1254902 0.1254902 0.1254902
0.1333333 0.1333333 0.1333333
0.1411765 0.1411765 0.1411765
0.1490196 0.1490196 0.1490196
0.1568627 0.1568627 0.1568627
0.1647059 0.1647059 0.1647059
0.1725490 0.1725490 0.1725490
0.1803922 0.1803922 0.1803922
0.1882353 0.1882353 0.1882353
0.1960784 0.1960784 0.1960784
0.2039216 0.2039216 0.2039216
0.2117647 0.2117647 0.2117647
0.2196078 0.2196078 0.2196078
0.2274510 0.2274510 0.2274510
0.2352941 0.2352941 0.2352941
0.2431373 0.2431373 0.2431373
0.2509804 0.2509804 0.2509804
0.2588235 0.2588235 0.2588235
0.2666667 0.2666667 0.2666667
0.2745098 0.2745098 0.2745098
0.2823529 0.2823529 0.2823529
0.2901961 0.2901961 0.2901961
0.2980392 0.2980392 0.2980392
0.3064206 0.3064206 0.3064206
0.3153403 0.3153403 0.3153403
0.3242599 0.3242599 0.3242599
0.3331795 0.3331795 0.3331795
0.3420992 0.3420992 0.3420992
0.3510188 0.3510188 0.3510188
0.3599385 0.3599385 0.3599385
0.3688581 0.3688581 0.3688581
0.3777778 0.3777778 0.3777778
0.3866974 0.3866974 0.3866974
0.3956171 0.3956171 0.3956171
0.4045367 0.4045367 0.4045367
0.4134564 0.4134564 0.4134564
0.4223760 0.4223760 0.4223760
0.4312957 0.4312957 0.4312957
0.4402153 0.4402153 0.4402153
0.4491349 0.4491349 0.4491349
0.4580546 0.4580546 0.4580546
0.4669742 0.4669742 0.4669742
0.4758939 0.4758939 0.4758939
0.4848135 0.4848135 0.4848135
0.4937332 0.4937332 0.4937332
0.5026528 0.5026528 0.5026528
0.5115725 0.5115725 0.5115725
0.5204921 0.5204921 0.5204921
0.5294118 0.5294118 0.5294118
0.5372549 0.5372549 0.5372549
0.5450980 0.5450980 0.5450980
0.5529412 0.5529412 0.5529412
0.5607843 0.5607843 0.5607843
0.5686275 0.5686275 0.5686275
0.5764706 0.5764706 0.5764706
0.5843137 0.5843137 0.5843137
0.5921569 0.5921569 0.5921569
0.6000000 0.6000000 0.6000000
0.6078431 0.6078431 0.6078431
0.6156863 0.6156863 0.6156863
0.6235294 0.6235294 0.6235294
0.6313725 0.6313725 0.6313725
0.6392157 0.6392157 0.6392157
0.6470588 0.6470588 0.6470588
0.6549020 0.6549020 0.6549020
0.6627451 0.6627451 0.6627451
0.6705882 0.6705882 0.6705882
0.6784314 0.6784314 0.6784314
0.6862745 0.6862745 0.6862745
0.6941176 0.6941176 0.6941176
0.7019608 0.7019608 0.7019608
0.7098039 0.7098039 0.7098039
0.7176471 0.7176471 0.7176471
0.7254902 0.7254902 0.7254902
0.7323337 0.7323337 0.7323337
0.7381776 0.7381776 0.7381776
0.7440215 0.7440215 0.7440215
0.7498654 0.7498654 0.7498654
0.7557093 0.7557093 0.7557093
0.7615532 0.7615532 0.7615532
0.7673972 0.7673972 0.7673972
0.7732411 0.7732411 0.7732411
0.7790850 0.7790850 0.7790850
0.7849289 0.7849289 0.7849289
0.7907728 0.7907728 0.7907728
0.7966167 0.7966167 0.7966167
0.8024606 0.8024606 0.8024606
0.8083045 0.8083045 0.8083045
0.8141484 0.8141484 0.8141484
0.8199923 0.8199923 0.8199923
0.8258362 0.8258362 0.8258362
0.8316801 0.8316801 0.8316801
0.8375240 0.8375240 0.8375240
0.8433679 0.8433679 0.8433679
0.8492118 0.8492118 0.8492118
0.8550557 0.8550557 0.8550557
0.8608997 0.8608997 0.8608997
0.8667436 0.8667436 0.8667436
0.8725875 0.8725875 0.8725875
0.8784314 0.8784314 0.8784314
0.8831988 0.8831988 0.8831988
0.8879662 0.8879662 0.8879662
0.8927336 0.8927336 0.8927336
0.8975010 0.8975010 0.8975010
0.9022684 0.9022684 0.9022684
0.9070358 0.9070358 0.9070358
0.9118032 0.9118032 0.9118032
0.9165705 0.9165705 0.9165705
0.9213379 0.9213379 0.9213379
0.9261053 0.9261053 0.9261053
0.9308727 0.9308727 0.9308727
0.9356401 0.9356401 0.9356401
0.9404075 0.9404075 0.9404075
0.9451749 0.9451749 0.9451749
0.9499423 0.9499423 0.9499423
0.9547097 0.9547097 0.9547097
0.9594771 0.9594771 0.9594771
0.9642445 0.9642445 0.9642445
0.9690119 0.9690119 0.9690119
0.9737793 0.9737793 0.9737793
0.9785467 0.9785467 0.9785467
0.9833141 0.9833141 0.9833141
0.9880815 0.9880815 0.9880815
0.9928489 0.9928489 0.9928489
0.9976163 0.9976163 0.9976163
0.9998462 0.9972318 0.9956940
0.9995386 0.9916955 0.9870819
0.9992311 0.9861592 0.9784698
0.9989235 0.9806228 0.9698577
0.9986159 0.9750865 0.9612457
0.9983083 0.9695502 0.9526336
0.9980008 0.9640138 0.9440215
0.9976932 0.9584775 0.9354095
0.9973856 0.9529412 0.9267974
0.9970780 0.9474048 0.9181853
0.9967705 0.9418685 0.9095732
0.9964629 0.9363322 0.9009612
0.9961553 0.9307958 0.8923491
0.9958478 0.9252595 0.8837370
0.9955402 0.9197232 0.8751250
0.9952326 0.9141869 0.8665129
0.9949250 0.9086505 0.8579008
0.9946175 0.9031142 0.8492887
0.9943099 0.8975779 0.8406767
0.9940023 0.8920415 0.8320646
0.9936947 0.8865052 0.8234525
0.9933872 0.8809689 0.8148404
0.9930796 0.8754325 0.8062284
0.9927720 0.8698962 0.7976163
0.9924644 0.8643599 0.7890042
0.9921569 0.8588235 0.7803922
0.9907728 0.8505190 0.7697809
0.9893887 0.8422145 0.7591696
0.9880046 0.8339100 0.7485582
0.9866205 0.8256055 0.7379469
0.9852364 0.8173010 0.7273356
0.9838524 0.8089965 0.7167243
0.9824683 0.8006920 0.7061130
0.9810842 0.7923875 0.6955017
0.9797001 0.7840830 0.6848904
0.9783160 0.7757785 0.6742791
0.9769319 0.7674740 0.6636678
0.9755479 0.7591696 0.6530565
0.9741638 0.7508651 0.6424452
0.9727797 0.7425606 0.6318339
0.9713956 0.7342561 0.6212226
0.9700115 0.7259516 0.6106113
0.9686275 0.7176471 0.6000000
0.9672434 0.7093426 0.5893887
0.9658593 0.7010381 0.5787774
0.9644752 0.6927336 0.5681661
0.9630911 0.6844291 0.5575548
0.9617070 0.6761246 0.5469435
0.9603230 0.6678201 0.5363322
0.9589389 0.6595156 0.5257209
0.9575548 0.6512111 0.5151096
0.9545559 0.6417532 0.5057286
0.9499423 0.6311419 0.4975779
0.9453287 0.6205306 0.4894271
0.9407151 0.6099193 0.4812764
0.9361015 0.5993080 0.4731257
0.9314879 0.5886967 0.4649750
0.9268743 0.5780854 0.4568243
0.9222607 0.5674740 0.4486736
0.9176471 0.5568627 0.4405229
0.9130334 0.5462514 0.4323722
0.9084198 0.5356401 0.4242215
0.9038062 0.5250288 0.4160707
0.8991926 0.5144175 0.4079200
0.8945790 0.5038062 0.3997693
0.8899654 0.4931949 0.3916186
0.8853518 0.4825836 0.3834679
0.8807382 0.4719723 0.3753172
0.8761246 0.4613610 0.3671665
0.8715110 0.4507497 0.3590158
0.8668973 0.4401384 0.3508651
0.8622837 0.4295271 0.3427143
0.8576701 0.4189158 0.3345636
0.8530565 0.4083045 0.3264129
0.8484429 0.3976932 0.3182622
0.8438293 0.3870819 0.3101115
0.8392157 0.3764706 0.3019608
0.8336794 0.3653979 0.2967320
0.8281430 0.3543253 0.2915033
0.8226067 0.3432526 0.2862745
0.8170704 0.3321799 0.2810458
0.8115340 0.3211073 0.2758170
0.8059977 0.3100346 0.2705882
0.8004614 0.2989619 0.2653595
0.7949250 0.2878893 0.2601307
0.7893887 0.2768166 0.2549020
0.7838524 0.2657439 0.2496732
0.7783160 0.2546713 0.2444444
0.7727797 0.2435986 0.2392157
0.7672434 0.2325260 0.2339869
0.7617070 0.2214533 0.2287582
0.7561707 0.2103806 0.2235294
0.7506344 0.1993080 0.2183007
0.7450980 0.1882353 0.2130719
0.7395617 0.1771626 0.2078431
0.7340254 0.1660900 0.2026144
0.7284890 0.1550173 0.1973856
0.7229527 0.1439446 0.1921569
0.7174164 0.1328720 0.1869281
0.7118800 0.1217993 0.1816993
0.7063437 0.1107266 0.1764706
0.7008074 0.0996540 0.1712418
0.6922722 0.0922722 0.1677047
0.6807382 0.0885813 0.1658593
0.6692042 0.0848904 0.1640138
0.6576701 0.0811995 0.1621684
0.6461361 0.0775087 0.1603230
0.6346021 0.0738178 0.1584775
0.6230681 0.0701269 0.1566321
0.6115340 0.0664360 0.1547866
0.6000000 0.0627451 0.1529412
0.5884660 0.0590542 0.1510957
0.5769319 0.0553633 0.1492503
0.5653979 0.0516724 0.1474048
0.5538639 0.0479815 0.1455594
0.5423299 0.0442907 0.1437140
0.5307958 0.0405998 0.1418685
0.5192618 0.0369089 0.1400231
0.5077278 0.0332180 0.1381776
0.4961938 0.0295271 0.1363322
0.4846597 0.0258362 0.1344867
0.4731257 0.0221453 0.1326413
0.4615917 0.0184544 0.1307958
0.4500577 0.0147636 0.1289504
0.4385236 0.0110727 0.1271050
0.4269896 0.0073818 0.1252595
0.4154556 0.0036909 0.1234141
0.4039216 0.0000000 0.1215686
