posts/Davinci-Resolve-thermal-luts/colormaps-as-cube/RdPu_r.cube
TITLE "Colormap RdPu_r"
LUT_1D_SIZE 256
0.2862745 0.0000000 0.4156863
0.2923030 0.0001230 0.4172857
0.2983314 0.0002461 0.4188850
0.3043599 0.0003691 0.4204844
0.3103883 0.0004921 0.4220838
0.3164168 0.0006151 0.4236832
0.3224452 0.0007382 0.4252826
0.3284737 0.0008612 0.4268820
0.3345021 0.0009842 0.4284814
0.3405306 0.0011073 0.4300807
0.3465590 0.0012303 0.4316801
0.3525875 0.0013533 0.4332795
0.3586159 0.0014764 0.4348789
0.3646444 0.0015994 0.4364783
0.3706728 0.0017224 0.4380777
0.3767013 0.0018454 0.4396770
0.3827297 0.0019685 0.4412764
0.3887582 0.0020915 0.4428758
0.3947866 0.0022145 0.4444752
0.4008151 0.0023376 0.4460746
0.4068435 0.0024606 0.4476740
0.4128720 0.0025836 0.4492734
0.4189004 0.0027067 0.4508727
0.4249289 0.0028297 0.4524721
0.4309573 0.0029527 0.4540715
0.4369858 0.0030757 0.4556709
0.4430142 0.0031988 0.4572703
0.4490427 0.0033218 0.4588697
0.4550711 0.0034448 0.4604691
0.4610996 0.0035679 0.4620684
0.4671280 0.0036909 0.4636678
0.4731565 0.0038139 0.4652672
0.4792311 0.0039216 0.4667743
0.4856286 0.0039216 0.4676355
0.4920261 0.0039216 0.4684967
0.4984237 0.0039216 0.4693579
0.5048212 0.0039216 0.4702191
0.5112188 0.0039216 0.4710804
0.5176163 0.0039216 0.4719416
0.5240138 0.0039216 0.4728028
0.5304114 0.0039216 0.4736640
0.5368089 0.0039216 0.4745252
0.5432065 0.0039216 0.4753864
0.5496040 0.0039216 0.4762476
0.5560015 0.0039216 0.4771088
0.5623991 0.0039216 0.4779700
0.5687966 0.0039216 0.4788312
0.5751942 0.0039216 0.4796924
0.5815917 0.0039216 0.4805536
0.5879892 0.0039216 0.4814148
0.5943868 0.0039216 0.4822760
0.6007843 0.0039216 0.4831373
0.6071819 0.0039216 0.4839985
0.6135794 0.0039216 0.4848597
0.6199769 0.0039216 0.4857209
0.6263745 0.0039216 0.4865821
0.6327720 0.0039216 0.4874433
0.6391696 0.0039216 0.4883045
0.6455671 0.0039216 0.4891657
0.6519646 0.0039216 0.4900269
0.6583622 0.0039216 0.4908881
0.6647597 0.0039216 0.4917493
0.6711572 0.0039216 0.4926105
0.6775548 0.0039216 0.4934717
0.6837985 0.0054902 0.4948866
0.6895809 0.0117647 0.4979623
0.6953633 0.0180392 0.5010381
0.7011457 0.0243137 0.5041138
0.7069281 0.0305882 0.5071895
0.7127105 0.0368627 0.5102653
0.7184929 0.0431373 0.5133410
0.7242753 0.0494118 0.5164168
0.7300577 0.0556863 0.5194925
0.7358401 0.0619608 0.5225682
0.7416225 0.0682353 0.5256440
0.7474048 0.0745098 0.5287197
0.7531872 0.0807843 0.5317955
0.7589696 0.0870588 0.5348712
0.7647520 0.0933333 0.5379469
0.7705344 0.0996078 0.5410227
0.7763168 0.1058824 0.5440984
0.7820992 0.1121569 0.5471742
0.7878816 0.1184314 0.5502499
0.7936640 0.1247059 0.5533256
0.7994464 0.1309804 0.5564014
0.8052288 0.1372549 0.5594771
0.8110111 0.1435294 0.5625529
0.8167935 0.1498039 0.5656286
0.8225759 0.1560784 0.5687043
0.8283583 0.1623529 0.5717801
0.8341407 0.1686275 0.5748558
0.8399231 0.1749020 0.5779316
0.8457055 0.1811765 0.5810073
0.8514879 0.1874510 0.5840830
0.8572703 0.1937255 0.5871588
0.8630527 0.2000000 0.5902345
0.8678662 0.2063206 0.5926182
0.8710650 0.2127182 0.5938485
0.8742637 0.2191157 0.5950788
0.8774625 0.2255133 0.5963091
0.8806613 0.2319108 0.5975394
0.8838601 0.2383083 0.5987697
0.8870588 0.2447059 0.6000000
0.8902576 0.2511034 0.6012303
0.8934564 0.2575010 0.6024606
0.8966551 0.2638985 0.6036909
0.8998539 0.2702960 0.6049212
0.9030527 0.2766936 0.6061515
0.9062514 0.2830911 0.6073818
0.9094502 0.2894887 0.6086121
0.9126490 0.2958862 0.6098424
0.9158478 0.3022837 0.6110727
0.9190465 0.3086813 0.6123030
0.9222453 0.3150788 0.6135333
0.9254441 0.3214764 0.6147636
0.9286428 0.3278739 0.6159938
0.9318416 0.3342714 0.6172241
0.9350404 0.3406690 0.6184544
0.9382391 0.3470665 0.6196847
0.9414379 0.3534641 0.6209150
0.9446367 0.3598616 0.6221453
0.9478354 0.3662591 0.6233756
0.9510342 0.3726567 0.6246059
0.9542330 0.3790542 0.6258362
0.9574318 0.3854517 0.6270665
0.9606305 0.3918493 0.6282968
0.9638293 0.3982468 0.6295271
0.9670281 0.4046444 0.6307574
0.9688120 0.4112265 0.6326028
0.9691811 0.4179931 0.6350634
0.9695502 0.4247597 0.6375240
0.9699193 0.4315263 0.6399846
0.9702884 0.4382930 0.6424452
0.9706574 0.4450596 0.6449058
0.9710265 0.4518262 0.6473664
0.9713956 0.4585928 0.6498270
0.9717647 0.4653595 0.6522876
0.9721338 0.4721261 0.6547482
0.9725029 0.4788927 0.6572088
0.9728720 0.4856594 0.6596694
0.9732411 0.4924260 0.6621300
0.9736101 0.4991926 0.6645905
0.9739792 0.5059592 0.6670511
0.9743483 0.5127259 0.6695117
0.9747174 0.5194925 0.6719723
0.9750865 0.5262591 0.6744329
0.9754556 0.5330258 0.6768935
0.9758247 0.5397924 0.6793541
0.9761938 0.5465590 0.6818147
0.9765629 0.5533256 0.6842753
0.9769319 0.5600923 0.6867359
0.9773010 0.5668589 0.6891965
0.9776701 0.5736255 0.6916571
0.9780392 0.5803922 0.6941176
0.9784083 0.5871588 0.6965782
0.9787774 0.5939254 0.6990388
0.9791465 0.6006920 0.7014994
0.9795156 0.6074587 0.7039600
0.9798847 0.6142253 0.7064206
0.9802537 0.6209919 0.7088812
0.9805459 0.6264514 0.7106498
0.9807920 0.6311265 0.7120031
0.9810381 0.6358016 0.7133564
0.9812841 0.6404767 0.7147097
0.9815302 0.6451519 0.7160631
0.9817762 0.6498270 0.7174164
0.9820223 0.6545021 0.7187697
0.9822684 0.6591772 0.7201230
0.9825144 0.6638524 0.7214764
0.9827605 0.6685275 0.7228297
0.9830065 0.6732026 0.7241830
0.9832526 0.6778777 0.7255363
0.9834987 0.6825529 0.7268897
0.9837447 0.6872280 0.7282430
0.9839908 0.6919031 0.7295963
0.9842368 0.6965782 0.7309496
0.9844829 0.7012534 0.7323030
0.9847290 0.7059285 0.7336563
0.9849750 0.7106036 0.7350096
0.9852211 0.7152787 0.7363629
0.9854671 0.7199539 0.7377163
0.9857132 0.7246290 0.7390696
0.9859592 0.7293041 0.7404229
0.9862053 0.7339792 0.7417762
0.9864514 0.7386544 0.7431296
0.9866974 0.7433295 0.7444829
0.9869435 0.7480046 0.7458362
0.9871895 0.7526797 0.7471895
0.9874356 0.7573549 0.7485429
0.9876817 0.7620300 0.7498962
0.9879277 0.7667051 0.7512495
0.9881738 0.7713802 0.7526028
0.9883276 0.7750404 0.7556171
0.9884506 0.7783622 0.7591849
0.9885736 0.7816840 0.7627528
0.9886967 0.7850058 0.7663206
0.9888197 0.7883276 0.7698885
0.9889427 0.7916494 0.7734564
0.9890657 0.7949712 0.7770242
0.9891888 0.7982930 0.7805921
0.9893118 0.8016148 0.7841599
0.9894348 0.8049366 0.7877278
0.9895579 0.8082584 0.7912957
0.9896809 0.8115802 0.7948635
0.9898039 0.8149020 0.7984314
0.9899270 0.8182238 0.8019992
0.9900500 0.8215456 0.8055671
0.9901730 0.8248674 0.8091349
0.9902960 0.8281892 0.8127028
0.9904191 0.8315110 0.8162707
0.9905421 0.8348328 0.8198385
0.9906651 0.8381546 0.8234064
0.9907882 0.8414764 0.8269742
0.9909112 0.8447982 0.8305421
0.9910342 0.8481200 0.8341100
0.9911572 0.8514418 0.8376778
0.9912803 0.8547636 0.8412457
0.9914033 0.8580854 0.8448135
0.9915263 0.8614072 0.8483814
0.9916494 0.8647290 0.8519493
0.9917724 0.8680507 0.8555171
0.9918954 0.8713725 0.8590850
0.9920185 0.8746943 0.8626528
0.9921415 0.8780161 0.8662207
0.9923722 0.8809073 0.8690350
0.9926182 0.8837370 0.8717416
0.9928643 0.8865667 0.8744483
0.9931103 0.8893964 0.8771549
0.9933564 0.8922261 0.8798616
0.9936025 0.8950557 0.8825682
0.9938485 0.8978854 0.8852749
0.9940946 0.9007151 0.8879815
0.9943406 0.9035448 0.8906882
0.9945867 0.9063745 0.8933948
0.9948328 0.9092042 0.8961015
0.9950788 0.9120338 0.8988082
0.9953249 0.9148635 0.9015148
0.9955709 0.9176932 0.9042215
0.9958170 0.9205229 0.9069281
0.9960631 0.9233526 0.9096348
0.9963091 0.9261822 0.9123414
0.9965552 0.9290119 0.9150481
0.9968012 0.9318416 0.9177547
0.9970473 0.9346713 0.9204614
0.9972933 0.9375010 0.9231680
0.9975394 0.9403306 0.9258747
0.9977855 0.9431603 0.9285813
0.9980315 0.9459900 0.9312880
0.9982776 0.9488197 0.9339946
0.9985236 0.9516494 0.9367013
0.9987697 0.9544790 0.9394079
0.9990158 0.9573087 0.9421146
0.9992618 0.9601384 0.9448212
0.9995079 0.9629681 0.9475279
0.9997539 0.9657978 0.9502345
1.0000000 0.9686275 0.9529412
