posts/Davinci-Resolve-thermal-luts/colormaps-as-cube/RdYlBu.cube
TITLE "Colormap RdYlBu"
LUT_1D_SIZE 256
0.6470588 0.0000000 0.1490196
0.6547482 0.0073818 0.1491734
0.6624375 0.0147636 0.1493272
0.6701269 0.0221453 0.1494810
0.6778162 0.0295271 0.1496348
0.6855056 0.0369089 0.1497885
0.6931949 0.0442907 0.1499423
0.7008843 0.0516724 0.1500961
0.7085736 0.0590542 0.1502499
0.7162630 0.0664360 0.1504037
0.7239523 0.0738178 0.1505575
0.7316417 0.0811995 0.1507113
0.7393310 0.0885813 0.1508651
0.7470204 0.0959631 0.1510188
0.7547097 0.1033449 0.1511726
0.7623991 0.1107266 0.1513264
0.7700884 0.1181084 0.1514802
0.7777778 0.1254902 0.1516340
0.7854671 0.1328720 0.1517878
0.7931565 0.1402537 0.1519416
0.8008458 0.1476355 0.1520953
0.8085352 0.1550173 0.1522491
0.8162245 0.1623991 0.1524029
0.8239139 0.1697809 0.1525567
0.8316032 0.1771626 0.1527105
0.8392926 0.1845444 0.1528643
0.8453672 0.1929258 0.1550942
0.8498270 0.2023068 0.1594002
0.8542868 0.2116878 0.1637063
0.8587466 0.2210688 0.1680123
0.8632065 0.2304498 0.1723183
0.8676663 0.2398308 0.1766244
0.8721261 0.2492118 0.1809304
0.8765859 0.2585928 0.1852364
0.8810458 0.2679739 0.1895425
0.8855056 0.2773549 0.1938485
0.8899654 0.2867359 0.1981546
0.8944252 0.2961169 0.2024606
0.8988850 0.3054979 0.2067666
0.9033449 0.3148789 0.2110727
0.9078047 0.3242599 0.2153787
0.9122645 0.3336409 0.2196847
0.9167243 0.3430219 0.2239908
0.9211842 0.3524029 0.2282968
0.9256440 0.3617839 0.2326028
0.9301038 0.3711649 0.2369089
0.9345636 0.3805459 0.2412149
0.9390235 0.3899270 0.2455210
0.9434833 0.3993080 0.2498270
0.9479431 0.4086890 0.2541330
0.9524029 0.4180700 0.2584391
0.9568627 0.4274510 0.2627451
0.9582468 0.4374471 0.2673587
0.9596309 0.4474433 0.2719723
0.9610150 0.4574394 0.2765859
0.9623991 0.4674356 0.2811995
0.9637832 0.4774318 0.2858131
0.9651672 0.4874279 0.2904268
0.9665513 0.4974241 0.2950404
0.9679354 0.5074202 0.2996540
0.9693195 0.5174164 0.3042676
0.9707036 0.5274125 0.3088812
0.9720877 0.5374087 0.3134948
0.9734717 0.5474048 0.3181084
0.9748558 0.5574010 0.3227220
0.9762399 0.5673972 0.3273356
0.9776240 0.5773933 0.3319493
0.9790081 0.5873895 0.3365629
0.9803922 0.5973856 0.3411765
0.9817762 0.6073818 0.3457901
0.9831603 0.6173779 0.3504037
0.9845444 0.6273741 0.3550173
0.9859285 0.6373702 0.3596309
0.9873126 0.6473664 0.3642445
0.9886967 0.6573626 0.3688581
0.9900807 0.6673587 0.3734717
0.9914648 0.6773549 0.3780854
0.9922338 0.6861976 0.3840062
0.9923875 0.6938870 0.3912341
0.9925413 0.7015763 0.3984621
0.9926951 0.7092657 0.4056901
0.9928489 0.7169550 0.4129181
0.9930027 0.7246444 0.4201461
0.9931565 0.7323337 0.4273741
0.9933103 0.7400231 0.4346021
0.9934641 0.7477124 0.4418301
0.9936178 0.7554018 0.4490581
0.9937716 0.7630911 0.4562860
0.9939254 0.7707805 0.4635140
0.9940792 0.7784698 0.4707420
0.9942330 0.7861592 0.4779700
0.9943868 0.7938485 0.4851980
0.9945406 0.8015379 0.4924260
0.9946943 0.8092272 0.4996540
0.9948481 0.8169166 0.5068820
0.9950019 0.8246059 0.5141100
0.9951557 0.8322953 0.5213379
0.9953095 0.8399846 0.5285659
0.9954633 0.8476740 0.5357939
0.9956171 0.8553633 0.5430219
0.9957709 0.8630527 0.5502499
0.9959246 0.8707420 0.5574779
0.9960784 0.8784314 0.5647059
0.9962322 0.8831988 0.5719339
0.9963860 0.8879662 0.5791619
0.9965398 0.8927336 0.5863899
0.9966936 0.8975010 0.5936178
0.9968474 0.9022684 0.6008458
0.9970012 0.9070358 0.6080738
0.9971549 0.9118032 0.6153018
0.9973087 0.9165705 0.6225298
0.9974625 0.9213379 0.6297578
0.9976163 0.9261053 0.6369858
0.9977701 0.9308727 0.6442138
0.9979239 0.9356401 0.6514418
0.9980777 0.9404075 0.6586697
0.9982314 0.9451749 0.6658977
0.9983852 0.9499423 0.6731257
0.9985390 0.9547097 0.6803537
0.9986928 0.9594771 0.6875817
0.9988466 0.9642445 0.6948097
0.9990004 0.9690119 0.7020377
0.9991542 0.9737793 0.7092657
0.9993080 0.9785467 0.7164937
0.9994617 0.9833141 0.7237216
0.9996155 0.9880815 0.7309496
0.9997693 0.9928489 0.7381776
0.9999231 0.9976163 0.7454056
0.9976163 0.9990773 0.7534025
0.9928489 0.9972318 0.7621684
0.9880815 0.9953864 0.7709343
0.9833141 0.9935409 0.7797001
0.9785467 0.9916955 0.7884660
0.9737793 0.9898501 0.7972318
0.9690119 0.9880046 0.8059977
0.9642445 0.9861592 0.8147636
0.9594771 0.9843137 0.8235294
0.9547097 0.9824683 0.8322953
0.9499423 0.9806228 0.8410611
0.9451749 0.9787774 0.8498270
0.9404075 0.9769319 0.8585928
0.9356401 0.9750865 0.8673587
0.9308727 0.9732411 0.8761246
0.9261053 0.9713956 0.8848904
0.9213379 0.9695502 0.8936563
0.9165705 0.9677047 0.9024221
0.9118032 0.9658593 0.9111880
0.9070358 0.9640138 0.9199539
0.9022684 0.9621684 0.9287197
0.8975010 0.9603230 0.9374856
0.8927336 0.9584775 0.9462514
0.8879662 0.9566321 0.9550173
0.8831988 0.9547866 0.9637832
0.8784314 0.9529412 0.9725490
0.8702807 0.9489427 0.9702422
0.8621300 0.9449443 0.9679354
0.8539792 0.9409458 0.9656286
0.8458285 0.9369473 0.9633218
0.8376778 0.9329489 0.9610150
0.8295271 0.9289504 0.9587082
0.8213764 0.9249519 0.9564014
0.8132257 0.9209535 0.9540946
0.8050750 0.9169550 0.9517878
0.7969243 0.9129566 0.9494810
0.7887735 0.9089581 0.9471742
0.7806228 0.9049596 0.9448674
0.7724721 0.9009612 0.9425606
0.7643214 0.8969627 0.9402537
0.7561707 0.8929642 0.9379469
0.7480200 0.8889658 0.9356401
0.7398693 0.8849673 0.9333333
0.7317186 0.8809689 0.9310265
0.7235679 0.8769704 0.9287197
0.7154171 0.8729719 0.9264129
0.7072664 0.8689735 0.9241061
0.6991157 0.8649750 0.9217993
0.6909650 0.8609765 0.9194925
0.6828143 0.8569781 0.9171857
0.6746636 0.8529796 0.9148789
0.6663591 0.8475971 0.9118800
0.6579008 0.8408304 0.9081892
0.6494425 0.8340638 0.9044983
0.6409842 0.8272972 0.9008074
0.6325260 0.8205306 0.8971165
0.6240677 0.8137639 0.8934256
0.6156094 0.8069973 0.8897347
0.6071511 0.8002307 0.8860438
0.5986928 0.7934641 0.8823529
0.5902345 0.7866974 0.8786621
0.5817762 0.7799308 0.8749712
0.5733180 0.7731642 0.8712803
0.5648597 0.7663975 0.8675894
0.5564014 0.7596309 0.8638985
0.5479431 0.7528643 0.8602076
0.5394848 0.7460977 0.8565167
0.5310265 0.7393310 0.8528258
0.5225682 0.7325644 0.8491349
0.5141100 0.7257978 0.8454441
0.5056517 0.7190311 0.8417532
0.4971934 0.7122645 0.8380623
0.4887351 0.7054979 0.8343714
0.4802768 0.6987313 0.8306805
0.4718185 0.6919646 0.8269896
0.4633602 0.6851980 0.8232987
0.4549020 0.6784314 0.8196078
0.4476740 0.6698193 0.8151480
0.4404460 0.6612072 0.8106882
0.4332180 0.6525952 0.8062284
0.4259900 0.6439831 0.8017686
0.4187620 0.6353710 0.7973087
0.4115340 0.6267589 0.7928489
0.4043060 0.6181469 0.7883891
0.3970780 0.6095348 0.7839293
0.3898501 0.6009227 0.7794694
0.3826221 0.5923106 0.7750096
0.3753941 0.5836986 0.7705498
0.3681661 0.5750865 0.7660900
0.3609381 0.5664744 0.7616301
0.3537101 0.5578624 0.7571703
0.3464821 0.5492503 0.7527105
0.3392541 0.5406382 0.7482507
0.3320261 0.5320261 0.7437908
0.3247982 0.5234141 0.7393310
0.3175702 0.5148020 0.7348712
0.3103422 0.5061899 0.7304114
0.3031142 0.4975779 0.7259516
0.2958862 0.4889658 0.7214917
0.2886582 0.4803537 0.7170319
0.2814302 0.4717416 0.7125721
0.2742022 0.4631296 0.7081123
0.2690504 0.4539792 0.7034987
0.2659746 0.4442907 0.6987313
0.2628989 0.4346021 0.6939639
0.2598231 0.4249135 0.6891965
0.2567474 0.4152249 0.6844291
0.2536717 0.4055363 0.6796617
0.2505959 0.3958478 0.6748943
0.2475202 0.3861592 0.6701269
0.2444444 0.3764706 0.6653595
0.2413687 0.3667820 0.6605921
0.2382930 0.3570934 0.6558247
0.2352172 0.3474048 0.6510573
0.2321415 0.3377163 0.6462899
0.2290657 0.3280277 0.6415225
0.2259900 0.3183391 0.6367551
0.2229143 0.3086505 0.6319877
0.2198385 0.2989619 0.6272203
0.2167628 0.2892734 0.6224529
0.2136870 0.2795848 0.6176855
0.2106113 0.2698962 0.6129181
0.2075356 0.2602076 0.6081507
0.2044598 0.2505190 0.6033833
0.2013841 0.2408304 0.5986159
0.1983083 0.2311419 0.5938485
0.1952326 0.2214533 0.5890811
0.1921569 0.2117647 0.5843137
