posts/Davinci-Resolve-thermal-luts/colormaps-as-cube/RdYlGn.cube
TITLE "Colormap RdYlGn"
LUT_1D_SIZE 256
0.6470588 0.0000000 0.1490196
0.6547482 0.0073818 0.1491734
0.6624375 0.0147636 0.1493272
0.6701269 0.0221453 0.1494810
0.6778162 0.0295271 0.1496348
0.6855056 0.0369089 0.1497885
0.6931949 0.0442907 0.1499423
0.7008843 0.0516724 0.1500961
0.7085736 0.0590542 0.1502499
0.7162630 0.0664360 0.1504037
0.7239523 0.0738178 0.1505575
0.7316417 0.0811995 0.1507113
0.7393310 0.0885813 0.1508651
0.7470204 0.0959631 0.1510188
0.7547097 0.1033449 0.1511726
0.7623991 0.1107266 0.1513264
0.7700884 0.1181084 0.1514802
0.7777778 0.1254902 0.1516340
0.7854671 0.1328720 0.1517878
0.7931565 0.1402537 0.1519416
0.8008458 0.1476355 0.1520953
0.8085352 0.1550173 0.1522491
0.8162245 0.1623991 0.1524029
0.8239139 0.1697809 0.1525567
0.8316032 0.1771626 0.1527105
0.8392926 0.1845444 0.1528643
0.8453672 0.1929258 0.1550942
0.8498270 0.2023068 0.1594002
0.8542868 0.2116878 0.1637063
0.8587466 0.2210688 0.1680123
0.8632065 0.2304498 0.1723183
0.8676663 0.2398308 0.1766244
0.8721261 0.2492118 0.1809304
0.8765859 0.2585928 0.1852364
0.8810458 0.2679739 0.1895425
0.8855056 0.2773549 0.1938485
0.8899654 0.2867359 0.1981546
0.8944252 0.2961169 0.2024606
0.8988850 0.3054979 0.2067666
0.9033449 0.3148789 0.2110727
0.9078047 0.3242599 0.2153787
0.9122645 0.3336409 0.2196847
0.9167243 0.3430219 0.2239908
0.9211842 0.3524029 0.2282968
0.9256440 0.3617839 0.2326028
0.9301038 0.3711649 0.2369089
0.9345636 0.3805459 0.2412149
0.9390235 0.3899270 0.2455210
0.9434833 0.3993080 0.2498270
0.9479431 0.4086890 0.2541330
0.9524029 0.4180700 0.2584391
0.9568627 0.4274510 0.2627451
0.9582468 0.4374471 0.2673587
0.9596309 0.4474433 0.2719723
0.9610150 0.4574394 0.2765859
0.9623991 0.4674356 0.2811995
0.9637832 0.4774318 0.2858131
0.9651672 0.4874279 0.2904268
0.9665513 0.4974241 0.2950404
0.9679354 0.5074202 0.2996540
0.9693195 0.5174164 0.3042676
0.9707036 0.5274125 0.3088812
0.9720877 0.5374087 0.3134948
0.9734717 0.5474048 0.3181084
0.9748558 0.5574010 0.3227220
0.9762399 0.5673972 0.3273356
0.9776240 0.5773933 0.3319493
0.9790081 0.5873895 0.3365629
0.9803922 0.5973856 0.3411765
0.9817762 0.6073818 0.3457901
0.9831603 0.6173779 0.3504037
0.9845444 0.6273741 0.3550173
0.9859285 0.6373702 0.3596309
0.9873126 0.6473664 0.3642445
0.9886967 0.6573626 0.3688581
0.9900807 0.6673587 0.3734717
0.9914648 0.6773549 0.3780854
0.9922338 0.6861976 0.3836217
0.9923875 0.6938870 0.3900807
0.9925413 0.7015763 0.3965398
0.9926951 0.7092657 0.4029988
0.9928489 0.7169550 0.4094579
0.9930027 0.7246444 0.4159170
0.9931565 0.7323337 0.4223760
0.9933103 0.7400231 0.4288351
0.9934641 0.7477124 0.4352941
0.9936178 0.7554018 0.4417532
0.9937716 0.7630911 0.4482122
0.9939254 0.7707805 0.4546713
0.9940792 0.7784698 0.4611303
0.9942330 0.7861592 0.4675894
0.9943868 0.7938485 0.4740484
0.9945406 0.8015379 0.4805075
0.9946943 0.8092272 0.4869666
0.9948481 0.8169166 0.4934256
0.9950019 0.8246059 0.4998847
0.9951557 0.8322953 0.5063437
0.9953095 0.8399846 0.5128028
0.9954633 0.8476740 0.5192618
0.9956171 0.8553633 0.5257209
0.9957709 0.8630527 0.5321799
0.9959246 0.8707420 0.5386390
0.9960784 0.8784314 0.5450980
0.9962322 0.8831988 0.5530950
0.9963860 0.8879662 0.5610919
0.9965398 0.8927336 0.5690888
0.9966936 0.8975010 0.5770857
0.9968474 0.9022684 0.5850827
0.9970012 0.9070358 0.5930796
0.9971549 0.9118032 0.6010765
0.9973087 0.9165705 0.6090734
0.9974625 0.9213379 0.6170704
0.9976163 0.9261053 0.6250673
0.9977701 0.9308727 0.6330642
0.9979239 0.9356401 0.6410611
0.9980777 0.9404075 0.6490581
0.9982314 0.9451749 0.6570550
0.9983852 0.9499423 0.6650519
0.9985390 0.9547097 0.6730488
0.9986928 0.9594771 0.6810458
0.9988466 0.9642445 0.6890427
0.9990004 0.9690119 0.6970396
0.9991542 0.9737793 0.7050365
0.9993080 0.9785467 0.7130334
0.9994617 0.9833141 0.7210304
0.9996155 0.9880815 0.7290273
0.9997693 0.9928489 0.7370242
0.9999231 0.9976163 0.7450211
0.9970780 0.9987697 0.7450211
0.9912341 0.9963091 0.7370242
0.9853902 0.9938485 0.7290273
0.9795463 0.9913879 0.7210304
0.9737024 0.9889273 0.7130334
0.9678585 0.9864667 0.7050365
0.9620146 0.9840062 0.6970396
0.9561707 0.9815456 0.6890427
0.9503268 0.9790850 0.6810458
0.9444829 0.9766244 0.6730488
0.9386390 0.9741638 0.6650519
0.9327951 0.9717032 0.6570550
0.9269512 0.9692426 0.6490581
0.9211073 0.9667820 0.6410611
0.9152634 0.9643214 0.6330642
0.9094195 0.9618608 0.6250673
0.9035755 0.9594002 0.6170704
0.8977316 0.9569396 0.6090734
0.8918877 0.9544790 0.6010765
0.8860438 0.9520185 0.5930796
0.8801999 0.9495579 0.5850827
0.8743560 0.9470973 0.5770857
0.8685121 0.9446367 0.5690888
0.8626682 0.9421761 0.5610919
0.8568243 0.9397155 0.5530950
0.8509804 0.9372549 0.5450980
0.8431373 0.9338716 0.5400231
0.8352941 0.9304883 0.5349481
0.8274510 0.9271050 0.5298731
0.8196078 0.9237216 0.5247982
0.8117647 0.9203383 0.5197232
0.8039216 0.9169550 0.5146482
0.7960784 0.9135717 0.5095732
0.7882353 0.9101884 0.5044983
0.7803922 0.9068051 0.4994233
0.7725490 0.9034218 0.4943483
0.7647059 0.9000384 0.4892734
0.7568627 0.8966551 0.4841984
0.7490196 0.8932718 0.4791234
0.7411765 0.8898885 0.4740484
0.7333333 0.8865052 0.4689735
0.7254902 0.8831219 0.4638985
0.7176471 0.8797386 0.4588235
0.7098039 0.8763552 0.4537486
0.7019608 0.8729719 0.4486736
0.6941176 0.8695886 0.4435986
0.6862745 0.8662053 0.4385236
0.6784314 0.8628220 0.4334487
0.6705882 0.8594387 0.4283737
0.6627451 0.8560554 0.4232987
0.6549020 0.8526720 0.4182238
0.6460592 0.8488274 0.4151480
0.6362168 0.8445213 0.4140715
0.6263745 0.8402153 0.4129950
0.6165321 0.8359093 0.4119185
0.6066897 0.8316032 0.4108420
0.5968474 0.8272972 0.4097655
0.5870050 0.8229912 0.4086890
0.5771626 0.8186851 0.4076125
0.5673203 0.8143791 0.4065359
0.5574779 0.8100730 0.4054594
0.5476355 0.8057670 0.4043829
0.5377932 0.8014610 0.4033064
0.5279508 0.7971549 0.4022299
0.5181084 0.7928489 0.4011534
0.5082661 0.7885429 0.4000769
0.4984237 0.7842368 0.3990004
0.4885813 0.7799308 0.3979239
0.4787389 0.7756248 0.3968474
0.4688966 0.7713187 0.3957709
0.4590542 0.7670127 0.3946943
0.4492118 0.7627067 0.3936178
0.4393695 0.7584006 0.3925413
0.4295271 0.7540946 0.3914648
0.4196847 0.7497885 0.3903883
0.4098424 0.7454825 0.3893118
0.4000000 0.7411765 0.3882353
0.3883122 0.7354864 0.3853133
0.3766244 0.7297962 0.3823914
0.3649366 0.7241061 0.3794694
0.3532488 0.7184160 0.3765475
0.3415609 0.7127259 0.3736255
0.3298731 0.7070358 0.3707036
0.3181853 0.7013456 0.3677816
0.3064975 0.6956555 0.3648597
0.2948097 0.6899654 0.3619377
0.2831219 0.6842753 0.3590158
0.2714341 0.6785852 0.3560938
0.2597463 0.6728950 0.3531719
0.2480584 0.6672049 0.3502499
0.2363706 0.6615148 0.3473280
0.2246828 0.6558247 0.3444060
0.2129950 0.6501346 0.3414840
0.2013072 0.6444444 0.3385621
0.1896194 0.6387543 0.3356401
0.1779316 0.6330642 0.3327182
0.1662438 0.6273741 0.3297962
0.1545559 0.6216840 0.3268743
0.1428681 0.6159938 0.3239523
0.1311803 0.6103037 0.3210304
0.1194925 0.6046136 0.3181084
0.1078047 0.5989235 0.3151865
0.0999616 0.5923875 0.3118032
0.0959631 0.5850058 0.3079585
0.0919646 0.5776240 0.3041138
0.0879662 0.5702422 0.3002691
0.0839677 0.5628604 0.2964245
0.0799692 0.5554787 0.2925798
0.0759708 0.5480969 0.2887351
0.0719723 0.5407151 0.2848904
0.0679739 0.5333333 0.2810458
0.0639754 0.5259516 0.2772011
0.0599769 0.5185698 0.2733564
0.0559785 0.5111880 0.2695117
0.0519800 0.5038062 0.2656671
0.0479815 0.4964245 0.2618224
0.0439831 0.4890427 0.2579777
0.0399846 0.4816609 0.2541330
0.0359862 0.4742791 0.2502884
0.0319877 0.4668973 0.2464437
0.0279892 0.4595156 0.2425990
0.0239908 0.4521338 0.2387543
0.0199923 0.4447520 0.2349097
0.0159938 0.4373702 0.2310650
0.0119954 0.4299885 0.2272203
0.0079969 0.4226067 0.2233756
0.0039985 0.4152249 0.2195309
0.0000000 0.4078431 0.2156863
