posts/Davinci-Resolve-thermal-luts/colormaps-as-cube/Reds_r.cube
TITLE "Colormap Reds_r"
LUT_1D_SIZE 256
0.4039216 0.0000000 0.0509804
0.4115494 0.0018454 0.0519646
0.4191772 0.0036909 0.0529489
0.4268051 0.0055363 0.0539331
0.4344329 0.0073818 0.0549173
0.4420607 0.0092272 0.0559016
0.4496886 0.0110727 0.0568858
0.4573164 0.0129181 0.0578700
0.4649443 0.0147636 0.0588543
0.4725721 0.0166090 0.0598385
0.4801999 0.0184544 0.0608228
0.4878278 0.0202999 0.0618070
0.4954556 0.0221453 0.0627912
0.5030834 0.0239908 0.0637755
0.5107113 0.0258362 0.0647597
0.5183391 0.0276817 0.0657439
0.5259669 0.0295271 0.0667282
0.5335948 0.0313725 0.0677124
0.5412226 0.0332180 0.0686967
0.5488504 0.0350634 0.0696809
0.5564783 0.0369089 0.0706651
0.5641061 0.0387543 0.0716494
0.5717339 0.0405998 0.0726336
0.5793618 0.0424452 0.0736178
0.5869896 0.0442907 0.0746021
0.5946175 0.0461361 0.0755863
0.6022453 0.0479815 0.0765705
0.6098731 0.0498270 0.0775548
0.6175010 0.0516724 0.0785390
0.6251288 0.0535179 0.0795233
0.6327566 0.0553633 0.0805075
0.6403845 0.0572088 0.0814917
0.6476432 0.0589619 0.0824760
0.6523183 0.0600692 0.0834602
0.6569935 0.0611765 0.0844444
0.6616686 0.0622837 0.0854287
0.6663437 0.0633910 0.0864129
0.6710188 0.0644983 0.0873972
0.6756940 0.0656055 0.0883814
0.6803691 0.0667128 0.0893656
0.6850442 0.0678201 0.0903499
0.6897193 0.0689273 0.0913341
0.6943945 0.0700346 0.0923183
0.6990696 0.0711419 0.0933026
0.7037447 0.0722491 0.0942868
0.7084198 0.0733564 0.0952710
0.7130950 0.0744637 0.0962553
0.7177701 0.0755709 0.0972395
0.7224452 0.0766782 0.0982238
0.7271203 0.0777855 0.0992080
0.7317955 0.0788927 0.1001922
0.7364706 0.0800000 0.1011765
0.7411457 0.0811073 0.1021607
0.7458208 0.0822145 0.1031449
0.7504960 0.0833218 0.1041292
0.7551711 0.0844291 0.1051134
0.7598462 0.0855363 0.1060977
0.7645213 0.0866436 0.1070819
0.7691965 0.0877509 0.1080661
0.7738716 0.0888581 0.1090504
0.7785467 0.0899654 0.1100346
0.7832218 0.0910727 0.1110188
0.7878970 0.0921799 0.1120031
0.7925721 0.0932872 0.1129873
0.7971857 0.0951942 0.1141869
0.8016148 0.0995002 0.1160323
0.8060438 0.1038062 0.1178777
0.8104729 0.1081123 0.1197232
0.8149020 0.1124183 0.1215686
0.8193310 0.1167243 0.1234141
0.8237601 0.1210304 0.1252595
0.8281892 0.1253364 0.1271050
0.8326182 0.1296424 0.1289504
0.8370473 0.1339485 0.1307958
0.8414764 0.1382545 0.1326413
0.8459054 0.1425606 0.1344867
0.8503345 0.1468666 0.1363322
0.8547636 0.1511726 0.1381776
0.8591926 0.1554787 0.1400231
0.8636217 0.1597847 0.1418685
0.8680507 0.1640907 0.1437140
0.8724798 0.1683968 0.1455594
0.8769089 0.1727028 0.1474048
0.8813379 0.1770088 0.1492503
0.8857670 0.1813149 0.1510957
0.8901961 0.1856209 0.1529412
0.8946251 0.1899270 0.1547866
0.8990542 0.1942330 0.1566321
0.9034833 0.1985390 0.1584775
0.9079123 0.2028451 0.1603230
0.9123414 0.2071511 0.1621684
0.9167705 0.2114571 0.1640138
0.9211995 0.2157632 0.1658593
0.9256286 0.2200692 0.1677047
0.9300577 0.2243752 0.1695502
0.9344867 0.2286813 0.1713956
0.9378085 0.2335409 0.1739331
0.9392849 0.2393233 0.1776240
0.9407612 0.2451057 0.1813149
0.9422376 0.2508881 0.1850058
0.9437140 0.2566705 0.1886967
0.9451903 0.2624529 0.1923875
0.9466667 0.2682353 0.1960784
0.9481430 0.2740177 0.1997693
0.9496194 0.2798001 0.2034602
0.9510957 0.2855825 0.2071511
0.9525721 0.2913649 0.2108420
0.9540484 0.2971473 0.2145329
0.9555248 0.3029296 0.2182238
0.9570012 0.3087120 0.2219146
0.9584775 0.3144944 0.2256055
0.9599539 0.3202768 0.2292964
0.9614302 0.3260592 0.2329873
0.9629066 0.3318416 0.2366782
0.9643829 0.3376240 0.2403691
0.9658593 0.3434064 0.2440600
0.9673356 0.3491888 0.2477509
0.9688120 0.3549712 0.2514418
0.9702884 0.3607536 0.2551326
0.9717647 0.3665359 0.2588235
0.9732411 0.3723183 0.2625144
0.9747174 0.3781007 0.2662053
0.9761938 0.3838831 0.2698962
0.9776701 0.3896655 0.2735871
0.9791465 0.3954479 0.2772780
0.9806228 0.4012303 0.2809689
0.9820992 0.4070127 0.2846597
0.9835755 0.4127951 0.2883506
0.9843752 0.4181469 0.2926567
0.9844983 0.4230681 0.2975779
0.9846213 0.4279892 0.3024990
0.9847443 0.4329104 0.3074202
0.9848674 0.4378316 0.3123414
0.9849904 0.4427528 0.3172626
0.9851134 0.4476740 0.3221838
0.9852364 0.4525952 0.3271050
0.9853595 0.4575163 0.3320261
0.9854825 0.4624375 0.3369473
0.9856055 0.4673587 0.3418685
0.9857286 0.4722799 0.3467897
0.9858516 0.4772011 0.3517109
0.9859746 0.4821223 0.3566321
0.9860977 0.4870434 0.3615532
0.9862207 0.4919646 0.3664744
0.9863437 0.4968858 0.3713956
0.9864667 0.5018070 0.3763168
0.9865898 0.5067282 0.3812380
0.9867128 0.5116494 0.3861592
0.9868358 0.5165705 0.3910804
0.9869589 0.5214917 0.3960015
0.9870819 0.5264129 0.4009227
0.9872049 0.5313341 0.4058439
0.9873280 0.5362553 0.4107651
0.9874510 0.5411765 0.4156863
0.9875740 0.5460977 0.4206075
0.9876970 0.5510188 0.4255286
0.9878201 0.5559400 0.4304498
0.9879431 0.5608612 0.4353710
0.9880661 0.5657824 0.4402922
0.9881892 0.5707036 0.4452134
0.9882353 0.5757017 0.4506728
0.9882353 0.5807459 0.4564552
0.9882353 0.5857901 0.4622376
0.9882353 0.5908343 0.4680200
0.9882353 0.5958785 0.4738024
0.9882353 0.6009227 0.4795848
0.9882353 0.6059669 0.4853672
0.9882353 0.6110111 0.4911496
0.9882353 0.6160554 0.4969319
0.9882353 0.6210996 0.5027143
0.9882353 0.6261438 0.5084967
0.9882353 0.6311880 0.5142791
0.9882353 0.6362322 0.5200615
0.9882353 0.6412764 0.5258439
0.9882353 0.6463206 0.5316263
0.9882353 0.6513649 0.5374087
0.9882353 0.6564091 0.5431911
0.9882353 0.6614533 0.5489735
0.9882353 0.6664975 0.5547559
0.9882353 0.6715417 0.5605383
0.9882353 0.6765859 0.5663206
0.9882353 0.6816301 0.5721030
0.9882353 0.6866744 0.5778854
0.9882353 0.6917186 0.5836678
0.9882353 0.6967628 0.5894502
0.9882353 0.7018070 0.5952326
0.9882353 0.7068512 0.6010150
0.9882353 0.7118954 0.6067974
0.9882353 0.7169396 0.6125798
0.9882353 0.7219839 0.6183622
0.9882353 0.7270281 0.6241446
0.9882353 0.7320723 0.6299270
0.9884198 0.7367474 0.6358939
0.9886659 0.7412995 0.6419223
0.9889120 0.7458516 0.6479508
0.9891580 0.7504037 0.6539792
0.9894041 0.7549558 0.6600077
0.9896501 0.7595079 0.6660361
0.9898962 0.7640600 0.6720646
0.9901423 0.7686121 0.6780930
0.9903883 0.7731642 0.6841215
0.9906344 0.7777163 0.6901499
0.9908804 0.7822684 0.6961784
0.9911265 0.7868205 0.7022068
0.9913725 0.7913725 0.7082353
0.9916186 0.7959246 0.7142637
0.9918647 0.8004767 0.7202922
0.9921107 0.8050288 0.7263206
0.9923568 0.8095809 0.7323491
0.9926028 0.8141330 0.7383775
0.9928489 0.8186851 0.7444060
0.9930950 0.8232372 0.7504344
0.9933410 0.8277893 0.7564629
0.9935871 0.8323414 0.7624913
0.9938331 0.8368935 0.7685198
0.9940792 0.8414456 0.7745483
0.9943253 0.8459977 0.7805767
0.9945713 0.8505498 0.7866052
0.9948174 0.8551019 0.7926336
0.9950634 0.8596540 0.7986621
0.9953095 0.8642061 0.8046905
0.9955556 0.8687582 0.8107190
0.9958016 0.8733103 0.8167474
0.9960477 0.8778624 0.8227759
0.9961861 0.8806920 0.8267589
0.9963091 0.8832757 0.8304498
0.9964321 0.8858593 0.8341407
0.9965552 0.8884429 0.8378316
0.9966782 0.8910265 0.8415225
0.9968012 0.8936101 0.8452134
0.9969243 0.8961938 0.8489043
0.9970473 0.8987774 0.8525952
0.9971703 0.9013610 0.8562860
0.9972933 0.9039446 0.8599769
0.9974164 0.9065283 0.8636678
0.9975394 0.9091119 0.8673587
0.9976624 0.9116955 0.8710496
0.9977855 0.9142791 0.8747405
0.9979085 0.9168627 0.8784314
0.9980315 0.9194464 0.8821223
0.9981546 0.9220300 0.8858131
0.9982776 0.9246136 0.8895040
0.9984006 0.9271972 0.8931949
0.9985236 0.9297809 0.8968858
0.9986467 0.9323645 0.9005767
0.9987697 0.9349481 0.9042676
0.9988927 0.9375317 0.9079585
0.9990158 0.9401153 0.9116494
0.9991388 0.9426990 0.9153403
0.9992618 0.9452826 0.9190311
0.9993849 0.9478662 0.9227220
0.9995079 0.9504498 0.9264129
0.9996309 0.9530334 0.9301038
0.9997539 0.9556171 0.9337947
0.9998770 0.9582007 0.9374856
1.0000000 0.9607843 0.9411765
