posts/Davinci-Resolve-thermal-luts/colormaps-as-cube/seismic.cube
TITLE "Colormap seismic"
LUT_1D_SIZE 256
0.0000000 0.0000000 0.3000000
0.0000000 0.0000000 0.3109804
0.0000000 0.0000000 0.3219608
0.0000000 0.0000000 0.3329412
0.0000000 0.0000000 0.3439216
0.0000000 0.0000000 0.3549020
0.0000000 0.0000000 0.3658824
0.0000000 0.0000000 0.3768627
0.0000000 0.0000000 0.3878431
0.0000000 0.0000000 0.3988235
0.0000000 0.0000000 0.4098039
0.0000000 0.0000000 0.4207843
0.0000000 0.0000000 0.4317647
0.0000000 0.0000000 0.4427451
0.0000000 0.0000000 0.4537255
0.0000000 0.0000000 0.4647059
0.0000000 0.0000000 0.4756863
0.0000000 0.0000000 0.4866667
0.0000000 0.0000000 0.4976471
0.0000000 0.0000000 0.5086275
0.0000000 0.0000000 0.5196078
0.0000000 0.0000000 0.5305882
0.0000000 0.0000000 0.5415686
0.0000000 0.0000000 0.5525490
0.0000000 0.0000000 0.5635294
0.0000000 0.0000000 0.5745098
0.0000000 0.0000000 0.5854902
0.0000000 0.0000000 0.5964706
0.0000000 0.0000000 0.6074510
0.0000000 0.0000000 0.6184314
0.0000000 0.0000000 0.6294118
0.0000000 0.0000000 0.6403922
0.0000000 0.0000000 0.6513725
0.0000000 0.0000000 0.6623529
0.0000000 0.0000000 0.6733333
0.0000000 0.0000000 0.6843137
0.0000000 0.0000000 0.6952941
0.0000000 0.0000000 0.7062745
0.0000000 0.0000000 0.7172549
0.0000000 0.0000000 0.7282353
0.0000000 0.0000000 0.7392157
0.0000000 0.0000000 0.7501961
0.0000000 0.0000000 0.7611765
0.0000000 0.0000000 0.7721569
0.0000000 0.0000000 0.7831373
0.0000000 0.0000000 0.7941176
0.0000000 0.0000000 0.8050980
0.0000000 0.0000000 0.8160784
0.0000000 0.0000000 0.8270588
0.0000000 0.0000000 0.8380392
0.0000000 0.0000000 0.8490196
0.0000000 0.0000000 0.8600000
0.0000000 0.0000000 0.8709804
0.0000000 0.0000000 0.8819608
0.0000000 0.0000000 0.8929412
0.0000000 0.0000000 0.9039216
0.0000000 0.0000000 0.9149020
0.0000000 0.0000000 0.9258824
0.0000000 0.0000000 0.9368627
0.0000000 0.0000000 0.9478431
0.0000000 0.0000000 0.9588235
0.0000000 0.0000000 0.9698039
0.0000000 0.0000000 0.9807843
0.0000000 0.0000000 0.9917647
0.0039216 0.0039216 1.0000000
0.0196078 0.0196078 1.0000000
0.0352941 0.0352941 1.0000000
0.0509804 0.0509804 1.0000000
0.0666667 0.0666667 1.0000000
0.0823529 0.0823529 1.0000000
0.0980392 0.0980392 1.0000000
0.1137255 0.1137255 1.0000000
0.1294118 0.1294118 1.0000000
0.1450980 0.1450980 1.0000000
0.1607843 0.1607843 1.0000000
0.1764706 0.1764706 1.0000000
0.1921569 0.1921569 1.0000000
0.2078431 0.2078431 1.0000000
0.2235294 0.2235294 1.0000000
0.2392157 0.2392157 1.0000000
0.2549020 0.2549020 1.0000000
0.2705882 0.2705882 1.0000000
0.2862745 0.2862745 1.0000000
0.3019608 0.3019608 1.0000000
0.3176471 0.3176471 1.0000000
0.3333333 0.3333333 1.0000000
0.3490196 0.3490196 1.0000000
0.3647059 0.3647059 1.0000000
0.3803922 0.3803922 1.0000000
0.3960784 0.3960784 1.0000000
0.4117647 0.4117647 1.0000000
0.4274510 0.4274510 1.0000000
0.4431373 0.4431373 1.0000000
0.4588235 0.4588235 1.0000000
0.4745098 0.4745098 1.0000000
0.4901961 0.4901961 1.0000000
0.5058824 0.5058824 1.0000000
0.5215686 0.5215686 1.0000000
0.5372549 0.5372549 1.0000000
0.5529412 0.5529412 1.0000000
0.5686275 0.5686275 1.0000000
0.5843137 0.5843137 1.0000000
0.6000000 0.6000000 1.0000000
0.6156863 0.6156863 1.0000000
0.6313725 0.6313725 1.0000000
0.6470588 0.6470588 1.0000000
0.6627451 0.6627451 1.0000000
0.6784314 0.6784314 1.0000000
0.6941176 0.6941176 1.0000000
0.7098039 0.7098039 1.0000000
0.7254902 0.7254902 1.0000000
0.7411765 0.7411765 1.0000000
0.7568627 0.7568627 1.0000000
0.7725490 0.7725490 1.0000000
0.7882353 0.7882353 1.0000000
0.8039216 0.8039216 1.0000000
0.8196078 0.8196078 1.0000000
0.8352941 0.8352941 1.0000000
0.8509804 0.8509804 1.0000000
0.8666667 0.8666667 1.0000000
0.8823529 0.8823529 1.0000000
0.8980392 0.8980392 1.0000000
0.9137255 0.9137255 1.0000000
0.9294118 0.9294118 1.0000000
0.9450980 0.9450980 1.0000000
0.9607843 0.9607843 1.0000000
0.9764706 0.9764706 1.0000000
0.9921569 0.9921569 1.0000000
1.0000000 0.9921569 0.9921569
1.0000000 0.9764706 0.9764706
1.0000000 0.9607843 0.9607843
1.0000000 0.9450980 0.9450980
1.0000000 0.9294118 0.9294118
1.0000000 0.9137255 0.9137255
1.0000000 0.8980392 0.8980392
1.0000000 0.8823529 0.8823529
1.0000000 0.8666667 0.8666667
1.0000000 0.8509804 0.8509804
1.0000000 0.8352941 0.8352941
1.0000000 0.8196078 0.8196078
1.0000000 0.8039216 0.8039216
1.0000000 0.7882353 0.7882353
1.0000000 0.7725490 0.7725490
1.0000000 0.7568627 0.7568627
1.0000000 0.7411765 0.7411765
1.0000000 0.7254902 0.7254902
1.0000000 0.7098039 0.7098039
1.0000000 0.6941176 0.6941176
1.0000000 0.6784314 0.6784314
1.0000000 0.6627451 0.6627451
1.0000000 0.6470588 0.6470588
1.0000000 0.6313725 0.6313725
1.0000000 0.6156863 0.6156863
1.0000000 0.6000000 0.6000000
1.0000000 0.5843137 0.5843137
1.0000000 0.5686275 0.5686275
1.0000000 0.5529412 0.5529412
1.0000000 0.5372549 0.5372549
1.0000000 0.5215686 0.5215686
1.0000000 0.5058824 0.5058824
1.0000000 0.4901961 0.4901961
1.0000000 0.4745098 0.4745098
1.0000000 0.4588235 0.4588235
1.0000000 0.4431373 0.4431373
1.0000000 0.4274510 0.4274510
1.0000000 0.4117647 0.4117647
1.0000000 0.3960784 0.3960784
1.0000000 0.3803922 0.3803922
1.0000000 0.3647059 0.3647059
1.0000000 0.3490196 0.3490196
1.0000000 0.3333333 0.3333333
1.0000000 0.3176471 0.3176471
1.0000000 0.3019608 0.3019608
1.0000000 0.2862745 0.2862745
1.0000000 0.2705882 0.2705882
1.0000000 0.2549020 0.2549020
1.0000000 0.2392157 0.2392157
1.0000000 0.2235294 0.2235294
1.0000000 0.2078431 0.2078431
1.0000000 0.1921569 0.1921569
1.0000000 0.1764706 0.1764706
1.0000000 0.1607843 0.1607843
1.0000000 0.1450980 0.1450980
1.0000000 0.1294118 0.1294118
1.0000000 0.1137255 0.1137255
1.0000000 0.0980392 0.0980392
1.0000000 0.0823529 0.0823529
1.0000000 0.0666667 0.0666667
1.0000000 0.0509804 0.0509804
1.0000000 0.0352941 0.0352941
1.0000000 0.0196078 0.0196078
1.0000000 0.0039216 0.0039216
0.9941176 0.0000000 0.0000000
0.9862745 0.0000000 0.0000000
0.9784314 0.0000000 0.0000000
0.9705882 0.0000000 0.0000000
0.9627451 0.0000000 0.0000000
0.9549020 0.0000000 0.0000000
0.9470588 0.0000000 0.0000000
0.9392157 0.0000000 0.0000000
0.9313725 0.0000000 0.0000000
0.9235294 0.0000000 0.0000000
0.9156863 0.0000000 0.0000000
0.9078431 0.0000000 0.0000000
0.9000000 0.0000000 0.0000000
0.8921569 0.0000000 0.0000000
0.8843137 0.0000000 0.0000000
0.8764706 0.0000000 0.0000000
0.8686275 0.0000000 0.0000000
0.8607843 0.0000000 0.0000000
0.8529412 0.0000000 0.0000000
0.8450980 0.0000000 0.0000000
0.8372549 0.0000000 0.0000000
0.8294118 0.0000000 0.0000000
0.8215686 0.0000000 0.0000000
0.8137255 0.0000000 0.0000000
0.8058824 0.0000000 0.0000000
0.7980392 0.0000000 0.0000000
0.7901961 0.0000000 0.0000000
0.7823529 0.0000000 0.0000000
0.7745098 0.0000000 0.0000000
0.7666667 0.0000000 0.0000000
0.7588235 0.0000000 0.0000000
0.7509804 0.0000000 0.0000000
0.7431373 0.0000000 0.0000000
0.7352941 0.0000000 0.0000000
0.7274510 0.0000000 0.0000000
0.7196078 0.0000000 0.0000000
0.7117647 0.0000000 0.0000000
0.7039216 0.0000000 0.0000000
0.6960784 0.0000000 0.0000000
0.6882353 0.0000000 0.0000000
0.6803922 0.0000000 0.0000000
0.6725490 0.0000000 0.0000000
0.6647059 0.0000000 0.0000000
0.6568627 0.0000000 0.0000000
0.6490196 0.0000000 0.0000000
0.6411765 0.0000000 0.0000000
0.6333333 0.0000000 0.0000000
0.6254902 0.0000000 0.0000000
0.6176471 0.0000000 0.0000000
0.6098039 0.0000000 0.0000000
0.6019608 0.0000000 0.0000000
0.5941176 0.0000000 0.0000000
0.5862745 0.0000000 0.0000000
0.5784314 0.0000000 0.0000000
0.5705882 0.0000000 0.0000000
0.5627451 0.0000000 0.0000000
0.5549020 0.0000000 0.0000000
0.5470588 0.0000000 0.0000000
0.5392157 0.0000000 0.0000000
0.5313725 0.0000000 0.0000000
0.5235294 0.0000000 0.0000000
0.5156863 0.0000000 0.0000000
0.5078431 0.0000000 0.0000000
0.5000000 0.0000000 0.0000000
