posts/Davinci-Resolve-thermal-luts/colormaps-as-cube/Set1_r.cube
TITLE "Colormap Set1_r"
LUT_1D_SIZE 256
0.6000000 0.6000000 0.6000000
0.6000000 0.6000000 0.6000000
0.6000000 0.6000000 0.6000000
0.6000000 0.6000000 0.6000000
0.6000000 0.6000000 0.6000000
0.6000000 0.6000000 0.6000000
0.6000000 0.6000000 0.6000000
0.6000000 0.6000000 0.6000000
0.6000000 0.6000000 0.6000000
0.6000000 0.6000000 0.6000000
0.6000000 0.6000000 0.6000000
0.6000000 0.6000000 0.6000000
0.6000000 0.6000000 0.6000000
0.6000000 0.6000000 0.6000000
0.6000000 0.6000000 0.6000000
0.6000000 0.6000000 0.6000000
0.6000000 0.6000000 0.6000000
0.6000000 0.6000000 0.6000000
0.6000000 0.6000000 0.6000000
0.6000000 0.6000000 0.6000000
0.6000000 0.6000000 0.6000000
0.6000000 0.6000000 0.6000000
0.6000000 0.6000000 0.6000000
0.6000000 0.6000000 0.6000000
0.6000000 0.6000000 0.6000000
0.6000000 0.6000000 0.6000000
0.6000000 0.6000000 0.6000000
0.6000000 0.6000000 0.6000000
0.6000000 0.6000000 0.6000000
0.9686275 0.5058824 0.7490196
0.9686275 0.5058824 0.7490196
0.9686275 0.5058824 0.7490196
0.9686275 0.5058824 0.7490196
0.9686275 0.5058824 0.7490196
0.9686275 0.5058824 0.7490196
0.9686275 0.5058824 0.7490196
0.9686275 0.5058824 0.7490196
0.9686275 0.5058824 0.7490196
0.9686275 0.5058824 0.7490196
0.9686275 0.5058824 0.7490196
0.9686275 0.5058824 0.7490196
0.9686275 0.5058824 0.7490196
0.9686275 0.5058824 0.7490196
0.9686275 0.5058824 0.7490196
0.9686275 0.5058824 0.7490196
0.9686275 0.5058824 0.7490196
0.9686275 0.5058824 0.7490196
0.9686275 0.5058824 0.7490196
0.9686275 0.5058824 0.7490196
0.9686275 0.5058824 0.7490196
0.9686275 0.5058824 0.7490196
0.9686275 0.5058824 0.7490196
0.9686275 0.5058824 0.7490196
0.9686275 0.5058824 0.7490196
0.9686275 0.5058824 0.7490196
0.9686275 0.5058824 0.7490196
0.9686275 0.5058824 0.7490196
0.6509804 0.3372549 0.1568627
0.6509804 0.3372549 0.1568627
0.6509804 0.3372549 0.1568627
0.6509804 0.3372549 0.1568627
0.6509804 0.3372549 0.1568627
0.6509804 0.3372549 0.1568627
0.6509804 0.3372549 0.1568627
0.6509804 0.3372549 0.1568627
0.6509804 0.3372549 0.1568627
0.6509804 0.3372549 0.1568627
0.6509804 0.3372549 0.1568627
0.6509804 0.3372549 0.1568627
0.6509804 0.3372549 0.1568627
0.6509804 0.3372549 0.1568627
0.6509804 0.3372549 0.1568627
0.6509804 0.3372549 0.1568627
0.6509804 0.3372549 0.1568627
0.6509804 0.3372549 0.1568627
0.6509804 0.3372549 0.1568627
0.6509804 0.3372549 0.1568627
0.6509804 0.3372549 0.1568627
0.6509804 0.3372549 0.1568627
0.6509804 0.3372549 0.1568627
0.6509804 0.3372549 0.1568627
0.6509804 0.3372549 0.1568627
0.6509804 0.3372549 0.1568627
0.6509804 0.3372549 0.1568627
0.6509804 0.3372549 0.1568627
1.0000000 1.0000000 0.2000000
1.0000000 1.0000000 0.2000000
1.0000000 1.0000000 0.2000000
1.0000000 1.0000000 0.2000000
1.0000000 1.0000000 0.2000000
1.0000000 1.0000000 0.2000000
1.0000000 1.0000000 0.2000000
1.0000000 1.0000000 0.2000000
1.0000000 1.0000000 0.2000000
1.0000000 1.0000000 0.2000000
1.0000000 1.0000000 0.2000000
1.0000000 1.0000000 0.2000000
1.0000000 1.0000000 0.2000000
1.0000000 1.0000000 0.2000000
1.0000000 1.0000000 0.2000000
1.0000000 1.0000000 0.2000000
1.0000000 1.0000000 0.2000000
1.0000000 1.0000000 0.2000000
1.0000000 1.0000000 0.2000000
1.0000000 1.0000000 0.2000000
1.0000000 1.0000000 0.2000000
1.0000000 1.0000000 0.2000000
1.0000000 1.0000000 0.2000000
1.0000000 1.0000000 0.2000000
1.0000000 1.0000000 0.2000000
1.0000000 1.0000000 0.2000000
1.0000000 1.0000000 0.2000000
1.0000000 1.0000000 0.2000000
1.0000000 1.0000000 0.2000000
1.0000000 0.4980392 0.0000000
1.0000000 0.4980392 0.0000000
1.0000000 0.4980392 0.0000000
1.0000000 0.4980392 0.0000000
1.0000000 0.4980392 0.0000000
1.0000000 0.4980392 0.0000000
1.0000000 0.4980392 0.0000000
1.0000000 0.4980392 0.0000000
1.0000000 0.4980392 0.0000000
1.0000000 0.4980392 0.0000000
1.0000000 0.4980392 0.0000000
1.0000000 0.4980392 0.0000000
1.0000000 0.4980392 0.0000000
1.0000000 0.4980392 0.0000000
1.0000000 0.4980392 0.0000000
1.0000000 0.4980392 0.0000000
1.0000000 0.4980392 0.0000000
1.0000000 0.4980392 0.0000000
1.0000000 0.4980392 0.0000000
1.0000000 0.4980392 0.0000000
1.0000000 0.4980392 0.0000000
1.0000000 0.4980392 0.0000000
1.0000000 0.4980392 0.0000000
1.0000000 0.4980392 0.0000000
1.0000000 0.4980392 0.0000000
1.0000000 0.4980392 0.0000000
1.0000000 0.4980392 0.0000000
1.0000000 0.4980392 0.0000000
0.5960784 0.3058824 0.6392157
0.5960784 0.3058824 0.6392157
0.5960784 0.3058824 0.6392157
0.5960784 0.3058824 0.6392157
0.5960784 0.3058824 0.6392157
0.5960784 0.3058824 0.6392157
0.5960784 0.3058824 0.6392157
0.5960784 0.3058824 0.6392157
0.5960784 0.3058824 0.6392157
0.5960784 0.3058824 0.6392157
0.5960784 0.3058824 0.6392157
0.5960784 0.3058824 0.6392157
0.5960784 0.3058824 0.6392157
0.5960784 0.3058824 0.6392157
0.5960784 0.3058824 0.6392157
0.5960784 0.3058824 0.6392157
0.5960784 0.3058824 0.6392157
0.5960784 0.3058824 0.6392157
0.5960784 0.3058824 0.6392157
0.5960784 0.3058824 0.6392157
0.5960784 0.3058824 0.6392157
0.5960784 0.3058824 0.6392157
0.5960784 0.3058824 0.6392157
0.5960784 0.3058824 0.6392157
0.5960784 0.3058824 0.6392157
0.5960784 0.3058824 0.6392157
0.5960784 0.3058824 0.6392157
0.5960784 0.3058824 0.6392157
0.3019608 0.6862745 0.2901961
0.3019608 0.6862745 0.2901961
0.3019608 0.6862745 0.2901961
0.3019608 0.6862745 0.2901961
0.3019608 0.6862745 0.2901961
0.3019608 0.6862745 0.2901961
0.3019608 0.6862745 0.2901961
0.3019608 0.6862745 0.2901961
0.3019608 0.6862745 0.2901961
0.3019608 0.6862745 0.2901961
0.3019608 0.6862745 0.2901961
0.3019608 0.6862745 0.2901961
0.3019608 0.6862745 0.2901961
0.3019608 0.6862745 0.2901961
0.3019608 0.6862745 0.2901961
0.3019608 0.6862745 0.2901961
0.3019608 0.6862745 0.2901961
0.3019608 0.6862745 0.2901961
0.3019608 0.6862745 0.2901961
0.3019608 0.6862745 0.2901961
0.3019608 0.6862745 0.2901961
0.3019608 0.6862745 0.2901961
0.3019608 0.6862745 0.2901961
0.3019608 0.6862745 0.2901961
0.3019608 0.6862745 0.2901961
0.3019608 0.6862745 0.2901961
0.3019608 0.6862745 0.2901961
0.3019608 0.6862745 0.2901961
0.3019608 0.6862745 0.2901961
0.2156863 0.4941176 0.7215686
0.2156863 0.4941176 0.7215686
0.2156863 0.4941176 0.7215686
0.2156863 0.4941176 0.7215686
0.2156863 0.4941176 0.7215686
0.2156863 0.4941176 0.7215686
0.2156863 0.4941176 0.7215686
0.2156863 0.4941176 0.7215686
0.2156863 0.4941176 0.7215686
0.2156863 0.4941176 0.7215686
0.2156863 0.4941176 0.7215686
0.2156863 0.4941176 0.7215686
0.2156863 0.4941176 0.7215686
0.2156863 0.4941176 0.7215686
0.2156863 0.4941176 0.7215686
0.2156863 0.4941176 0.7215686
0.2156863 0.4941176 0.7215686
0.2156863 0.4941176 0.7215686
0.2156863 0.4941176 0.7215686
0.2156863 0.4941176 0.7215686
0.2156863 0.4941176 0.7215686
0.2156863 0.4941176 0.7215686
0.2156863 0.4941176 0.7215686
0.2156863 0.4941176 0.7215686
0.2156863 0.4941176 0.7215686
0.2156863 0.4941176 0.7215686
0.2156863 0.4941176 0.7215686
0.2156863 0.4941176 0.7215686
0.8941176 0.1019608 0.1098039
0.8941176 0.1019608 0.1098039
0.8941176 0.1019608 0.1098039
0.8941176 0.1019608 0.1098039
0.8941176 0.1019608 0.1098039
0.8941176 0.1019608 0.1098039
0.8941176 0.1019608 0.1098039
0.8941176 0.1019608 0.1098039
0.8941176 0.1019608 0.1098039
0.8941176 0.1019608 0.1098039
0.8941176 0.1019608 0.1098039
0.8941176 0.1019608 0.1098039
0.8941176 0.1019608 0.1098039
0.8941176 0.1019608 0.1098039
0.8941176 0.1019608 0.1098039
0.8941176 0.1019608 0.1098039
0.8941176 0.1019608 0.1098039
0.8941176 0.1019608 0.1098039
0.8941176 0.1019608 0.1098039
0.8941176 0.1019608 0.1098039
0.8941176 0.1019608 0.1098039
0.8941176 0.1019608 0.1098039
0.8941176 0.1019608 0.1098039
0.8941176 0.1019608 0.1098039
0.8941176 0.1019608 0.1098039
0.8941176 0.1019608 0.1098039
0.8941176 0.1019608 0.1098039
0.8941176 0.1019608 0.1098039
0.8941176 0.1019608 0.1098039
