posts/Davinci-Resolve-thermal-luts/colormaps-as-cube/Set2_r.cube
TITLE "Colormap Set2_r"
LUT_1D_SIZE 256
0.7019608 0.7019608 0.7019608
0.7019608 0.7019608 0.7019608
0.7019608 0.7019608 0.7019608
0.7019608 0.7019608 0.7019608
0.7019608 0.7019608 0.7019608
0.7019608 0.7019608 0.7019608
0.7019608 0.7019608 0.7019608
0.7019608 0.7019608 0.7019608
0.7019608 0.7019608 0.7019608
0.7019608 0.7019608 0.7019608
0.7019608 0.7019608 0.7019608
0.7019608 0.7019608 0.7019608
0.7019608 0.7019608 0.7019608
0.7019608 0.7019608 0.7019608
0.7019608 0.7019608 0.7019608
0.7019608 0.7019608 0.7019608
0.7019608 0.7019608 0.7019608
0.7019608 0.7019608 0.7019608
0.7019608 0.7019608 0.7019608
0.7019608 0.7019608 0.7019608
0.7019608 0.7019608 0.7019608
0.7019608 0.7019608 0.7019608
0.7019608 0.7019608 0.7019608
0.7019608 0.7019608 0.7019608
0.7019608 0.7019608 0.7019608
0.7019608 0.7019608 0.7019608
0.7019608 0.7019608 0.7019608
0.7019608 0.7019608 0.7019608
0.7019608 0.7019608 0.7019608
0.7019608 0.7019608 0.7019608
0.7019608 0.7019608 0.7019608
0.7019608 0.7019608 0.7019608
0.8980392 0.7686275 0.5803922
0.8980392 0.7686275 0.5803922
0.8980392 0.7686275 0.5803922
0.8980392 0.7686275 0.5803922
0.8980392 0.7686275 0.5803922
0.8980392 0.7686275 0.5803922
0.8980392 0.7686275 0.5803922
0.8980392 0.7686275 0.5803922
0.8980392 0.7686275 0.5803922
0.8980392 0.7686275 0.5803922
0.8980392 0.7686275 0.5803922
0.8980392 0.7686275 0.5803922
0.8980392 0.7686275 0.5803922
0.8980392 0.7686275 0.5803922
0.8980392 0.7686275 0.5803922
0.8980392 0.7686275 0.5803922
0.8980392 0.7686275 0.5803922
0.8980392 0.7686275 0.5803922
0.8980392 0.7686275 0.5803922
0.8980392 0.7686275 0.5803922
0.8980392 0.7686275 0.5803922
0.8980392 0.7686275 0.5803922
0.8980392 0.7686275 0.5803922
0.8980392 0.7686275 0.5803922
0.8980392 0.7686275 0.5803922
0.8980392 0.7686275 0.5803922
0.8980392 0.7686275 0.5803922
0.8980392 0.7686275 0.5803922
0.8980392 0.7686275 0.5803922
0.8980392 0.7686275 0.5803922
0.8980392 0.7686275 0.5803922
0.8980392 0.7686275 0.5803922
1.0000000 0.8509804 0.1843137
1.0000000 0.8509804 0.1843137
1.0000000 0.8509804 0.1843137
1.0000000 0.8509804 0.1843137
1.0000000 0.8509804 0.1843137
1.0000000 0.8509804 0.1843137
1.0000000 0.8509804 0.1843137
1.0000000 0.8509804 0.1843137
1.0000000 0.8509804 0.1843137
1.0000000 0.8509804 0.1843137
1.0000000 0.8509804 0.1843137
1.0000000 0.8509804 0.1843137
1.0000000 0.8509804 0.1843137
1.0000000 0.8509804 0.1843137
1.0000000 0.8509804 0.1843137
1.0000000 0.8509804 0.1843137
1.0000000 0.8509804 0.1843137
1.0000000 0.8509804 0.1843137
1.0000000 0.8509804 0.1843137
1.0000000 0.8509804 0.1843137
1.0000000 0.8509804 0.1843137
1.0000000 0.8509804 0.1843137
1.0000000 0.8509804 0.1843137
1.0000000 0.8509804 0.1843137
1.0000000 0.8509804 0.1843137
1.0000000 0.8509804 0.1843137
1.0000000 0.8509804 0.1843137
1.0000000 0.8509804 0.1843137
1.0000000 0.8509804 0.1843137
1.0000000 0.8509804 0.1843137
1.0000000 0.8509804 0.1843137
1.0000000 0.8509804 0.1843137
0.6509804 0.8470588 0.3294118
0.6509804 0.8470588 0.3294118
0.6509804 0.8470588 0.3294118
0.6509804 0.8470588 0.3294118
0.6509804 0.8470588 0.3294118
0.6509804 0.8470588 0.3294118
0.6509804 0.8470588 0.3294118
0.6509804 0.8470588 0.3294118
0.6509804 0.8470588 0.3294118
0.6509804 0.8470588 0.3294118
0.6509804 0.8470588 0.3294118
0.6509804 0.8470588 0.3294118
0.6509804 0.8470588 0.3294118
0.6509804 0.8470588 0.3294118
0.6509804 0.8470588 0.3294118
0.6509804 0.8470588 0.3294118
0.6509804 0.8470588 0.3294118
0.6509804 0.8470588 0.3294118
0.6509804 0.8470588 0.3294118
0.6509804 0.8470588 0.3294118
0.6509804 0.8470588 0.3294118
0.6509804 0.8470588 0.3294118
0.6509804 0.8470588 0.3294118
0.6509804 0.8470588 0.3294118
0.6509804 0.8470588 0.3294118
0.6509804 0.8470588 0.3294118
0.6509804 0.8470588 0.3294118
0.6509804 0.8470588 0.3294118
0.6509804 0.8470588 0.3294118
0.6509804 0.8470588 0.3294118
0.6509804 0.8470588 0.3294118
0.6509804 0.8470588 0.3294118
0.9058824 0.5411765 0.7647059
0.9058824 0.5411765 0.7647059
0.9058824 0.5411765 0.7647059
0.9058824 0.5411765 0.7647059
0.9058824 0.5411765 0.7647059
0.9058824 0.5411765 0.7647059
0.9058824 0.5411765 0.7647059
0.9058824 0.5411765 0.7647059
0.9058824 0.5411765 0.7647059
0.9058824 0.5411765 0.7647059
0.9058824 0.5411765 0.7647059
0.9058824 0.5411765 0.7647059
0.9058824 0.5411765 0.7647059
0.9058824 0.5411765 0.7647059
0.9058824 0.5411765 0.7647059
0.9058824 0.5411765 0.7647059
0.9058824 0.5411765 0.7647059
0.9058824 0.5411765 0.7647059
0.9058824 0.5411765 0.7647059
0.9058824 0.5411765 0.7647059
0.9058824 0.5411765 0.7647059
0.9058824 0.5411765 0.7647059
0.9058824 0.5411765 0.7647059
0.9058824 0.5411765 0.7647059
0.9058824 0.5411765 0.7647059
0.9058824 0.5411765 0.7647059
0.9058824 0.5411765 0.7647059
0.9058824 0.5411765 0.7647059
0.9058824 0.5411765 0.7647059
0.9058824 0.5411765 0.7647059
0.9058824 0.5411765 0.7647059
0.9058824 0.5411765 0.7647059
0.5529412 0.6274510 0.7960784
0.5529412 0.6274510 0.7960784
0.5529412 0.6274510 0.7960784
0.5529412 0.6274510 0.7960784
0.5529412 0.6274510 0.7960784
0.5529412 0.6274510 0.7960784
0.5529412 0.6274510 0.7960784
0.5529412 0.6274510 0.7960784
0.5529412 0.6274510 0.7960784
0.5529412 0.6274510 0.7960784
0.5529412 0.6274510 0.7960784
0.5529412 0.6274510 0.7960784
0.5529412 0.6274510 0.7960784
0.5529412 0.6274510 0.7960784
0.5529412 0.6274510 0.7960784
0.5529412 0.6274510 0.7960784
0.5529412 0.6274510 0.7960784
0.5529412 0.6274510 0.7960784
0.5529412 0.6274510 0.7960784
0.5529412 0.6274510 0.7960784
0.5529412 0.6274510 0.7960784
0.5529412 0.6274510 0.7960784
0.5529412 0.6274510 0.7960784
0.5529412 0.6274510 0.7960784
0.5529412 0.6274510 0.7960784
0.5529412 0.6274510 0.7960784
0.5529412 0.6274510 0.7960784
0.5529412 0.6274510 0.7960784
0.5529412 0.6274510 0.7960784
0.5529412 0.6274510 0.7960784
0.5529412 0.6274510 0.7960784
0.5529412 0.6274510 0.7960784
0.9882353 0.5529412 0.3843137
0.9882353 0.5529412 0.3843137
0.9882353 0.5529412 0.3843137
0.9882353 0.5529412 0.3843137
0.9882353 0.5529412 0.3843137
0.9882353 0.5529412 0.3843137
0.9882353 0.5529412 0.3843137
0.9882353 0.5529412 0.3843137
0.9882353 0.5529412 0.3843137
0.9882353 0.5529412 0.3843137
0.9882353 0.5529412 0.3843137
0.9882353 0.5529412 0.3843137
0.9882353 0.5529412 0.3843137
0.9882353 0.5529412 0.3843137
0.9882353 0.5529412 0.3843137
0.9882353 0.5529412 0.3843137
0.9882353 0.5529412 0.3843137
0.9882353 0.5529412 0.3843137
0.9882353 0.5529412 0.3843137
0.9882353 0.5529412 0.3843137
0.9882353 0.5529412 0.3843137
0.9882353 0.5529412 0.3843137
0.9882353 0.5529412 0.3843137
0.9882353 0.5529412 0.3843137
0.9882353 0.5529412 0.3843137
0.9882353 0.5529412 0.3843137
0.9882353 0.5529412 0.3843137
0.9882353 0.5529412 0.3843137
0.9882353 0.5529412 0.3843137
0.9882353 0.5529412 0.3843137
0.9882353 0.5529412 0.3843137
0.9882353 0.5529412 0.3843137
0.4000000 0.7607843 0.6470588
0.4000000 0.7607843 0.6470588
0.4000000 0.7607843 0.6470588
0.4000000 0.7607843 0.6470588
0.4000000 0.7607843 0.6470588
0.4000000 0.7607843 0.6470588
0.4000000 0.7607843 0.6470588
0.4000000 0.7607843 0.6470588
0.4000000 0.7607843 0.6470588
0.4000000 0.7607843 0.6470588
0.4000000 0.7607843 0.6470588
0.4000000 0.7607843 0.6470588
0.4000000 0.7607843 0.6470588
0.4000000 0.7607843 0.6470588
0.4000000 0.7607843 0.6470588
0.4000000 0.7607843 0.6470588
0.4000000 0.7607843 0.6470588
0.4000000 0.7607843 0.6470588
0.4000000 0.7607843 0.6470588
0.4000000 0.7607843 0.6470588
0.4000000 0.7607843 0.6470588
0.4000000 0.7607843 0.6470588
0.4000000 0.7607843 0.6470588
0.4000000 0.7607843 0.6470588
0.4000000 0.7607843 0.6470588
0.4000000 0.7607843 0.6470588
0.4000000 0.7607843 0.6470588
0.4000000 0.7607843 0.6470588
0.4000000 0.7607843 0.6470588
0.4000000 0.7607843 0.6470588
0.4000000 0.7607843 0.6470588
0.4000000 0.7607843 0.6470588
