posts/Davinci-Resolve-thermal-luts/colormaps-as-cube/Set3.cube
TITLE "Colormap Set3"
LUT_1D_SIZE 256
0.5529412 0.8274510 0.7803922
0.5529412 0.8274510 0.7803922
0.5529412 0.8274510 0.7803922
0.5529412 0.8274510 0.7803922
0.5529412 0.8274510 0.7803922
0.5529412 0.8274510 0.7803922
0.5529412 0.8274510 0.7803922
0.5529412 0.8274510 0.7803922
0.5529412 0.8274510 0.7803922
0.5529412 0.8274510 0.7803922
0.5529412 0.8274510 0.7803922
0.5529412 0.8274510 0.7803922
0.5529412 0.8274510 0.7803922
0.5529412 0.8274510 0.7803922
0.5529412 0.8274510 0.7803922
0.5529412 0.8274510 0.7803922
0.5529412 0.8274510 0.7803922
0.5529412 0.8274510 0.7803922
0.5529412 0.8274510 0.7803922
0.5529412 0.8274510 0.7803922
0.5529412 0.8274510 0.7803922
0.5529412 0.8274510 0.7803922
1.0000000 1.0000000 0.7019608
1.0000000 1.0000000 0.7019608
1.0000000 1.0000000 0.7019608
1.0000000 1.0000000 0.7019608
1.0000000 1.0000000 0.7019608
1.0000000 1.0000000 0.7019608
1.0000000 1.0000000 0.7019608
1.0000000 1.0000000 0.7019608
1.0000000 1.0000000 0.7019608
1.0000000 1.0000000 0.7019608
1.0000000 1.0000000 0.7019608
1.0000000 1.0000000 0.7019608
1.0000000 1.0000000 0.7019608
1.0000000 1.0000000 0.7019608
1.0000000 1.0000000 0.7019608
1.0000000 1.0000000 0.7019608
1.0000000 1.0000000 0.7019608
1.0000000 1.0000000 0.7019608
1.0000000 1.0000000 0.7019608
1.0000000 1.0000000 0.7019608
1.0000000 1.0000000 0.7019608
0.7450980 0.7294118 0.8549020
0.7450980 0.7294118 0.8549020
0.7450980 0.7294118 0.8549020
0.7450980 0.7294118 0.8549020
0.7450980 0.7294118 0.8549020
0.7450980 0.7294118 0.8549020
0.7450980 0.7294118 0.8549020
0.7450980 0.7294118 0.8549020
0.7450980 0.7294118 0.8549020
0.7450980 0.7294118 0.8549020
0.7450980 0.7294118 0.8549020
0.7450980 0.7294118 0.8549020
0.7450980 0.7294118 0.8549020
0.7450980 0.7294118 0.8549020
0.7450980 0.7294118 0.8549020
0.7450980 0.7294118 0.8549020
0.7450980 0.7294118 0.8549020
0.7450980 0.7294118 0.8549020
0.7450980 0.7294118 0.8549020
0.7450980 0.7294118 0.8549020
0.7450980 0.7294118 0.8549020
0.9843137 0.5019608 0.4470588
0.9843137 0.5019608 0.4470588
0.9843137 0.5019608 0.4470588
0.9843137 0.5019608 0.4470588
0.9843137 0.5019608 0.4470588
0.9843137 0.5019608 0.4470588
0.9843137 0.5019608 0.4470588
0.9843137 0.5019608 0.4470588
0.9843137 0.5019608 0.4470588
0.9843137 0.5019608 0.4470588
0.9843137 0.5019608 0.4470588
0.9843137 0.5019608 0.4470588
0.9843137 0.5019608 0.4470588
0.9843137 0.5019608 0.4470588
0.9843137 0.5019608 0.4470588
0.9843137 0.5019608 0.4470588
0.9843137 0.5019608 0.4470588
0.9843137 0.5019608 0.4470588
0.9843137 0.5019608 0.4470588
0.9843137 0.5019608 0.4470588
0.9843137 0.5019608 0.4470588
0.5019608 0.6941176 0.8274510
0.5019608 0.6941176 0.8274510
0.5019608 0.6941176 0.8274510
0.5019608 0.6941176 0.8274510
0.5019608 0.6941176 0.8274510
0.5019608 0.6941176 0.8274510
0.5019608 0.6941176 0.8274510
0.5019608 0.6941176 0.8274510
0.5019608 0.6941176 0.8274510
0.5019608 0.6941176 0.8274510
0.5019608 0.6941176 0.8274510
0.5019608 0.6941176 0.8274510
0.5019608 0.6941176 0.8274510
0.5019608 0.6941176 0.8274510
0.5019608 0.6941176 0.8274510
0.5019608 0.6941176 0.8274510
0.5019608 0.6941176 0.8274510
0.5019608 0.6941176 0.8274510
0.5019608 0.6941176 0.8274510
0.5019608 0.6941176 0.8274510
0.5019608 0.6941176 0.8274510
0.5019608 0.6941176 0.8274510
0.9921569 0.7058824 0.3843137
0.9921569 0.7058824 0.3843137
0.9921569 0.7058824 0.3843137
0.9921569 0.7058824 0.3843137
0.9921569 0.7058824 0.3843137
0.9921569 0.7058824 0.3843137
0.9921569 0.7058824 0.3843137
0.9921569 0.7058824 0.3843137
0.9921569 0.7058824 0.3843137
0.9921569 0.7058824 0.3843137
0.9921569 0.7058824 0.3843137
0.9921569 0.7058824 0.3843137
0.9921569 0.7058824 0.3843137
0.9921569 0.7058824 0.3843137
0.9921569 0.7058824 0.3843137
0.9921569 0.7058824 0.3843137
0.9921569 0.7058824 0.3843137
0.9921569 0.7058824 0.3843137
0.9921569 0.7058824 0.3843137
0.9921569 0.7058824 0.3843137
0.9921569 0.7058824 0.3843137
0.7019608 0.8705882 0.4117647
0.7019608 0.8705882 0.4117647
0.7019608 0.8705882 0.4117647
0.7019608 0.8705882 0.4117647
0.7019608 0.8705882 0.4117647
0.7019608 0.8705882 0.4117647
0.7019608 0.8705882 0.4117647
0.7019608 0.8705882 0.4117647
0.7019608 0.8705882 0.4117647
0.7019608 0.8705882 0.4117647
0.7019608 0.8705882 0.4117647
0.7019608 0.8705882 0.4117647
0.7019608 0.8705882 0.4117647
0.7019608 0.8705882 0.4117647
0.7019608 0.8705882 0.4117647
0.7019608 0.8705882 0.4117647
0.7019608 0.8705882 0.4117647
0.7019608 0.8705882 0.4117647
0.7019608 0.8705882 0.4117647
0.7019608 0.8705882 0.4117647
0.7019608 0.8705882 0.4117647
0.9882353 0.8039216 0.8980392
0.9882353 0.8039216 0.8980392
0.9882353 0.8039216 0.8980392
0.9882353 0.8039216 0.8980392
0.9882353 0.8039216 0.8980392
0.9882353 0.8039216 0.8980392
0.9882353 0.8039216 0.8980392
0.9882353 0.8039216 0.8980392
0.9882353 0.8039216 0.8980392
0.9882353 0.8039216 0.8980392
0.9882353 0.8039216 0.8980392
0.9882353 0.8039216 0.8980392
0.9882353 0.8039216 0.8980392
0.9882353 0.8039216 0.8980392
0.9882353 0.8039216 0.8980392
0.9882353 0.8039216 0.8980392
0.9882353 0.8039216 0.8980392
0.9882353 0.8039216 0.8980392
0.9882353 0.8039216 0.8980392
0.9882353 0.8039216 0.8980392
0.9882353 0.8039216 0.8980392
0.8509804 0.8509804 0.8509804
0.8509804 0.8509804 0.8509804
0.8509804 0.8509804 0.8509804
0.8509804 0.8509804 0.8509804
0.8509804 0.8509804 0.8509804
0.8509804 0.8509804 0.8509804
0.8509804 0.8509804 0.8509804
0.8509804 0.8509804 0.8509804
0.8509804 0.8509804 0.8509804
0.8509804 0.8509804 0.8509804
0.8509804 0.8509804 0.8509804
0.8509804 0.8509804 0.8509804
0.8509804 0.8509804 0.8509804
0.8509804 0.8509804 0.8509804
0.8509804 0.8509804 0.8509804
0.8509804 0.8509804 0.8509804
0.8509804 0.8509804 0.8509804
0.8509804 0.8509804 0.8509804
0.8509804 0.8509804 0.8509804
0.8509804 0.8509804 0.8509804
0.8509804 0.8509804 0.8509804
0.8509804 0.8509804 0.8509804
0.7372549 0.5019608 0.7411765
0.7372549 0.5019608 0.7411765
0.7372549 0.5019608 0.7411765
0.7372549 0.5019608 0.7411765
0.7372549 0.5019608 0.7411765
0.7372549 0.5019608 0.7411765
0.7372549 0.5019608 0.7411765
0.7372549 0.5019608 0.7411765
0.7372549 0.5019608 0.7411765
0.7372549 0.5019608 0.7411765
0.7372549 0.5019608 0.7411765
0.7372549 0.5019608 0.7411765
0.7372549 0.5019608 0.7411765
0.7372549 0.5019608 0.7411765
0.7372549 0.5019608 0.7411765
0.7372549 0.5019608 0.7411765
0.7372549 0.5019608 0.7411765
0.7372549 0.5019608 0.7411765
0.7372549 0.5019608 0.7411765
0.7372549 0.5019608 0.7411765
0.7372549 0.5019608 0.7411765
0.8000000 0.9215686 0.7725490
0.8000000 0.9215686 0.7725490
0.8000000 0.9215686 0.7725490
0.8000000 0.9215686 0.7725490
0.8000000 0.9215686 0.7725490
0.8000000 0.9215686 0.7725490
0.8000000 0.9215686 0.7725490
0.8000000 0.9215686 0.7725490
0.8000000 0.9215686 0.7725490
0.8000000 0.9215686 0.7725490
0.8000000 0.9215686 0.7725490
0.8000000 0.9215686 0.7725490
0.8000000 0.9215686 0.7725490
0.8000000 0.9215686 0.7725490
0.8000000 0.9215686 0.7725490
0.8000000 0.9215686 0.7725490
0.8000000 0.9215686 0.7725490
0.8000000 0.9215686 0.7725490
0.8000000 0.9215686 0.7725490
0.8000000 0.9215686 0.7725490
0.8000000 0.9215686 0.7725490
1.0000000 0.9294118 0.4352941
1.0000000 0.9294118 0.4352941
1.0000000 0.9294118 0.4352941
1.0000000 0.9294118 0.4352941
1.0000000 0.9294118 0.4352941
1.0000000 0.9294118 0.4352941
1.0000000 0.9294118 0.4352941
1.0000000 0.9294118 0.4352941
1.0000000 0.9294118 0.4352941
1.0000000 0.9294118 0.4352941
1.0000000 0.9294118 0.4352941
1.0000000 0.9294118 0.4352941
1.0000000 0.9294118 0.4352941
1.0000000 0.9294118 0.4352941
1.0000000 0.9294118 0.4352941
1.0000000 0.9294118 0.4352941
1.0000000 0.9294118 0.4352941
1.0000000 0.9294118 0.4352941
1.0000000 0.9294118 0.4352941
1.0000000 0.9294118 0.4352941
1.0000000 0.9294118 0.4352941
1.0000000 0.9294118 0.4352941
