posts/Davinci-Resolve-thermal-luts/colormaps-as-cube/Spectral_r.cube
TITLE "Colormap Spectral_r"
LUT_1D_SIZE 256
0.3686275 0.3098039 0.6352941
0.3618608 0.3185698 0.6394464
0.3550942 0.3273356 0.6435986
0.3483276 0.3361015 0.6477509
0.3415609 0.3448674 0.6519031
0.3347943 0.3536332 0.6560554
0.3280277 0.3623991 0.6602076
0.3212611 0.3711649 0.6643599
0.3144944 0.3799308 0.6685121
0.3077278 0.3886967 0.6726644
0.3009612 0.3974625 0.6768166
0.2941945 0.4062284 0.6809689
0.2874279 0.4149942 0.6851211
0.2806613 0.4237601 0.6892734
0.2738947 0.4325260 0.6934256
0.2671280 0.4412918 0.6975779
0.2603614 0.4500577 0.7017301
0.2535948 0.4588235 0.7058824
0.2468281 0.4675894 0.7100346
0.2400615 0.4763552 0.7141869
0.2332949 0.4851211 0.7183391
0.2265283 0.4938870 0.7224913
0.2197616 0.5026528 0.7266436
0.2129950 0.5114187 0.7307958
0.2062284 0.5201845 0.7349481
0.1994617 0.5289504 0.7391003
0.2000769 0.5377932 0.7393310
0.2080738 0.5467128 0.7356401
0.2160707 0.5556324 0.7319493
0.2240677 0.5645521 0.7282584
0.2320646 0.5734717 0.7245675
0.2400615 0.5823914 0.7208766
0.2480584 0.5913110 0.7171857
0.2560554 0.6002307 0.7134948
0.2640523 0.6091503 0.7098039
0.2720492 0.6180700 0.7061130
0.2800461 0.6269896 0.7024221
0.2880431 0.6359093 0.6987313
0.2960400 0.6448289 0.6950404
0.3040369 0.6537486 0.6913495
0.3120338 0.6626682 0.6876586
0.3200308 0.6715879 0.6839677
0.3280277 0.6805075 0.6802768
0.3360246 0.6894271 0.6765859
0.3440215 0.6983468 0.6728950
0.3520185 0.7072664 0.6692042
0.3600154 0.7161861 0.6655133
0.3680123 0.7251057 0.6618224
0.3760092 0.7340254 0.6581315
0.3840062 0.7429450 0.6544406
0.3920031 0.7518647 0.6507497
0.4000000 0.7607843 0.6470588
0.4106113 0.7649366 0.6469050
0.4212226 0.7690888 0.6467512
0.4318339 0.7732411 0.6465975
0.4424452 0.7773933 0.6464437
0.4530565 0.7815456 0.6462899
0.4636678 0.7856978 0.6461361
0.4742791 0.7898501 0.6459823
0.4848904 0.7940023 0.6458285
0.4955017 0.7981546 0.6456747
0.5061130 0.8023068 0.6455210
0.5167243 0.8064591 0.6453672
0.5273356 0.8106113 0.6452134
0.5379469 0.8147636 0.6450596
0.5485582 0.8189158 0.6449058
0.5591696 0.8230681 0.6447520
0.5697809 0.8272203 0.6445982
0.5803922 0.8313725 0.6444444
0.5910035 0.8355248 0.6442907
0.6016148 0.8396770 0.6441369
0.6122261 0.8438293 0.6439831
0.6228374 0.8479815 0.6438293
0.6334487 0.8521338 0.6436755
0.6440600 0.8562860 0.6435217
0.6546713 0.8604383 0.6433679
0.6652826 0.8645905 0.6432141
0.6751250 0.8685121 0.6422145
0.6841984 0.8722030 0.6403691
0.6932718 0.8758939 0.6385236
0.7023453 0.8795848 0.6366782
0.7114187 0.8832757 0.6348328
0.7204921 0.8869666 0.6329873
0.7295656 0.8906574 0.6311419
0.7386390 0.8943483 0.6292964
0.7477124 0.8980392 0.6274510
0.7567859 0.9017301 0.6256055
0.7658593 0.9054210 0.6237601
0.7749327 0.9091119 0.6219146
0.7840062 0.9128028 0.6200692
0.7930796 0.9164937 0.6182238
0.8021530 0.9201845 0.6163783
0.8112265 0.9238754 0.6145329
0.8202999 0.9275663 0.6126874
0.8293733 0.9312572 0.6108420
0.8384468 0.9349481 0.6089965
0.8475202 0.9386390 0.6071511
0.8565936 0.9423299 0.6053057
0.8656671 0.9460208 0.6034602
0.8747405 0.9497116 0.6016148
0.8838139 0.9534025 0.5997693
0.8928874 0.9570934 0.5979239
0.9019608 0.9607843 0.5960784
0.9058055 0.9623222 0.6020761
0.9096501 0.9638601 0.6080738
0.9134948 0.9653979 0.6140715
0.9173395 0.9669358 0.6200692
0.9211842 0.9684737 0.6260669
0.9250288 0.9700115 0.6320646
0.9288735 0.9715494 0.6380623
0.9327182 0.9730873 0.6440600
0.9365629 0.9746251 0.6500577
0.9404075 0.9761630 0.6560554
0.9442522 0.9777009 0.6620531
0.9480969 0.9792388 0.6680507
0.9519416 0.9807766 0.6740484
0.9557862 0.9823145 0.6800461
0.9596309 0.9838524 0.6860438
0.9634756 0.9853902 0.6920415
0.9673203 0.9869281 0.6980392
0.9711649 0.9884660 0.7040369
0.9750096 0.9900038 0.7100346
0.9788543 0.9915417 0.7160323
0.9826990 0.9930796 0.7220300
0.9865436 0.9946175 0.7280277
0.9903883 0.9961553 0.7340254
0.9942330 0.9976932 0.7400231
0.9980777 0.9992311 0.7460208
0.9999231 0.9976163 0.7450211
0.9997693 0.9928489 0.7370242
0.9996155 0.9880815 0.7290273
0.9994617 0.9833141 0.7210304
0.9993080 0.9785467 0.7130334
0.9991542 0.9737793 0.7050365
0.9990004 0.9690119 0.6970396
0.9988466 0.9642445 0.6890427
0.9986928 0.9594771 0.6810458
0.9985390 0.9547097 0.6730488
0.9983852 0.9499423 0.6650519
0.9982314 0.9451749 0.6570550
0.9980777 0.9404075 0.6490581
0.9979239 0.9356401 0.6410611
0.9977701 0.9308727 0.6330642
0.9976163 0.9261053 0.6250673
0.9974625 0.9213379 0.6170704
0.9973087 0.9165705 0.6090734
0.9971549 0.9118032 0.6010765
0.9970012 0.9070358 0.5930796
0.9968474 0.9022684 0.5850827
0.9966936 0.8975010 0.5770857
0.9965398 0.8927336 0.5690888
0.9963860 0.8879662 0.5610919
0.9962322 0.8831988 0.5530950
0.9960784 0.8784314 0.5450980
0.9959246 0.8707420 0.5386390
0.9957709 0.8630527 0.5321799
0.9956171 0.8553633 0.5257209
0.9954633 0.8476740 0.5192618
0.9953095 0.8399846 0.5128028
0.9951557 0.8322953 0.5063437
0.9950019 0.8246059 0.4998847
0.9948481 0.8169166 0.4934256
0.9946943 0.8092272 0.4869666
0.9945406 0.8015379 0.4805075
0.9943868 0.7938485 0.4740484
0.9942330 0.7861592 0.4675894
0.9940792 0.7784698 0.4611303
0.9939254 0.7707805 0.4546713
0.9937716 0.7630911 0.4482122
0.9936178 0.7554018 0.4417532
0.9934641 0.7477124 0.4352941
0.9933103 0.7400231 0.4288351
0.9931565 0.7323337 0.4223760
0.9930027 0.7246444 0.4159170
0.9928489 0.7169550 0.4094579
0.9926951 0.7092657 0.4029988
0.9925413 0.7015763 0.3965398
0.9923875 0.6938870 0.3900807
0.9922338 0.6861976 0.3836217
0.9914648 0.6773549 0.3780854
0.9900807 0.6673587 0.3734717
0.9886967 0.6573626 0.3688581
0.9873126 0.6473664 0.3642445
0.9859285 0.6373702 0.3596309
0.9845444 0.6273741 0.3550173
0.9831603 0.6173779 0.3504037
0.9817762 0.6073818 0.3457901
0.9803922 0.5973856 0.3411765
0.9790081 0.5873895 0.3365629
0.9776240 0.5773933 0.3319493
0.9762399 0.5673972 0.3273356
0.9748558 0.5574010 0.3227220
0.9734717 0.5474048 0.3181084
0.9720877 0.5374087 0.3134948
0.9707036 0.5274125 0.3088812
0.9693195 0.5174164 0.3042676
0.9679354 0.5074202 0.2996540
0.9665513 0.4974241 0.2950404
0.9651672 0.4874279 0.2904268
0.9637832 0.4774318 0.2858131
0.9623991 0.4674356 0.2811995
0.9610150 0.4574394 0.2765859
0.9596309 0.4474433 0.2719723
0.9582468 0.4374471 0.2673587
0.9568627 0.4274510 0.2627451
0.9520953 0.4202230 0.2645905
0.9473280 0.4129950 0.2664360
0.9425606 0.4057670 0.2682814
0.9377932 0.3985390 0.2701269
0.9330258 0.3913110 0.2719723
0.9282584 0.3840830 0.2738178
0.9234910 0.3768551 0.2756632
0.9187236 0.3696271 0.2775087
0.9139562 0.3623991 0.2793541
0.9091888 0.3551711 0.2811995
0.9044214 0.3479431 0.2830450
0.8996540 0.3407151 0.2848904
0.8948866 0.3334871 0.2867359
0.8901192 0.3262591 0.2885813
0.8853518 0.3190311 0.2904268
0.8805844 0.3118032 0.2922722
0.8758170 0.3045752 0.2941176
0.8710496 0.2973472 0.2959631
0.8662822 0.2901192 0.2978085
0.8615148 0.2828912 0.2996540
0.8567474 0.2756632 0.3014994
0.8519800 0.2684352 0.3033449
0.8472126 0.2612072 0.3051903
0.8424452 0.2539792 0.3070358
0.8376778 0.2467512 0.3088812
0.8310650 0.2384468 0.3088043
0.8226067 0.2290657 0.3068051
0.8141484 0.2196847 0.3048058
0.8056901 0.2103037 0.3028066
0.7972318 0.2009227 0.3008074
0.7887735 0.1915417 0.2988082
0.7803153 0.1821607 0.2968089
0.7718570 0.1727797 0.2948097
0.7633987 0.1633987 0.2928105
0.7549404 0.1540177 0.2908112
0.7464821 0.1446367 0.2888120
0.7380238 0.1352557 0.2868128
0.7295656 0.1258747 0.2848135
0.7211073 0.1164937 0.2828143
0.7126490 0.1071126 0.2808151
0.7041907 0.0977316 0.2788158
0.6957324 0.0883506 0.2768166
0.6872741 0.0789696 0.2748174
0.6788158 0.0695886 0.2728181
0.6703576 0.0602076 0.2708189
0.6618993 0.0508266 0.2688197
0.6534410 0.0414456 0.2668205
0.6449827 0.0320646 0.2648212
0.6365244 0.0226836 0.2628220
0.6280661 0.0133026 0.2608228
0.6196078 0.0039216 0.2588235
