posts/Davinci-Resolve-thermal-luts/colormaps-as-cube/tab10_r.cube
TITLE "Colormap tab10_r"
LUT_1D_SIZE 256
0.0901961 0.7450980 0.8117647
0.0901961 0.7450980 0.8117647
0.0901961 0.7450980 0.8117647
0.0901961 0.7450980 0.8117647
0.0901961 0.7450980 0.8117647
0.0901961 0.7450980 0.8117647
0.0901961 0.7450980 0.8117647
0.0901961 0.7450980 0.8117647
0.0901961 0.7450980 0.8117647
0.0901961 0.7450980 0.8117647
0.0901961 0.7450980 0.8117647
0.0901961 0.7450980 0.8117647
0.0901961 0.7450980 0.8117647
0.0901961 0.7450980 0.8117647
0.0901961 0.7450980 0.8117647
0.0901961 0.7450980 0.8117647
0.0901961 0.7450980 0.8117647
0.0901961 0.7450980 0.8117647
0.0901961 0.7450980 0.8117647
0.0901961 0.7450980 0.8117647
0.0901961 0.7450980 0.8117647
0.0901961 0.7450980 0.8117647
0.0901961 0.7450980 0.8117647
0.0901961 0.7450980 0.8117647
0.0901961 0.7450980 0.8117647
0.0901961 0.7450980 0.8117647
0.7372549 0.7411765 0.1333333
0.7372549 0.7411765 0.1333333
0.7372549 0.7411765 0.1333333
0.7372549 0.7411765 0.1333333
0.7372549 0.7411765 0.1333333
0.7372549 0.7411765 0.1333333
0.7372549 0.7411765 0.1333333
0.7372549 0.7411765 0.1333333
0.7372549 0.7411765 0.1333333
0.7372549 0.7411765 0.1333333
0.7372549 0.7411765 0.1333333
0.7372549 0.7411765 0.1333333
0.7372549 0.7411765 0.1333333
0.7372549 0.7411765 0.1333333
0.7372549 0.7411765 0.1333333
0.7372549 0.7411765 0.1333333
0.7372549 0.7411765 0.1333333
0.7372549 0.7411765 0.1333333
0.7372549 0.7411765 0.1333333
0.7372549 0.7411765 0.1333333
0.7372549 0.7411765 0.1333333
0.7372549 0.7411765 0.1333333
0.7372549 0.7411765 0.1333333
0.7372549 0.7411765 0.1333333
0.7372549 0.7411765 0.1333333
0.4980392 0.4980392 0.4980392
0.4980392 0.4980392 0.4980392
0.4980392 0.4980392 0.4980392
0.4980392 0.4980392 0.4980392
0.4980392 0.4980392 0.4980392
0.4980392 0.4980392 0.4980392
0.4980392 0.4980392 0.4980392
0.4980392 0.4980392 0.4980392
0.4980392 0.4980392 0.4980392
0.4980392 0.4980392 0.4980392
0.4980392 0.4980392 0.4980392
0.4980392 0.4980392 0.4980392
0.4980392 0.4980392 0.4980392
0.4980392 0.4980392 0.4980392
0.4980392 0.4980392 0.4980392
0.4980392 0.4980392 0.4980392
0.4980392 0.4980392 0.4980392
0.4980392 0.4980392 0.4980392
0.4980392 0.4980392 0.4980392
0.4980392 0.4980392 0.4980392
0.4980392 0.4980392 0.4980392
0.4980392 0.4980392 0.4980392
0.4980392 0.4980392 0.4980392
0.4980392 0.4980392 0.4980392
0.4980392 0.4980392 0.4980392
0.4980392 0.4980392 0.4980392
0.8901961 0.4666667 0.7607843
0.8901961 0.4666667 0.7607843
0.8901961 0.4666667 0.7607843
0.8901961 0.4666667 0.7607843
0.8901961 0.4666667 0.7607843
0.8901961 0.4666667 0.7607843
0.8901961 0.4666667 0.7607843
0.8901961 0.4666667 0.7607843
0.8901961 0.4666667 0.7607843
0.8901961 0.4666667 0.7607843
0.8901961 0.4666667 0.7607843
0.8901961 0.4666667 0.7607843
0.8901961 0.4666667 0.7607843
0.8901961 0.4666667 0.7607843
0.8901961 0.4666667 0.7607843
0.8901961 0.4666667 0.7607843
0.8901961 0.4666667 0.7607843
0.8901961 0.4666667 0.7607843
0.8901961 0.4666667 0.7607843
0.8901961 0.4666667 0.7607843
0.8901961 0.4666667 0.7607843
0.8901961 0.4666667 0.7607843
0.8901961 0.4666667 0.7607843
0.8901961 0.4666667 0.7607843
0.8901961 0.4666667 0.7607843
0.5490196 0.3372549 0.2941176
0.5490196 0.3372549 0.2941176
0.5490196 0.3372549 0.2941176
0.5490196 0.3372549 0.2941176
0.5490196 0.3372549 0.2941176
0.5490196 0.3372549 0.2941176
0.5490196 0.3372549 0.2941176
0.5490196 0.3372549 0.2941176
0.5490196 0.3372549 0.2941176
0.5490196 0.3372549 0.2941176
0.5490196 0.3372549 0.2941176
0.5490196 0.3372549 0.2941176
0.5490196 0.3372549 0.2941176
0.5490196 0.3372549 0.2941176
0.5490196 0.3372549 0.2941176
0.5490196 0.3372549 0.2941176
0.5490196 0.3372549 0.2941176
0.5490196 0.3372549 0.2941176
0.5490196 0.3372549 0.2941176
0.5490196 0.3372549 0.2941176
0.5490196 0.3372549 0.2941176
0.5490196 0.3372549 0.2941176
0.5490196 0.3372549 0.2941176
0.5490196 0.3372549 0.2941176
0.5490196 0.3372549 0.2941176
0.5490196 0.3372549 0.2941176
0.5803922 0.4039216 0.7411765
0.5803922 0.4039216 0.7411765
0.5803922 0.4039216 0.7411765
0.5803922 0.4039216 0.7411765
0.5803922 0.4039216 0.7411765
0.5803922 0.4039216 0.7411765
0.5803922 0.4039216 0.7411765
0.5803922 0.4039216 0.7411765
0.5803922 0.4039216 0.7411765
0.5803922 0.4039216 0.7411765
0.5803922 0.4039216 0.7411765
0.5803922 0.4039216 0.7411765
0.5803922 0.4039216 0.7411765
0.5803922 0.4039216 0.7411765
0.5803922 0.4039216 0.7411765
0.5803922 0.4039216 0.7411765
0.5803922 0.4039216 0.7411765
0.5803922 0.4039216 0.7411765
0.5803922 0.4039216 0.7411765
0.5803922 0.4039216 0.7411765
0.5803922 0.4039216 0.7411765
0.5803922 0.4039216 0.7411765
0.5803922 0.4039216 0.7411765
0.5803922 0.4039216 0.7411765
0.5803922 0.4039216 0.7411765
0.8392157 0.1529412 0.1568627
0.8392157 0.1529412 0.1568627
0.8392157 0.1529412 0.1568627
0.8392157 0.1529412 0.1568627
0.8392157 0.1529412 0.1568627
0.8392157 0.1529412 0.1568627
0.8392157 0.1529412 0.1568627
0.8392157 0.1529412 0.1568627
0.8392157 0.1529412 0.1568627
0.8392157 0.1529412 0.1568627
0.8392157 0.1529412 0.1568627
0.8392157 0.1529412 0.1568627
0.8392157 0.1529412 0.1568627
0.8392157 0.1529412 0.1568627
0.8392157 0.1529412 0.1568627
0.8392157 0.1529412 0.1568627
0.8392157 0.1529412 0.1568627
0.8392157 0.1529412 0.1568627
0.8392157 0.1529412 0.1568627
0.8392157 0.1529412 0.1568627
0.8392157 0.1529412 0.1568627
0.8392157 0.1529412 0.1568627
0.8392157 0.1529412 0.1568627
0.8392157 0.1529412 0.1568627
0.8392157 0.1529412 0.1568627
0.8392157 0.1529412 0.1568627
0.1725490 0.6274510 0.1725490
0.1725490 0.6274510 0.1725490
0.1725490 0.6274510 0.1725490
0.1725490 0.6274510 0.1725490
0.1725490 0.6274510 0.1725490
0.1725490 0.6274510 0.1725490
0.1725490 0.6274510 0.1725490
0.1725490 0.6274510 0.1725490
0.1725490 0.6274510 0.1725490
0.1725490 0.6274510 0.1725490
0.1725490 0.6274510 0.1725490
0.1725490 0.6274510 0.1725490
0.1725490 0.6274510 0.1725490
0.1725490 0.6274510 0.1725490
0.1725490 0.6274510 0.1725490
0.1725490 0.6274510 0.1725490
0.1725490 0.6274510 0.1725490
0.1725490 0.6274510 0.1725490
0.1725490 0.6274510 0.1725490
0.1725490 0.6274510 0.1725490
0.1725490 0.6274510 0.1725490
0.1725490 0.6274510 0.1725490
0.1725490 0.6274510 0.1725490
0.1725490 0.6274510 0.1725490
0.1725490 0.6274510 0.1725490
1.0000000 0.4980392 0.0549020
1.0000000 0.4980392 0.0549020
1.0000000 0.4980392 0.0549020
1.0000000 0.4980392 0.0549020
1.0000000 0.4980392 0.0549020
1.0000000 0.4980392 0.0549020
1.0000000 0.4980392 0.0549020
1.0000000 0.4980392 0.0549020
1.0000000 0.4980392 0.0549020
1.0000000 0.4980392 0.0549020
1.0000000 0.4980392 0.0549020
1.0000000 0.4980392 0.0549020
1.0000000 0.4980392 0.0549020
1.0000000 0.4980392 0.0549020
1.0000000 0.4980392 0.0549020
1.0000000 0.4980392 0.0549020
1.0000000 0.4980392 0.0549020
1.0000000 0.4980392 0.0549020
1.0000000 0.4980392 0.0549020
1.0000000 0.4980392 0.0549020
1.0000000 0.4980392 0.0549020
1.0000000 0.4980392 0.0549020
1.0000000 0.4980392 0.0549020
1.0000000 0.4980392 0.0549020
1.0000000 0.4980392 0.0549020
1.0000000 0.4980392 0.0549020
0.1215686 0.4666667 0.7058824
0.1215686 0.4666667 0.7058824
0.1215686 0.4666667 0.7058824
0.1215686 0.4666667 0.7058824
0.1215686 0.4666667 0.7058824
0.1215686 0.4666667 0.7058824
0.1215686 0.4666667 0.7058824
0.1215686 0.4666667 0.7058824
0.1215686 0.4666667 0.7058824
0.1215686 0.4666667 0.7058824
0.1215686 0.4666667 0.7058824
0.1215686 0.4666667 0.7058824
0.1215686 0.4666667 0.7058824
0.1215686 0.4666667 0.7058824
0.1215686 0.4666667 0.7058824
0.1215686 0.4666667 0.7058824
0.1215686 0.4666667 0.7058824
0.1215686 0.4666667 0.7058824
0.1215686 0.4666667 0.7058824
0.1215686 0.4666667 0.7058824
0.1215686 0.4666667 0.7058824
0.1215686 0.4666667 0.7058824
0.1215686 0.4666667 0.7058824
0.1215686 0.4666667 0.7058824
0.1215686 0.4666667 0.7058824
0.1215686 0.4666667 0.7058824
