posts/Davinci-Resolve-thermal-luts/colormaps-as-cube/tab20_r.cube
TITLE "Colormap tab20_r"
LUT_1D_SIZE 256
0.6196078 0.8549020 0.8980392
0.6196078 0.8549020 0.8980392
0.6196078 0.8549020 0.8980392
0.6196078 0.8549020 0.8980392
0.6196078 0.8549020 0.8980392
0.6196078 0.8549020 0.8980392
0.6196078 0.8549020 0.8980392
0.6196078 0.8549020 0.8980392
0.6196078 0.8549020 0.8980392
0.6196078 0.8549020 0.8980392
0.6196078 0.8549020 0.8980392
0.6196078 0.8549020 0.8980392
0.6196078 0.8549020 0.8980392
0.0901961 0.7450980 0.8117647
0.0901961 0.7450980 0.8117647
0.0901961 0.7450980 0.8117647
0.0901961 0.7450980 0.8117647
0.0901961 0.7450980 0.8117647
0.0901961 0.7450980 0.8117647
0.0901961 0.7450980 0.8117647
0.0901961 0.7450980 0.8117647
0.0901961 0.7450980 0.8117647
0.0901961 0.7450980 0.8117647
0.0901961 0.7450980 0.8117647
0.0901961 0.7450980 0.8117647
0.0901961 0.7450980 0.8117647
0.8588235 0.8588235 0.5529412
0.8588235 0.8588235 0.5529412
0.8588235 0.8588235 0.5529412
0.8588235 0.8588235 0.5529412
0.8588235 0.8588235 0.5529412
0.8588235 0.8588235 0.5529412
0.8588235 0.8588235 0.5529412
0.8588235 0.8588235 0.5529412
0.8588235 0.8588235 0.5529412
0.8588235 0.8588235 0.5529412
0.8588235 0.8588235 0.5529412
0.8588235 0.8588235 0.5529412
0.8588235 0.8588235 0.5529412
0.7372549 0.7411765 0.1333333
0.7372549 0.7411765 0.1333333
0.7372549 0.7411765 0.1333333
0.7372549 0.7411765 0.1333333
0.7372549 0.7411765 0.1333333
0.7372549 0.7411765 0.1333333
0.7372549 0.7411765 0.1333333
0.7372549 0.7411765 0.1333333
0.7372549 0.7411765 0.1333333
0.7372549 0.7411765 0.1333333
0.7372549 0.7411765 0.1333333
0.7372549 0.7411765 0.1333333
0.7803922 0.7803922 0.7803922
0.7803922 0.7803922 0.7803922
0.7803922 0.7803922 0.7803922
0.7803922 0.7803922 0.7803922
0.7803922 0.7803922 0.7803922
0.7803922 0.7803922 0.7803922
0.7803922 0.7803922 0.7803922
0.7803922 0.7803922 0.7803922
0.7803922 0.7803922 0.7803922
0.7803922 0.7803922 0.7803922
0.7803922 0.7803922 0.7803922
0.7803922 0.7803922 0.7803922
0.7803922 0.7803922 0.7803922
0.4980392 0.4980392 0.4980392
0.4980392 0.4980392 0.4980392
0.4980392 0.4980392 0.4980392
0.4980392 0.4980392 0.4980392
0.4980392 0.4980392 0.4980392
0.4980392 0.4980392 0.4980392
0.4980392 0.4980392 0.4980392
0.4980392 0.4980392 0.4980392
0.4980392 0.4980392 0.4980392
0.4980392 0.4980392 0.4980392
0.4980392 0.4980392 0.4980392
0.4980392 0.4980392 0.4980392
0.4980392 0.4980392 0.4980392
0.9686275 0.7137255 0.8235294
0.9686275 0.7137255 0.8235294
0.9686275 0.7137255 0.8235294
0.9686275 0.7137255 0.8235294
0.9686275 0.7137255 0.8235294
0.9686275 0.7137255 0.8235294
0.9686275 0.7137255 0.8235294
0.9686275 0.7137255 0.8235294
0.9686275 0.7137255 0.8235294
0.9686275 0.7137255 0.8235294
0.9686275 0.7137255 0.8235294
0.9686275 0.7137255 0.8235294
0.9686275 0.7137255 0.8235294
0.8901961 0.4666667 0.7607843
0.8901961 0.4666667 0.7607843
0.8901961 0.4666667 0.7607843
0.8901961 0.4666667 0.7607843
0.8901961 0.4666667 0.7607843
0.8901961 0.4666667 0.7607843
0.8901961 0.4666667 0.7607843
0.8901961 0.4666667 0.7607843
0.8901961 0.4666667 0.7607843
0.8901961 0.4666667 0.7607843
0.8901961 0.4666667 0.7607843
0.8901961 0.4666667 0.7607843
0.7686275 0.6117647 0.5803922
0.7686275 0.6117647 0.5803922
0.7686275 0.6117647 0.5803922
0.7686275 0.6117647 0.5803922
0.7686275 0.6117647 0.5803922
0.7686275 0.6117647 0.5803922
0.7686275 0.6117647 0.5803922
0.7686275 0.6117647 0.5803922
0.7686275 0.6117647 0.5803922
0.7686275 0.6117647 0.5803922
0.7686275 0.6117647 0.5803922
0.7686275 0.6117647 0.5803922
0.7686275 0.6117647 0.5803922
0.5490196 0.3372549 0.2941176
0.5490196 0.3372549 0.2941176
0.5490196 0.3372549 0.2941176
0.5490196 0.3372549 0.2941176
0.5490196 0.3372549 0.2941176
0.5490196 0.3372549 0.2941176
0.5490196 0.3372549 0.2941176
0.5490196 0.3372549 0.2941176
0.5490196 0.3372549 0.2941176
0.5490196 0.3372549 0.2941176
0.5490196 0.3372549 0.2941176
0.5490196 0.3372549 0.2941176
0.5490196 0.3372549 0.2941176
0.7725490 0.6901961 0.8352941
0.7725490 0.6901961 0.8352941
0.7725490 0.6901961 0.8352941
0.7725490 0.6901961 0.8352941
0.7725490 0.6901961 0.8352941
0.7725490 0.6901961 0.8352941
0.7725490 0.6901961 0.8352941
0.7725490 0.6901961 0.8352941
0.7725490 0.6901961 0.8352941
0.7725490 0.6901961 0.8352941
0.7725490 0.6901961 0.8352941
0.7725490 0.6901961 0.8352941
0.7725490 0.6901961 0.8352941
0.5803922 0.4039216 0.7411765
0.5803922 0.4039216 0.7411765
0.5803922 0.4039216 0.7411765
0.5803922 0.4039216 0.7411765
0.5803922 0.4039216 0.7411765
0.5803922 0.4039216 0.7411765
0.5803922 0.4039216 0.7411765
0.5803922 0.4039216 0.7411765
0.5803922 0.4039216 0.7411765
0.5803922 0.4039216 0.7411765
0.5803922 0.4039216 0.7411765
0.5803922 0.4039216 0.7411765
1.0000000 0.5960784 0.5882353
1.0000000 0.5960784 0.5882353
1.0000000 0.5960784 0.5882353
1.0000000 0.5960784 0.5882353
1.0000000 0.5960784 0.5882353
1.0000000 0.5960784 0.5882353
1.0000000 0.5960784 0.5882353
1.0000000 0.5960784 0.5882353
1.0000000 0.5960784 0.5882353
1.0000000 0.5960784 0.5882353
1.0000000 0.5960784 0.5882353
1.0000000 0.5960784 0.5882353
1.0000000 0.5960784 0.5882353
0.8392157 0.1529412 0.1568627
0.8392157 0.1529412 0.1568627
0.8392157 0.1529412 0.1568627
0.8392157 0.1529412 0.1568627
0.8392157 0.1529412 0.1568627
0.8392157 0.1529412 0.1568627
0.8392157 0.1529412 0.1568627
0.8392157 0.1529412 0.1568627
0.8392157 0.1529412 0.1568627
0.8392157 0.1529412 0.1568627
0.8392157 0.1529412 0.1568627
0.8392157 0.1529412 0.1568627
0.8392157 0.1529412 0.1568627
0.5960784 0.8745098 0.5411765
0.5960784 0.8745098 0.5411765
0.5960784 0.8745098 0.5411765
0.5960784 0.8745098 0.5411765
0.5960784 0.8745098 0.5411765
0.5960784 0.8745098 0.5411765
0.5960784 0.8745098 0.5411765
0.5960784 0.8745098 0.5411765
0.5960784 0.8745098 0.5411765
0.5960784 0.8745098 0.5411765
0.5960784 0.8745098 0.5411765
0.5960784 0.8745098 0.5411765
0.5960784 0.8745098 0.5411765
0.1725490 0.6274510 0.1725490
0.1725490 0.6274510 0.1725490
0.1725490 0.6274510 0.1725490
0.1725490 0.6274510 0.1725490
0.1725490 0.6274510 0.1725490
0.1725490 0.6274510 0.1725490
0.1725490 0.6274510 0.1725490
0.1725490 0.6274510 0.1725490
0.1725490 0.6274510 0.1725490
0.1725490 0.6274510 0.1725490
0.1725490 0.6274510 0.1725490
0.1725490 0.6274510 0.1725490
1.0000000 0.7333333 0.4705882
1.0000000 0.7333333 0.4705882
1.0000000 0.7333333 0.4705882
1.0000000 0.7333333 0.4705882
1.0000000 0.7333333 0.4705882
1.0000000 0.7333333 0.4705882
1.0000000 0.7333333 0.4705882
1.0000000 0.7333333 0.4705882
1.0000000 0.7333333 0.4705882
1.0000000 0.7333333 0.4705882
1.0000000 0.7333333 0.4705882
1.0000000 0.7333333 0.4705882
1.0000000 0.7333333 0.4705882
1.0000000 0.4980392 0.0549020
1.0000000 0.4980392 0.0549020
1.0000000 0.4980392 0.0549020
1.0000000 0.4980392 0.0549020
1.0000000 0.4980392 0.0549020
1.0000000 0.4980392 0.0549020
1.0000000 0.4980392 0.0549020
1.0000000 0.4980392 0.0549020
1.0000000 0.4980392 0.0549020
1.0000000 0.4980392 0.0549020
1.0000000 0.4980392 0.0549020
1.0000000 0.4980392 0.0549020
1.0000000 0.4980392 0.0549020
0.6823529 0.7803922 0.9098039
0.6823529 0.7803922 0.9098039
0.6823529 0.7803922 0.9098039
0.6823529 0.7803922 0.9098039
0.6823529 0.7803922 0.9098039
0.6823529 0.7803922 0.9098039
0.6823529 0.7803922 0.9098039
0.6823529 0.7803922 0.9098039
0.6823529 0.7803922 0.9098039
0.6823529 0.7803922 0.9098039
0.6823529 0.7803922 0.9098039
0.6823529 0.7803922 0.9098039
0.6823529 0.7803922 0.9098039
0.1215686 0.4666667 0.7058824
0.1215686 0.4666667 0.7058824
0.1215686 0.4666667 0.7058824
0.1215686 0.4666667 0.7058824
0.1215686 0.4666667 0.7058824
0.1215686 0.4666667 0.7058824
0.1215686 0.4666667 0.7058824
0.1215686 0.4666667 0.7058824
0.1215686 0.4666667 0.7058824
0.1215686 0.4666667 0.7058824
0.1215686 0.4666667 0.7058824
0.1215686 0.4666667 0.7058824
0.1215686 0.4666667 0.7058824
