posts/Davinci-Resolve-thermal-luts/colormaps-as-cube/tab20c.cube
TITLE "Colormap tab20c"
LUT_1D_SIZE 256
0.1921569 0.5098039 0.7411765
0.1921569 0.5098039 0.7411765
0.1921569 0.5098039 0.7411765
0.1921569 0.5098039 0.7411765
0.1921569 0.5098039 0.7411765
0.1921569 0.5098039 0.7411765
0.1921569 0.5098039 0.7411765
0.1921569 0.5098039 0.7411765
0.1921569 0.5098039 0.7411765
0.1921569 0.5098039 0.7411765
0.1921569 0.5098039 0.7411765
0.1921569 0.5098039 0.7411765
0.1921569 0.5098039 0.7411765
0.4196078 0.6823529 0.8392157
0.4196078 0.6823529 0.8392157
0.4196078 0.6823529 0.8392157
0.4196078 0.6823529 0.8392157
0.4196078 0.6823529 0.8392157
0.4196078 0.6823529 0.8392157
0.4196078 0.6823529 0.8392157
0.4196078 0.6823529 0.8392157
0.4196078 0.6823529 0.8392157
0.4196078 0.6823529 0.8392157
0.4196078 0.6823529 0.8392157
0.4196078 0.6823529 0.8392157
0.4196078 0.6823529 0.8392157
0.6196078 0.7921569 0.8823529
0.6196078 0.7921569 0.8823529
0.6196078 0.7921569 0.8823529
0.6196078 0.7921569 0.8823529
0.6196078 0.7921569 0.8823529
0.6196078 0.7921569 0.8823529
0.6196078 0.7921569 0.8823529
0.6196078 0.7921569 0.8823529
0.6196078 0.7921569 0.8823529
0.6196078 0.7921569 0.8823529
0.6196078 0.7921569 0.8823529
0.6196078 0.7921569 0.8823529
0.6196078 0.7921569 0.8823529
0.7764706 0.8588235 0.9372549
0.7764706 0.8588235 0.9372549
0.7764706 0.8588235 0.9372549
0.7764706 0.8588235 0.9372549
0.7764706 0.8588235 0.9372549
0.7764706 0.8588235 0.9372549
0.7764706 0.8588235 0.9372549
0.7764706 0.8588235 0.9372549
0.7764706 0.8588235 0.9372549
0.7764706 0.8588235 0.9372549
0.7764706 0.8588235 0.9372549
0.7764706 0.8588235 0.9372549
0.9019608 0.3333333 0.0509804
0.9019608 0.3333333 0.0509804
0.9019608 0.3333333 0.0509804
0.9019608 0.3333333 0.0509804
0.9019608 0.3333333 0.0509804
0.9019608 0.3333333 0.0509804
0.9019608 0.3333333 0.0509804
0.9019608 0.3333333 0.0509804
0.9019608 0.3333333 0.0509804
0.9019608 0.3333333 0.0509804
0.9019608 0.3333333 0.0509804
0.9019608 0.3333333 0.0509804
0.9019608 0.3333333 0.0509804
0.9921569 0.5529412 0.2352941
0.9921569 0.5529412 0.2352941
0.9921569 0.5529412 0.2352941
0.9921569 0.5529412 0.2352941
0.9921569 0.5529412 0.2352941
0.9921569 0.5529412 0.2352941
0.9921569 0.5529412 0.2352941
0.9921569 0.5529412 0.2352941
0.9921569 0.5529412 0.2352941
0.9921569 0.5529412 0.2352941
0.9921569 0.5529412 0.2352941
0.9921569 0.5529412 0.2352941
0.9921569 0.5529412 0.2352941
0.9921569 0.6823529 0.4196078
0.9921569 0.6823529 0.4196078
0.9921569 0.6823529 0.4196078
0.9921569 0.6823529 0.4196078
0.9921569 0.6823529 0.4196078
0.9921569 0.6823529 0.4196078
0.9921569 0.6823529 0.4196078
0.9921569 0.6823529 0.4196078
0.9921569 0.6823529 0.4196078
0.9921569 0.6823529 0.4196078
0.9921569 0.6823529 0.4196078
0.9921569 0.6823529 0.4196078
0.9921569 0.6823529 0.4196078
0.9921569 0.8156863 0.6352941
0.9921569 0.8156863 0.6352941
0.9921569 0.8156863 0.6352941
0.9921569 0.8156863 0.6352941
0.9921569 0.8156863 0.6352941
0.9921569 0.8156863 0.6352941
0.9921569 0.8156863 0.6352941
0.9921569 0.8156863 0.6352941
0.9921569 0.8156863 0.6352941
0.9921569 0.8156863 0.6352941
0.9921569 0.8156863 0.6352941
0.9921569 0.8156863 0.6352941
0.1921569 0.6392157 0.3294118
0.1921569 0.6392157 0.3294118
0.1921569 0.6392157 0.3294118
0.1921569 0.6392157 0.3294118
0.1921569 0.6392157 0.3294118
0.1921569 0.6392157 0.3294118
0.1921569 0.6392157 0.3294118
0.1921569 0.6392157 0.3294118
0.1921569 0.6392157 0.3294118
0.1921569 0.6392157 0.3294118
0.1921569 0.6392157 0.3294118
0.1921569 0.6392157 0.3294118
0.1921569 0.6392157 0.3294118
0.4549020 0.7686275 0.4627451
0.4549020 0.7686275 0.4627451
0.4549020 0.7686275 0.4627451
0.4549020 0.7686275 0.4627451
0.4549020 0.7686275 0.4627451
0.4549020 0.7686275 0.4627451
0.4549020 0.7686275 0.4627451
0.4549020 0.7686275 0.4627451
0.4549020 0.7686275 0.4627451
0.4549020 0.7686275 0.4627451
0.4549020 0.7686275 0.4627451
0.4549020 0.7686275 0.4627451
0.4549020 0.7686275 0.4627451
0.6313725 0.8509804 0.6078431
0.6313725 0.8509804 0.6078431
0.6313725 0.8509804 0.6078431
0.6313725 0.8509804 0.6078431
0.6313725 0.8509804 0.6078431
0.6313725 0.8509804 0.6078431
0.6313725 0.8509804 0.6078431
0.6313725 0.8509804 0.6078431
0.6313725 0.8509804 0.6078431
0.6313725 0.8509804 0.6078431
0.6313725 0.8509804 0.6078431
0.6313725 0.8509804 0.6078431
0.6313725 0.8509804 0.6078431
0.7803922 0.9137255 0.7529412
0.7803922 0.9137255 0.7529412
0.7803922 0.9137255 0.7529412
0.7803922 0.9137255 0.7529412
0.7803922 0.9137255 0.7529412
0.7803922 0.9137255 0.7529412
0.7803922 0.9137255 0.7529412
0.7803922 0.9137255 0.7529412
0.7803922 0.9137255 0.7529412
0.7803922 0.9137255 0.7529412
0.7803922 0.9137255 0.7529412
0.7803922 0.9137255 0.7529412
0.4588235 0.4196078 0.6941176
0.4588235 0.4196078 0.6941176
0.4588235 0.4196078 0.6941176
0.4588235 0.4196078 0.6941176
0.4588235 0.4196078 0.6941176
0.4588235 0.4196078 0.6941176
0.4588235 0.4196078 0.6941176
0.4588235 0.4196078 0.6941176
0.4588235 0.4196078 0.6941176
0.4588235 0.4196078 0.6941176
0.4588235 0.4196078 0.6941176
0.4588235 0.4196078 0.6941176
0.4588235 0.4196078 0.6941176
0.6196078 0.6039216 0.7843137
0.6196078 0.6039216 0.7843137
0.6196078 0.6039216 0.7843137
0.6196078 0.6039216 0.7843137
0.6196078 0.6039216 0.7843137
0.6196078 0.6039216 0.7843137
0.6196078 0.6039216 0.7843137
0.6196078 0.6039216 0.7843137
0.6196078 0.6039216 0.7843137
0.6196078 0.6039216 0.7843137
0.6196078 0.6039216 0.7843137
0.6196078 0.6039216 0.7843137
0.6196078 0.6039216 0.7843137
0.7372549 0.7411765 0.8627451
0.7372549 0.7411765 0.8627451
0.7372549 0.7411765 0.8627451
0.7372549 0.7411765 0.8627451
0.7372549 0.7411765 0.8627451
0.7372549 0.7411765 0.8627451
0.7372549 0.7411765 0.8627451
0.7372549 0.7411765 0.8627451
0.7372549 0.7411765 0.8627451
0.7372549 0.7411765 0.8627451
0.7372549 0.7411765 0.8627451
0.7372549 0.7411765 0.8627451
0.7372549 0.7411765 0.8627451
0.8549020 0.8549020 0.9215686
0.8549020 0.8549020 0.9215686
0.8549020 0.8549020 0.9215686
0.8549020 0.8549020 0.9215686
0.8549020 0.8549020 0.9215686
0.8549020 0.8549020 0.9215686
0.8549020 0.8549020 0.9215686
0.8549020 0.8549020 0.9215686
0.8549020 0.8549020 0.9215686
0.8549020 0.8549020 0.9215686
0.8549020 0.8549020 0.9215686
0.8549020 0.8549020 0.9215686
0.3882353 0.3882353 0.3882353
0.3882353 0.3882353 0.3882353
0.3882353 0.3882353 0.3882353
0.3882353 0.3882353 0.3882353
0.3882353 0.3882353 0.3882353
0.3882353 0.3882353 0.3882353
0.3882353 0.3882353 0.3882353
0.3882353 0.3882353 0.3882353
0.3882353 0.3882353 0.3882353
0.3882353 0.3882353 0.3882353
0.3882353 0.3882353 0.3882353
0.3882353 0.3882353 0.3882353
0.3882353 0.3882353 0.3882353
0.5882353 0.5882353 0.5882353
0.5882353 0.5882353 0.5882353
0.5882353 0.5882353 0.5882353
0.5882353 0.5882353 0.5882353
0.5882353 0.5882353 0.5882353
0.5882353 0.5882353 0.5882353
0.5882353 0.5882353 0.5882353
0.5882353 0.5882353 0.5882353
0.5882353 0.5882353 0.5882353
0.5882353 0.5882353 0.5882353
0.5882353 0.5882353 0.5882353
0.5882353 0.5882353 0.5882353
0.5882353 0.5882353 0.5882353
0.7411765 0.7411765 0.7411765
0.7411765 0.7411765 0.7411765
0.7411765 0.7411765 0.7411765
0.7411765 0.7411765 0.7411765
0.7411765 0.7411765 0.7411765
0.7411765 0.7411765 0.7411765
0.7411765 0.7411765 0.7411765
0.7411765 0.7411765 0.7411765
0.7411765 0.7411765 0.7411765
0.7411765 0.7411765 0.7411765
0.7411765 0.7411765 0.7411765
0.7411765 0.7411765 0.7411765
0.7411765 0.7411765 0.7411765
0.8509804 0.8509804 0.8509804
0.8509804 0.8509804 0.8509804
0.8509804 0.8509804 0.8509804
0.8509804 0.8509804 0.8509804
0.8509804 0.8509804 0.8509804
0.8509804 0.8509804 0.8509804
0.8509804 0.8509804 0.8509804
0.8509804 0.8509804 0.8509804
0.8509804 0.8509804 0.8509804
0.8509804 0.8509804 0.8509804
0.8509804 0.8509804 0.8509804
0.8509804 0.8509804 0.8509804
0.8509804 0.8509804 0.8509804
