posts/Davinci-Resolve-thermal-luts/colormaps-as-cube/tab20b.cube
TITLE "Colormap tab20b"
LUT_1D_SIZE 256
0.2235294 0.2313725 0.4745098
0.2235294 0.2313725 0.4745098
0.2235294 0.2313725 0.4745098
0.2235294 0.2313725 0.4745098
0.2235294 0.2313725 0.4745098
0.2235294 0.2313725 0.4745098
0.2235294 0.2313725 0.4745098
0.2235294 0.2313725 0.4745098
0.2235294 0.2313725 0.4745098
0.2235294 0.2313725 0.4745098
0.2235294 0.2313725 0.4745098
0.2235294 0.2313725 0.4745098
0.2235294 0.2313725 0.4745098
0.3215686 0.3294118 0.6392157
0.3215686 0.3294118 0.6392157
0.3215686 0.3294118 0.6392157
0.3215686 0.3294118 0.6392157
0.3215686 0.3294118 0.6392157
0.3215686 0.3294118 0.6392157
0.3215686 0.3294118 0.6392157
0.3215686 0.3294118 0.6392157
0.3215686 0.3294118 0.6392157
0.3215686 0.3294118 0.6392157
0.3215686 0.3294118 0.6392157
0.3215686 0.3294118 0.6392157
0.3215686 0.3294118 0.6392157
0.4196078 0.4313725 0.8117647
0.4196078 0.4313725 0.8117647
0.4196078 0.4313725 0.8117647
0.4196078 0.4313725 0.8117647
0.4196078 0.4313725 0.8117647
0.4196078 0.4313725 0.8117647
0.4196078 0.4313725 0.8117647
0.4196078 0.4313725 0.8117647
0.4196078 0.4313725 0.8117647
0.4196078 0.4313725 0.8117647
0.4196078 0.4313725 0.8117647
0.4196078 0.4313725 0.8117647
0.4196078 0.4313725 0.8117647
0.6117647 0.6196078 0.8705882
0.6117647 0.6196078 0.8705882
0.6117647 0.6196078 0.8705882
0.6117647 0.6196078 0.8705882
0.6117647 0.6196078 0.8705882
0.6117647 0.6196078 0.8705882
0.6117647 0.6196078 0.8705882
0.6117647 0.6196078 0.8705882
0.6117647 0.6196078 0.8705882
0.6117647 0.6196078 0.8705882
0.6117647 0.6196078 0.8705882
0.6117647 0.6196078 0.8705882
0.3882353 0.4745098 0.2235294
0.3882353 0.4745098 0.2235294
0.3882353 0.4745098 0.2235294
0.3882353 0.4745098 0.2235294
0.3882353 0.4745098 0.2235294
0.3882353 0.4745098 0.2235294
0.3882353 0.4745098 0.2235294
0.3882353 0.4745098 0.2235294
0.3882353 0.4745098 0.2235294
0.3882353 0.4745098 0.2235294
0.3882353 0.4745098 0.2235294
0.3882353 0.4745098 0.2235294
0.3882353 0.4745098 0.2235294
0.5490196 0.6352941 0.3215686
0.5490196 0.6352941 0.3215686
0.5490196 0.6352941 0.3215686
0.5490196 0.6352941 0.3215686
0.5490196 0.6352941 0.3215686
0.5490196 0.6352941 0.3215686
0.5490196 0.6352941 0.3215686
0.5490196 0.6352941 0.3215686
0.5490196 0.6352941 0.3215686
0.5490196 0.6352941 0.3215686
0.5490196 0.6352941 0.3215686
0.5490196 0.6352941 0.3215686
0.5490196 0.6352941 0.3215686
0.7098039 0.8117647 0.4196078
0.7098039 0.8117647 0.4196078
0.7098039 0.8117647 0.4196078
0.7098039 0.8117647 0.4196078
0.7098039 0.8117647 0.4196078
0.7098039 0.8117647 0.4196078
0.7098039 0.8117647 0.4196078
0.7098039 0.8117647 0.4196078
0.7098039 0.8117647 0.4196078
0.7098039 0.8117647 0.4196078
0.7098039 0.8117647 0.4196078
0.7098039 0.8117647 0.4196078
0.7098039 0.8117647 0.4196078
0.8078431 0.8588235 0.6117647
0.8078431 0.8588235 0.6117647
0.8078431 0.8588235 0.6117647
0.8078431 0.8588235 0.6117647
0.8078431 0.8588235 0.6117647
0.8078431 0.8588235 0.6117647
0.8078431 0.8588235 0.6117647
0.8078431 0.8588235 0.6117647
0.8078431 0.8588235 0.6117647
0.8078431 0.8588235 0.6117647
0.8078431 0.8588235 0.6117647
0.8078431 0.8588235 0.6117647
0.5490196 0.4274510 0.1921569
0.5490196 0.4274510 0.1921569
0.5490196 0.4274510 0.1921569
0.5490196 0.4274510 0.1921569
0.5490196 0.4274510 0.1921569
0.5490196 0.4274510 0.1921569
0.5490196 0.4274510 0.1921569
0.5490196 0.4274510 0.1921569
0.5490196 0.4274510 0.1921569
0.5490196 0.4274510 0.1921569
0.5490196 0.4274510 0.1921569
0.5490196 0.4274510 0.1921569
0.5490196 0.4274510 0.1921569
0.7411765 0.6196078 0.2235294
0.7411765 0.6196078 0.2235294
0.7411765 0.6196078 0.2235294
0.7411765 0.6196078 0.2235294
0.7411765 0.6196078 0.2235294
0.7411765 0.6196078 0.2235294
0.7411765 0.6196078 0.2235294
0.7411765 0.6196078 0.2235294
0.7411765 0.6196078 0.2235294
0.7411765 0.6196078 0.2235294
0.7411765 0.6196078 0.2235294
0.7411765 0.6196078 0.2235294
0.7411765 0.6196078 0.2235294
0.9058824 0.7294118 0.3215686
0.9058824 0.7294118 0.3215686
0.9058824 0.7294118 0.3215686
0.9058824 0.7294118 0.3215686
0.9058824 0.7294118 0.3215686
0.9058824 0.7294118 0.3215686
0.9058824 0.7294118 0.3215686
0.9058824 0.7294118 0.3215686
0.9058824 0.7294118 0.3215686
0.9058824 0.7294118 0.3215686
0.9058824 0.7294118 0.3215686
0.9058824 0.7294118 0.3215686
0.9058824 0.7294118 0.3215686
0.9058824 0.7960784 0.5803922
0.9058824 0.7960784 0.5803922
0.9058824 0.7960784 0.5803922
0.9058824 0.7960784 0.5803922
0.9058824 0.7960784 0.5803922
0.9058824 0.7960784 0.5803922
0.9058824 0.7960784 0.5803922
0.9058824 0.7960784 0.5803922
0.9058824 0.7960784 0.5803922
0.9058824 0.7960784 0.5803922
0.9058824 0.7960784 0.5803922
0.9058824 0.7960784 0.5803922
0.5176471 0.2352941 0.2235294
0.5176471 0.2352941 0.2235294
0.5176471 0.2352941 0.2235294
0.5176471 0.2352941 0.2235294
0.5176471 0.2352941 0.2235294
0.5176471 0.2352941 0.2235294
0.5176471 0.2352941 0.2235294
0.5176471 0.2352941 0.2235294
0.5176471 0.2352941 0.2235294
0.5176471 0.2352941 0.2235294
0.5176471 0.2352941 0.2235294
0.5176471 0.2352941 0.2235294
0.5176471 0.2352941 0.2235294
0.6784314 0.2862745 0.2901961
0.6784314 0.2862745 0.2901961
0.6784314 0.2862745 0.2901961
0.6784314 0.2862745 0.2901961
0.6784314 0.2862745 0.2901961
0.6784314 0.2862745 0.2901961
0.6784314 0.2862745 0.2901961
0.6784314 0.2862745 0.2901961
0.6784314 0.2862745 0.2901961
0.6784314 0.2862745 0.2901961
0.6784314 0.2862745 0.2901961
0.6784314 0.2862745 0.2901961
0.6784314 0.2862745 0.2901961
0.8392157 0.3803922 0.4196078
0.8392157 0.3803922 0.4196078
0.8392157 0.3803922 0.4196078
0.8392157 0.3803922 0.4196078
0.8392157 0.3803922 0.4196078
0.8392157 0.3803922 0.4196078
0.8392157 0.3803922 0.4196078
0.8392157 0.3803922 0.4196078
0.8392157 0.3803922 0.4196078
0.8392157 0.3803922 0.4196078
0.8392157 0.3803922 0.4196078
0.8392157 0.3803922 0.4196078
0.8392157 0.3803922 0.4196078
0.9058824 0.5882353 0.6117647
0.9058824 0.5882353 0.6117647
0.9058824 0.5882353 0.6117647
0.9058824 0.5882353 0.6117647
0.9058824 0.5882353 0.6117647
0.9058824 0.5882353 0.6117647
0.9058824 0.5882353 0.6117647
0.9058824 0.5882353 0.6117647
0.9058824 0.5882353 0.6117647
0.9058824 0.5882353 0.6117647
0.9058824 0.5882353 0.6117647
0.9058824 0.5882353 0.6117647
0.4823529 0.2549020 0.4509804
0.4823529 0.2549020 0.4509804
0.4823529 0.2549020 0.4509804
0.4823529 0.2549020 0.4509804
0.4823529 0.2549020 0.4509804
0.4823529 0.2549020 0.4509804
0.4823529 0.2549020 0.4509804
0.4823529 0.2549020 0.4509804
0.4823529 0.2549020 0.4509804
0.4823529 0.2549020 0.4509804
0.4823529 0.2549020 0.4509804
0.4823529 0.2549020 0.4509804
0.4823529 0.2549020 0.4509804
0.6470588 0.3176471 0.5803922
0.6470588 0.3176471 0.5803922
0.6470588 0.3176471 0.5803922
0.6470588 0.3176471 0.5803922
0.6470588 0.3176471 0.5803922
0.6470588 0.3176471 0.5803922
0.6470588 0.3176471 0.5803922
0.6470588 0.3176471 0.5803922
0.6470588 0.3176471 0.5803922
0.6470588 0.3176471 0.5803922
0.6470588 0.3176471 0.5803922
0.6470588 0.3176471 0.5803922
0.6470588 0.3176471 0.5803922
0.8078431 0.4274510 0.7411765
0.8078431 0.4274510 0.7411765
0.8078431 0.4274510 0.7411765
0.8078431 0.4274510 0.7411765
0.8078431 0.4274510 0.7411765
0.8078431 0.4274510 0.7411765
0.8078431 0.4274510 0.7411765
0.8078431 0.4274510 0.7411765
0.8078431 0.4274510 0.7411765
0.8078431 0.4274510 0.7411765
0.8078431 0.4274510 0.7411765
0.8078431 0.4274510 0.7411765
0.8078431 0.4274510 0.7411765
0.8705882 0.6196078 0.8392157
0.8705882 0.6196078 0.8392157
0.8705882 0.6196078 0.8392157
0.8705882 0.6196078 0.8392157
0.8705882 0.6196078 0.8392157
0.8705882 0.6196078 0.8392157
0.8705882 0.6196078 0.8392157
0.8705882 0.6196078 0.8392157
0.8705882 0.6196078 0.8392157
0.8705882 0.6196078 0.8392157
0.8705882 0.6196078 0.8392157
0.8705882 0.6196078 0.8392157
0.8705882 0.6196078 0.8392157
