posts/Davinci-Resolve-thermal-luts/colormaps-as-cube/terrain_r.cube
TITLE "Colormap terrain_r"
LUT_1D_SIZE 256
1.0000000 1.0000000 1.0000000
0.9921569 0.9899608 0.9894902
0.9843137 0.9799216 0.9789804
0.9764706 0.9698824 0.9684706
0.9686275 0.9598431 0.9579608
0.9607843 0.9498039 0.9474510
0.9529412 0.9397647 0.9369412
0.9450980 0.9297255 0.9264314
0.9372549 0.9196863 0.9159216
0.9294118 0.9096471 0.9054118
0.9215686 0.8996078 0.8949020
0.9137255 0.8895686 0.8843922
0.9058824 0.8795294 0.8738824
0.8980392 0.8694902 0.8633725
0.8901961 0.8594510 0.8528627
0.8823529 0.8494118 0.8423529
0.8745098 0.8393725 0.8318431
0.8666667 0.8293333 0.8213333
0.8588235 0.8192941 0.8108235
0.8509804 0.8092549 0.8003137
0.8431373 0.7992157 0.7898039
0.8352941 0.7891765 0.7792941
0.8274510 0.7791373 0.7687843
0.8196078 0.7690980 0.7582745
0.8117647 0.7590588 0.7477647
0.8039216 0.7490196 0.7372549
0.7960784 0.7389804 0.7267451
0.7882353 0.7289412 0.7162353
0.7803922 0.7189020 0.7057255
0.7725490 0.7088627 0.6952157
0.7647059 0.6988235 0.6847059
0.7568627 0.6887843 0.6741961
0.7490196 0.6787451 0.6636863
0.7411765 0.6687059 0.6531765
0.7333333 0.6586667 0.6426667
0.7254902 0.6486275 0.6321569
0.7176471 0.6385882 0.6216471
0.7098039 0.6285490 0.6111373
0.7019608 0.6185098 0.6006275
0.6941176 0.6084706 0.5901176
0.6862745 0.5984314 0.5796078
0.6784314 0.5883922 0.5690980
0.6705882 0.5783529 0.5585882
0.6627451 0.5683137 0.5480784
0.6549020 0.5582745 0.5375686
0.6470588 0.5482353 0.5270588
0.6392157 0.5381961 0.5165490
0.6313725 0.5281569 0.5060392
0.6235294 0.5181176 0.4955294
0.6156863 0.5080784 0.4850196
0.6078431 0.4980392 0.4745098
0.6000000 0.4880000 0.4640000
0.5921569 0.4779608 0.4534902
0.5843137 0.4679216 0.4429804
0.5764706 0.4578824 0.4324706
0.5686275 0.4478431 0.4219608
0.5607843 0.4378039 0.4114510
0.5529412 0.4277647 0.4009412
0.5450980 0.4177255 0.3904314
0.5372549 0.4076863 0.3799216
0.5294118 0.3976471 0.3694118
0.5215686 0.3876078 0.3589020
0.5137255 0.3775686 0.3483922
0.5058824 0.3675294 0.3378824
0.5019608 0.3625098 0.3310588
0.5098039 0.3725490 0.3352941
0.5176471 0.3825882 0.3395294
0.5254902 0.3926275 0.3437647
0.5333333 0.4026667 0.3480000
0.5411765 0.4127059 0.3522353
0.5490196 0.4227451 0.3564706
0.5568627 0.4327843 0.3607059
0.5647059 0.4428235 0.3649412
0.5725490 0.4528627 0.3691765
0.5803922 0.4629020 0.3734118
0.5882353 0.4729412 0.3776471
0.5960784 0.4829804 0.3818824
0.6039216 0.4930196 0.3861176
0.6117647 0.5030588 0.3903529
0.6196078 0.5130980 0.3945882
0.6274510 0.5231373 0.3988235
0.6352941 0.5331765 0.4030588
0.6431373 0.5432157 0.4072941
0.6509804 0.5532549 0.4115294
0.6588235 0.5632941 0.4157647
0.6666667 0.5733333 0.4200000
0.6745098 0.5833725 0.4242353
0.6823529 0.5934118 0.4284706
0.6901961 0.6034510 0.4327059
0.6980392 0.6134902 0.4369412
0.7058824 0.6235294 0.4411765
0.7137255 0.6335686 0.4454118
0.7215686 0.6436078 0.4496471
0.7294118 0.6536471 0.4538824
0.7372549 0.6636863 0.4581176
0.7450980 0.6737255 0.4623529
0.7529412 0.6837647 0.4665882
0.7607843 0.6938039 0.4708235
0.7686275 0.7038431 0.4750588
0.7764706 0.7138824 0.4792941
0.7843137 0.7239216 0.4835294
0.7921569 0.7339608 0.4877647
0.8000000 0.7440000 0.4920000
0.8078431 0.7540392 0.4962353
0.8156863 0.7640784 0.5004706
0.8235294 0.7741176 0.5047059
0.8313725 0.7841569 0.5089412
0.8392157 0.7941961 0.5131765
0.8470588 0.8042353 0.5174118
0.8549020 0.8142745 0.5216471
0.8627451 0.8243137 0.5258824
0.8705882 0.8343529 0.5301176
0.8784314 0.8443922 0.5343529
0.8862745 0.8544314 0.5385882
0.8941176 0.8644706 0.5428235
0.9019608 0.8745098 0.5470588
0.9098039 0.8845490 0.5512941
0.9176471 0.8945882 0.5555294
0.9254902 0.9046275 0.5597647
0.9333333 0.9146667 0.5640000
0.9411765 0.9247059 0.5682353
0.9490196 0.9347451 0.5724706
0.9568627 0.9447843 0.5767059
0.9647059 0.9548235 0.5809412
0.9725490 0.9648627 0.5851765
0.9803922 0.9749020 0.5894118
0.9882353 0.9849412 0.5936471
0.9960784 0.9949804 0.5978824
0.9921569 0.9984314 0.5984314
0.9764706 0.9952941 0.5952941
0.9607843 0.9921569 0.5921569
0.9450980 0.9890196 0.5890196
0.9294118 0.9858824 0.5858824
0.9137255 0.9827451 0.5827451
0.8980392 0.9796078 0.5796078
0.8823529 0.9764706 0.5764706
0.8666667 0.9733333 0.5733333
0.8509804 0.9701961 0.5701961
0.8352941 0.9670588 0.5670588
0.8196078 0.9639216 0.5639216
0.8039216 0.9607843 0.5607843
0.7882353 0.9576471 0.5576471
0.7725490 0.9545098 0.5545098
0.7568627 0.9513725 0.5513725
0.7411765 0.9482353 0.5482353
0.7254902 0.9450980 0.5450980
0.7098039 0.9419608 0.5419608
0.6941176 0.9388235 0.5388235
0.6784314 0.9356863 0.5356863
0.6627451 0.9325490 0.5325490
0.6470588 0.9294118 0.5294118
0.6313725 0.9262745 0.5262745
0.6156863 0.9231373 0.5231373
0.6000000 0.9200000 0.5200000
0.5843137 0.9168627 0.5168627
0.5686275 0.9137255 0.5137255
0.5529412 0.9105882 0.5105882
0.5372549 0.9074510 0.5074510
0.5215686 0.9043137 0.5043137
0.5058824 0.9011765 0.5011765
0.4901961 0.8980392 0.4980392
0.4745098 0.8949020 0.4949020
0.4588235 0.8917647 0.4917647
0.4431373 0.8886275 0.4886275
0.4274510 0.8854902 0.4854902
0.4117647 0.8823529 0.4823529
0.3960784 0.8792157 0.4792157
0.3803922 0.8760784 0.4760784
0.3647059 0.8729412 0.4729412
0.3490196 0.8698039 0.4698039
0.3333333 0.8666667 0.4666667
0.3176471 0.8635294 0.4635294
0.3019608 0.8603922 0.4603922
0.2862745 0.8572549 0.4572549
0.2705882 0.8541176 0.4541176
0.2549020 0.8509804 0.4509804
0.2392157 0.8478431 0.4478431
0.2235294 0.8447059 0.4447059
0.2078431 0.8415686 0.4415686
0.1921569 0.8384314 0.4384314
0.1764706 0.8352941 0.4352941
0.1607843 0.8321569 0.4321569
0.1450980 0.8290196 0.4290196
0.1294118 0.8258824 0.4258824
0.1137255 0.8227451 0.4227451
0.0980392 0.8196078 0.4196078
0.0823529 0.8164706 0.4164706
0.0666667 0.8133333 0.4133333
0.0509804 0.8101961 0.4101961
0.0352941 0.8070588 0.4070588
0.0196078 0.8039216 0.4039216
0.0039216 0.8007843 0.4007843
0.0000000 0.7941176 0.4176471
0.0000000 0.7862745 0.4411765
0.0000000 0.7784314 0.4647059
0.0000000 0.7705882 0.4882353
0.0000000 0.7627451 0.5117647
0.0000000 0.7549020 0.5352941
0.0000000 0.7470588 0.5588235
0.0000000 0.7392157 0.5823529
0.0000000 0.7313725 0.6058824
0.0000000 0.7235294 0.6294118
0.0000000 0.7156863 0.6529412
0.0000000 0.7078431 0.6764706
0.0000000 0.7000000 0.7000000
0.0000000 0.6921569 0.7235294
0.0000000 0.6843137 0.7470588
0.0000000 0.6764706 0.7705882
0.0000000 0.6686275 0.7941176
0.0000000 0.6607843 0.8176471
0.0000000 0.6529412 0.8411765
0.0000000 0.6450980 0.8647059
0.0000000 0.6372549 0.8882353
0.0000000 0.6294118 0.9117647
0.0000000 0.6215686 0.9352941
0.0000000 0.6137255 0.9588235
0.0000000 0.6058824 0.9823529
0.0013072 0.5973856 0.9973856
0.0065359 0.5869281 0.9869281
0.0117647 0.5764706 0.9764706
0.0169935 0.5660131 0.9660131
0.0222222 0.5555556 0.9555556
0.0274510 0.5450980 0.9450980
0.0326797 0.5346405 0.9346405
0.0379085 0.5241830 0.9241830
0.0431373 0.5137255 0.9137255
0.0483660 0.5032680 0.9032680
0.0535948 0.4928105 0.8928105
0.0588235 0.4823529 0.8823529
0.0640523 0.4718954 0.8718954
0.0692810 0.4614379 0.8614379
0.0745098 0.4509804 0.8509804
0.0797386 0.4405229 0.8405229
0.0849673 0.4300654 0.8300654
0.0901961 0.4196078 0.8196078
0.0954248 0.4091503 0.8091503
0.1006536 0.3986928 0.7986928
0.1058824 0.3882353 0.7882353
0.1111111 0.3777778 0.7777778
0.1163399 0.3673203 0.7673203
0.1215686 0.3568627 0.7568627
0.1267974 0.3464052 0.7464052
0.1320261 0.3359477 0.7359477
0.1372549 0.3254902 0.7254902
0.1424837 0.3150327 0.7150327
0.1477124 0.3045752 0.7045752
0.1529412 0.2941176 0.6941176
0.1581699 0.2836601 0.6836601
0.1633987 0.2732026 0.6732026
0.1686275 0.2627451 0.6627451
0.1738562 0.2522876 0.6522876
0.1790850 0.2418301 0.6418301
0.1843137 0.2313725 0.6313725
0.1895425 0.2209150 0.6209150
0.1947712 0.2104575 0.6104575
0.2000000 0.2000000 0.6000000
