posts/Davinci-Resolve-thermal-luts/colormaps-as-cube/turbo_r.cube
TITLE "Colormap turbo_r"
LUT_1D_SIZE 256
0.4796000 0.0158300 0.0105500
0.4932100 0.0196300 0.0095500
0.5066400 0.0235400 0.0086300
0.5198900 0.0275600 0.0078000
0.5329500 0.0316900 0.0070500
0.5458300 0.0359300 0.0063800
0.5585200 0.0402800 0.0057900
0.5710300 0.0447400 0.0052900
0.5833600 0.0493100 0.0048600
0.5955000 0.0539900 0.0045300
0.6074600 0.0587800 0.0042700
0.6192300 0.0636700 0.0041000
0.6308200 0.0686800 0.0040100
0.6422300 0.0738000 0.0040100
0.6534500 0.0790200 0.0040800
0.6644900 0.0843600 0.0042400
0.6753500 0.0898000 0.0044900
0.6860200 0.0953600 0.0048100
0.6965000 0.1010200 0.0052200
0.7068000 0.1068000 0.0057100
0.7169200 0.1126800 0.0062900
0.7268600 0.1186700 0.0069500
0.7366100 0.1247700 0.0076900
0.7461700 0.1309800 0.0085100
0.7555600 0.1373100 0.0094200
0.7647600 0.1437400 0.0104100
0.7737700 0.1502800 0.0114800
0.7826000 0.1569300 0.0126400
0.7912500 0.1636800 0.0138700
0.7997100 0.1705500 0.0152000
0.8079900 0.1775300 0.0166000
0.8160800 0.1846200 0.0180900
0.8239900 0.1918200 0.0196600
0.8317200 0.1991200 0.0213100
0.8392600 0.2065400 0.0230500
0.8466200 0.2140700 0.0248700
0.8538000 0.2217000 0.0267700
0.8607900 0.2294500 0.0287500
0.8676000 0.2373000 0.0308200
0.8742200 0.2452600 0.0329700
0.8806600 0.2533400 0.0352100
0.8869100 0.2615200 0.0375300
0.8929800 0.2698100 0.0399300
0.8988800 0.2782400 0.0424300
0.9046300 0.2869600 0.0451600
0.9102400 0.2959900 0.0481400
0.9157200 0.3053000 0.0513400
0.9210500 0.3148900 0.0547500
0.9262300 0.3247300 0.0583700
0.9312500 0.3348200 0.0621800
0.9361200 0.3451300 0.0661600
0.9408400 0.3556600 0.0703100
0.9453800 0.3663800 0.0746100
0.9497700 0.3772900 0.0790500
0.9539800 0.3883600 0.0836200
0.9580100 0.3995800 0.0883100
0.9618700 0.4109300 0.0931000
0.9655500 0.4224100 0.0979800
0.9690400 0.4339900 0.1029400
0.9723400 0.4456500 0.1079700
0.9754500 0.4574000 0.1130500
0.9783700 0.4692000 0.1181700
0.9810800 0.4810400 0.1233200
0.9836000 0.4929100 0.1284900
0.9859000 0.5047900 0.1336700
0.9879900 0.5166700 0.1388300
0.9898700 0.5285400 0.1439800
0.9915300 0.5403600 0.1491000
0.9929700 0.5521400 0.1541700
0.9941900 0.5638600 0.1591800
0.9951700 0.5754900 0.1641200
0.9959300 0.5870300 0.1689900
0.9964400 0.5984600 0.1737600
0.9967200 0.6097700 0.1784200
0.9967500 0.6209300 0.1829700
0.9965400 0.6319300 0.1873800
0.9960700 0.6427700 0.1916500
0.9953500 0.6534100 0.1957700
0.9943800 0.6638600 0.1997100
0.9931400 0.6740800 0.2034800
0.9916300 0.6840800 0.2070600
0.9898600 0.6938200 0.2104300
0.9878100 0.7033000 0.2135800
0.9854900 0.7125000 0.2165000
0.9828900 0.7214000 0.2191800
0.9800000 0.7300000 0.2216100
0.9767900 0.7384200 0.2236900
0.9732300 0.7468200 0.2253600
0.9693100 0.7551900 0.2266300
0.9650700 0.7635200 0.2275400
0.9604900 0.7718100 0.2281100
0.9556000 0.7800500 0.2283600
0.9503900 0.7882300 0.2283100
0.9448900 0.7963400 0.2280000
0.9390900 0.8043900 0.2274400
0.9330100 0.8123600 0.2266700
0.9266600 0.8202500 0.2257000
0.9200400 0.8280600 0.2245600
0.9131700 0.8357600 0.2232800
0.9060500 0.8433700 0.2218800
0.8987000 0.8508700 0.2203800
0.8911200 0.8582600 0.2188000
0.8833100 0.8655300 0.2171900
0.8753000 0.8726700 0.2155500
0.8670900 0.8796800 0.2139100
0.8586800 0.8865500 0.2123000
0.8501000 0.8932800 0.2107400
0.8413300 0.8998600 0.2092600
0.8324100 0.9062700 0.2078800
0.8233300 0.9125300 0.2066300
0.8141000 0.9186100 0.2055200
0.8047300 0.9245200 0.2045900
0.7952400 0.9302500 0.2038600
0.7856300 0.9357900 0.2033600
0.7759100 0.9411300 0.2031000
0.7660800 0.9462700 0.2031100
0.7561700 0.9512100 0.2034300
0.7461700 0.9559300 0.2040600
0.7361000 0.9604300 0.2050400
0.7259600 0.9647000 0.2064000
0.7157700 0.9687500 0.2081500
0.7055300 0.9725500 0.2103200
0.6952500 0.9761000 0.2129400
0.6849400 0.9794100 0.2160200
0.6746200 0.9824600 0.2196000
0.6642800 0.9852400 0.2237000
0.6539400 0.9877500 0.2283500
0.6436200 0.9899900 0.2335600
0.6332300 0.9919500 0.2393700
0.6223300 0.9936600 0.2457900
0.6108800 0.9951400 0.2528000
0.5989100 0.9963800 0.2603800
0.5864600 0.9973900 0.2684900
0.5735700 0.9981700 0.2771200
0.5602600 0.9987300 0.2862300
0.5465800 0.9990700 0.2958100
0.5325500 0.9991900 0.3058100
0.5182200 0.9991000 0.3162200
0.5036200 0.9987900 0.3270100
0.4887900 0.9982800 0.3381600
0.4737500 0.9975500 0.3496300
0.4585400 0.9966300 0.3614000
0.4432100 0.9955100 0.3734500
0.4277800 0.9941900 0.3857500
0.4122900 0.9926800 0.3982600
0.3967800 0.9909800 0.4109800
0.3812700 0.9890900 0.4238600
0.3658100 0.9870200 0.4368800
0.3504300 0.9847700 0.4500200
0.3351700 0.9823400 0.4632500
0.3200600 0.9797400 0.4765400
0.3051300 0.9769700 0.4898700
0.2904200 0.9740300 0.5032100
0.2759700 0.9709200 0.5165300
0.2618000 0.9676500 0.5298100
0.2479700 0.9642300 0.5430300
0.2344900 0.9606500 0.5561400
0.2214200 0.9569200 0.5691400
0.2087700 0.9530400 0.5819900
0.1965900 0.9490100 0.5946600
0.1849100 0.9448400 0.6071300
0.1737700 0.9405300 0.6193800
0.1631900 0.9360900 0.6313700
0.1532300 0.9315100 0.6430800
0.1439100 0.9268000 0.6544800
0.1352600 0.9219700 0.6655600
0.1273300 0.9170100 0.6762700
0.1201400 0.9119300 0.6866000
0.1137400 0.9067300 0.6965100
0.1081500 0.9014200 0.7059900
0.1034200 0.8960000 0.7150000
0.0995800 0.8904000 0.7239300
0.0966200 0.8845400 0.7331600
0.0945100 0.8784400 0.7426500
0.0932000 0.8721100 0.7523700
0.0926700 0.8655400 0.7623000
0.0928700 0.8587500 0.7724000
0.0937700 0.8517500 0.7826400
0.0953200 0.8445500 0.7929900
0.0975000 0.8371400 0.8034200
0.1002600 0.8295500 0.8138900
0.1035700 0.8217700 0.8243700
0.1073800 0.8138100 0.8348400
0.1116700 0.8056900 0.8452500
0.1163900 0.7974000 0.8555900
0.1215100 0.7889600 0.8658100
0.1269800 0.7803700 0.8759000
0.1327800 0.7716500 0.8858000
0.1388600 0.7627900 0.8955000
0.1451900 0.7538100 0.9049600
0.1517300 0.7447200 0.9141600
0.1584400 0.7355100 0.9230500
0.1652900 0.7262000 0.9316100
0.1722300 0.7168000 0.9398100
0.1792300 0.7073200 0.9476100
0.1862500 0.6977500 0.9549800
0.1932600 0.6881200 0.9619000
0.2002100 0.6784200 0.9683300
0.2070800 0.6686600 0.9742300
0.2138200 0.6588600 0.9795900
0.2203900 0.6490100 0.9843600
0.2267600 0.6391300 0.9885100
0.2328800 0.6292300 0.9920200
0.2387400 0.6193100 0.9948500
0.2442700 0.6093700 0.9969700
0.2494600 0.5994300 0.9983500
0.2542500 0.5895000 0.9989600
0.2586200 0.5795800 0.9987600
0.2625200 0.5696700 0.9977300
0.2659200 0.5597900 0.9958300
0.2687800 0.5499500 0.9930300
0.2710600 0.5401500 0.9893000
0.2727300 0.5304000 0.9846100
0.2738100 0.5206900 0.9789900
0.2746900 0.5109400 0.9727500
0.2754300 0.5011500 0.9659400
0.2760300 0.4913200 0.9585700
0.2764800 0.4814400 0.9506400
0.2768000 0.4715100 0.9421400
0.2769800 0.4615300 0.9330900
0.2770100 0.4515200 0.9234700
0.2769100 0.4414500 0.9132800
0.2766700 0.4313400 0.9025400
0.2762800 0.4211800 0.8912300
0.2757600 0.4109700 0.8793600
0.2750900 0.4007200 0.8669200
0.2742900 0.3904300 0.8539300
0.2733400 0.3800800 0.8403700
0.2722600 0.3697000 0.8262400
0.2710300 0.3592600 0.8115600
0.2696700 0.3487800 0.7963100
0.2681600 0.3382500 0.7805000
0.2665200 0.3276800 0.7641200
0.2647300 0.3170600 0.7471800
0.2628000 0.3063900 0.7296800
0.2607400 0.2956800 0.7116200
0.2585300 0.2849200 0.6930000
0.2561800 0.2741200 0.6738100
0.2536900 0.2632700 0.6540600
0.2510700 0.2523700 0.6337400
0.2483000 0.2414300 0.6128600
0.2453900 0.2304400 0.5914200
0.2423400 0.2194100 0.5694200
0.2391500 0.2083300 0.5468600
0.2358200 0.1972000 0.5237300
0.2323600 0.1860300 0.5000400
0.2287500 0.1748100 0.4757800
0.2250000 0.1635400 0.4509600
0.2211100 0.1522300 0.4255800
0.2170800 0.1408700 0.3996400
0.2129100 0.1294700 0.3731400
0.2086000 0.1180200 0.3460700
0.2041500 0.1065200 0.3184400
0.1995600 0.0949800 0.2902400
0.1948300 0.0833900 0.2614900
0.1899500 0.0717600 0.2321700
