posts/Davinci-Resolve-thermal-luts/colormaps-as-cube/twilight_r.cube
TITLE "Colormap twilight_r"
LUT_1D_SIZE 256
0.8857116 0.8500219 0.8857254
0.8852590 0.8495589 0.8808841
0.8843271 0.8484474 0.8755679
0.8829517 0.8466897 0.8697962
0.8811917 0.8442907 0.8635660
0.8791324 0.8412555 0.8568557
0.8768785 0.8375924 0.8496137
0.8745379 0.8333197 0.8417193
0.8721533 0.8284805 0.8330487
0.8696913 0.8231416 0.8235048
0.8670531 0.8173780 0.8131342
0.8641834 0.8112464 0.8020461
0.8610712 0.8047852 0.7903953
0.8577566 0.7980196 0.7782957
0.8542922 0.7909720 0.7658380
0.8507270 0.7836646 0.7530975
0.8471120 0.7761188 0.7401228
0.8434853 0.7683566 0.7269654
0.8398784 0.7603991 0.7136715
0.8363190 0.7522655 0.7002800
0.8328328 0.7439727 0.6868224
0.8294341 0.7355371 0.6733377
0.8261355 0.7269728 0.6598590
0.8229464 0.7182918 0.6464164
0.8198723 0.7095047 0.6330386
0.8169158 0.7006208 0.6197526
0.8140761 0.6916479 0.6065844
0.8113501 0.6825930 0.5935585
0.8087322 0.6734622 0.5806983
0.8062146 0.6642609 0.5680263
0.8037879 0.6549943 0.5555635
0.8014412 0.6456670 0.5433301
0.7991625 0.6362838 0.5313450
0.7980445 0.6315726 0.5254511
0.7947559 0.6173673 0.5081892
0.7926003 0.6078432 0.4970502
0.7904578 0.5982813 0.4862226
0.7893874 0.5934875 0.4809291
0.7861574 0.5790625 0.4655478
0.7839706 0.5694158 0.4557215
0.7817418 0.5597510 0.4462469
0.7806077 0.5549134 0.4416433
0.7771103 0.5403867 0.4283745
0.7746849 0.5306975 0.4199844
0.7721726 0.5210103 0.4119609
0.7708809 0.5161689 0.4080867
0.7668523 0.5016608 0.3970122
0.7640289 0.4920080 0.3900831
0.7610876 0.4823758 0.3835128
0.7595711 0.4775687 0.3803607
0.7548311 0.4631894 0.3714280
0.7515069 0.4536431 0.3659011
0.7480474 0.4441330 0.3607081
0.7462662 0.4393925 0.3582344
0.7407130 0.4252339 0.3512913
0.7368342 0.4158513 0.3470498
0.7328127 0.4065168 0.3431072
0.7307482 0.4018685 0.3412450
0.7243387 0.3880030 0.3360800
0.7198852 0.3788285 0.3329756
0.7152876 0.3697117 0.3301309
0.7129347 0.3651757 0.3288027
0.7056595 0.3516605 0.3251801
0.7006296 0.3427302 0.3230545
0.6954561 0.3338662 0.3211488
0.6901389 0.3250709 0.3194533
0.6874266 0.3206997 0.3186814
0.6790747 0.3076950 0.3166555
0.6733273 0.2991196 0.3155337
0.6674360 0.2906228 0.3145848
0.6614004 0.2822078 0.3137991
0.6552193 0.2738783 0.3131667
0.6488923 0.2656376 0.3126794
0.6424176 0.2574905 0.3123263
0.6391243 0.2534537 0.3121969
0.6290189 0.2414969 0.3119845
0.6220908 0.2336622 0.3119738
0.6150072 0.2259440 0.3120568
0.6077652 0.2183507 0.3122190
0.6003621 0.2108903 0.3124493
0.5927948 0.2035725 0.3127323
0.5850602 0.1964074 0.3130540
0.5811293 0.1928855 0.3132240
0.5690778 0.1825800 0.3137444
0.5608250 0.1759417 0.3140764
0.5523952 0.1695034 0.3143729
0.5437877 0.1632774 0.3146120
0.5350028 0.1572754 0.3147709
0.5260419 0.1515082 0.3148265
0.5169085 0.1459846 0.3147541
0.5122784 0.1433166 0.3146631
0.4981444 0.1356938 0.3141352
0.4885285 0.1309321 0.3135455
0.4787703 0.1264240 0.3127417
0.4688811 0.1221645 0.3117091
0.4588729 0.1181457 0.3104364
0.4487630 0.1143536 0.3089091
0.4385638 0.1107767 0.3071260
0.4334356 0.1090642 0.3061377
0.4179611 0.1042064 0.3027865
0.4075912 0.1011795 0.3002352
0.3971988 0.0983023 0.2974386
0.3867994 0.0955618 0.2944090
0.3764103 0.0929452 0.2911602
0.3660503 0.0904407 0.2877077
0.3557389 0.0880390 0.2840696
0.3506068 0.0868756 0.2821877
0.3353335 0.0835324 0.2763253
0.3252789 0.0814284 0.2722677
0.3153587 0.0794210 0.2681190
0.3055923 0.0775220 0.2639101
0.2960005 0.0757453 0.2596725
0.2866231 0.0740885 0.2554348
0.2774715 0.0725830 0.2512349
0.2729970 0.0718836 0.2491585
0.2599946 0.0700539 0.2430822
0.2517290 0.0690646 0.2392026
0.2438115 0.0682899 0.2355043
0.2362750 0.0677436 0.2320236
0.2291562 0.0674347 0.2287968
0.2224731 0.0673882 0.2258596
0.2162528 0.0676163 0.2232457
0.2133314 0.0678301 0.2220704
0.2053173 0.0689196 0.2191152
0.2005876 0.0700646 0.2176272
0.1957185 0.0721578 0.2161750
0.1904958 0.0753113 0.2146562
0.1848804 0.0794257 0.2130765
0.1897585 0.0750199 0.2193005
0.1941035 0.0716083 0.2255873
0.1979483 0.0693141 0.2319465
0.2015613 0.0679833 0.2385297
0.2035201 0.0674442 0.2420558
0.2100121 0.0663086 0.2535289
0.2148284 0.0659404 0.2619168
0.2200125 0.0658579 0.2709028
0.2255216 0.0660782 0.2804340
0.2313296 0.0665762 0.2905136
0.2373906 0.0673659 0.3010892
0.2436737 0.0684199 0.3121652
0.2501285 0.0697582 0.3236810
0.2567119 0.0713801 0.3356065
0.2633812 0.0732817 0.3479189
0.2700864 0.0754837 0.3605638
0.2767794 0.0780039 0.3734938
0.2834124 0.0808642 0.3866587
0.2899379 0.0840908 0.4000021
0.2963100 0.0877133 0.4134626
0.2994248 0.0896823 0.4202162
0.3084244 0.0962594 0.4404719
0.3140928 0.1012308 0.4538834
0.3194626 0.1066888 0.4671373
0.3245131 0.1126346 0.4801701
0.3292301 0.1190576 0.4929260
0.3336080 0.1259382 0.5053516
0.3376473 0.1332456 0.5174081
0.3413541 0.1409428 0.5290650
0.3447390 0.1489882 0.5403025
0.3478165 0.1573386 0.5511085
0.3506030 0.1659513 0.5614796
0.3531157 0.1747857 0.5714187
0.3553742 0.1838039 0.5809319
0.3573966 0.1929721 0.5900301
0.3592009 0.2022604 0.5987265
0.3600268 0.2069412 0.6029285
0.3622281 0.2210949 0.6149711
0.3634854 0.2305988 0.6225499
0.3645931 0.2401375 0.6297868
0.3655670 0.2496968 0.6366968
0.3664224 0.2592648 0.6432941
0.3671751 0.2688309 0.6495927
0.3678384 0.2783870 0.6556057
0.3684266 0.2879260 0.6613453
0.3689536 0.2974418 0.6668232
0.3694333 0.3069292 0.6720505
0.3698798 0.3163841 0.6770376
0.3703068 0.3258027 0.6817941
0.3707283 0.3351819 0.6863295
0.3711586 0.3445191 0.6906525
0.3716113 0.3538121 0.6947715
0.3718506 0.3584415 0.6967570
0.3726417 0.3722584 0.7024287
0.3732482 0.3814085 0.7059820
0.3739350 0.3905083 0.7093613
0.3747169 0.3995566 0.7125737
0.3756085 0.4085527 0.7156259
0.3766245 0.4174955 0.7185245
0.3777795 0.4263845 0.7212764
0.3790879 0.4352190 0.7238880
0.3805638 0.4439984 0.7263659
0.3822209 0.4527223 0.7287166
0.3840727 0.4613902 0.7309467
0.3861318 0.4700018 0.7330628
0.3884105 0.4785569 0.7350716
0.3909202 0.4870552 0.7369798
0.3936714 0.4954966 0.7387941
0.3951406 0.4996959 0.7396682
0.3999361 0.5122082 0.7421684
0.4034660 0.5204785 0.7437422
0.4072702 0.5286919 0.7452494
0.4113541 0.5368486 0.7466971
0.4157223 0.5449488 0.7480920
0.4203782 0.5529929 0.7494413
0.4253242 0.5609810 0.7507516
0.4305618 0.5689137 0.7520301
0.4360914 0.5767914 0.7532834
0.4419127 0.5846144 0.7545184
0.4480247 0.5923833 0.7557418
0.4544256 0.6000986 0.7569601
0.4611133 0.6077608 0.7581799
0.4680849 0.6153703 0.7594079
0.4753375 0.6229276 0.7606509
0.4790682 0.6266868 0.7612800
0.4906722 0.6378870 0.7632081
0.4987473 0.6452899 0.7645358
0.5070897 0.6526417 0.7659045
0.5156956 0.6599426 0.7673219
0.5245615 0.6671924 0.7687954
0.5336839 0.6743909 0.7703325
0.5430593 0.6815377 0.7719408
0.5526845 0.6886319 0.7736279
0.5625552 0.6956728 0.7754036
0.5726669 0.7026590 0.7772770
0.5830149 0.7095889 0.7792578
0.5935934 0.7164606 0.7813559
0.6043943 0.7232719 0.7835830
0.6154085 0.7300200 0.7859502
0.6266240 0.7367018 0.7884690
0.6323027 0.7400167 0.7897889
0.6495957 0.7498520 0.7940067
0.6613113 0.7563120 0.7970456
0.6731442 0.7626891 0.8002763
0.6850645 0.7689774 0.8037021
0.6970365 0.7751705 0.8073234
0.7090208 0.7812609 0.8111359
0.7209728 0.7872400 0.8151307
0.7328454 0.7930975 0.8192926
0.7445925 0.7988205 0.8235987
0.7561644 0.8043941 0.8280214
0.7675111 0.8098008 0.8325282
0.7785789 0.8150209 0.8370834
0.7893145 0.8200321 0.8416486
0.7996708 0.8248078 0.8461821
0.8096000 0.8293190 0.8506444
0.8143898 0.8314656 0.8528376
0.8279689 0.8374260 0.8592240
0.8363403 0.8409480 0.8632853
0.8441262 0.8440648 0.8671697
0.8513371 0.8467274 0.8708608
0.8579826 0.8488893 0.8743404
0.8640899 0.8505039 0.8775793
0.8697047 0.8515240 0.8805388
0.8748535 0.8519153 0.8831693
0.8795411 0.8516568 0.8854144
0.8837852 0.8507294 0.8872322
0.8857502 0.8500092 0.8879737
