posts/Davinci-Resolve-thermal-luts/colormaps-as-cube/twilight.cube
TITLE "Colormap twilight"
LUT_1D_SIZE 256
0.8857502 0.8500092 0.8879737
0.8817223 0.8512759 0.8863806
0.8772488 0.8518703 0.8843412
0.8723313 0.8518017 0.8818970
0.8669602 0.8510896 0.8790977
0.8611025 0.8497675 0.8759924
0.8547259 0.8478749 0.8726283
0.8478071 0.8454546 0.8690404
0.8403042 0.8425606 0.8652509
0.8322271 0.8392349 0.8612756
0.8235743 0.8355249 0.8571319
0.8143898 0.8314656 0.8528376
0.8046916 0.8270984 0.8484245
0.7945431 0.8224512 0.8439218
0.7839910 0.8175543 0.8393675
0.7730842 0.8124352 0.8348017
0.7618691 0.8071195 0.8302665
0.7504035 0.8016270 0.8257974
0.7387377 0.7959767 0.8214292
0.7269218 0.7901847 0.8171922
0.7150040 0.7842649 0.8131112
0.7030298 0.7782290 0.8092062
0.6910464 0.7720863 0.8054884
0.6790955 0.7658447 0.8019647
0.6672148 0.7595113 0.7986367
0.6554369 0.7530921 0.7955027
0.6437911 0.7465924 0.7925565
0.6323027 0.7400167 0.7897889
0.6209919 0.7333693 0.7871899
0.6098754 0.7266540 0.7847484
0.5989666 0.7198739 0.7824526
0.5882758 0.7130321 0.7802914
0.5778116 0.7061311 0.7782535
0.5726669 0.7026590 0.7772770
0.5575894 0.6921591 0.7745041
0.5478410 0.6850914 0.7727739
0.5383402 0.6779708 0.7711273
0.5336839 0.6743909 0.7703325
0.5200963 0.6635739 0.7680512
0.5113599 0.6562985 0.7666066
0.5028854 0.6489722 0.7652145
0.4987473 0.6452899 0.7645358
0.4867360 0.6341665 0.7625578
0.4790682 0.6266868 0.7612800
0.4716763 0.6191554 0.7600271
0.4680849 0.6153703 0.7594079
0.4577338 0.6039363 0.7575694
0.4511892 0.5962476 0.7563512
0.4449325 0.5885056 0.7551311
0.4419127 0.5846144 0.7545184
0.4332901 0.5728594 0.7526595
0.4279065 0.5649543 0.7513944
0.4228149 0.5569939 0.7501009
0.4203782 0.5529929 0.7494413
0.4135025 0.5409057 0.7474007
0.4092769 0.5327773 0.7459803
0.4053334 0.5245923 0.7445037
0.4034660 0.5204785 0.7437422
0.3982719 0.5080517 0.7413545
0.3951406 0.4996959 0.7396682
0.3922649 0.4912830 0.7378982
0.3909202 0.4870552 0.7369798
0.3872430 0.4742865 0.7340802
0.3850756 0.4657031 0.7320185
0.3831217 0.4570632 0.7298463
0.3813689 0.4483673 0.7275567
0.3805638 0.4439984 0.7263659
0.3784136 0.4308086 0.7225993
0.3771837 0.4219468 0.7199184
0.3761000 0.4130308 0.7170940
0.3751480 0.4040613 0.7141194
0.3743131 0.3950389 0.7109880
0.3735806 0.3859647 0.7076930
0.3729358 0.3768396 0.7042276
0.3726417 0.3722584 0.7024287
0.3718506 0.3584415 0.6967570
0.3713812 0.3491713 0.6927370
0.3709415 0.3398559 0.6885170
0.3705174 0.3304974 0.6840889
0.3700949 0.3210981 0.6794441
0.3696599 0.3116610 0.6745734
0.3691985 0.3021893 0.6694675
0.3689536 0.2974418 0.6668232
0.3681410 0.2831590 0.6585089
0.3675171 0.2736106 0.6526341
0.3668109 0.2640486 0.6464799
0.3660085 0.2544804 0.6400336
0.3650958 0.2449154 0.6332817
0.3640569 0.2353647 0.6262101
0.3628764 0.2258415 0.6188042
0.3622281 0.2210949 0.6149711
0.3600268 0.2069412 0.6029285
0.3583249 0.1976029 0.5944277
0.3564138 0.1883712 0.5855321
0.3542753 0.1792741 0.5762281
0.3518925 0.1703432 0.5665028
0.3492451 0.1616148 0.5563484
0.3463151 0.1531280 0.5457600
0.3447390 0.1489882 0.5403025
0.3395417 0.1370480 0.5232880
0.3356698 0.1295407 0.5114281
0.3314615 0.1224425 0.4991827
0.3269137 0.1157873 0.4865865
0.3220288 0.1096011 0.4736849
0.3168165 0.1038986 0.4605341
0.3112943 0.0986848 0.4471931
0.3084244 0.0962594 0.4404719
0.2994248 0.0896823 0.4202162
0.2931459 0.0858507 0.4067218
0.2866915 0.0824299 0.3933118
0.2801064 0.0793900 0.3800503
0.2734374 0.0767028 0.3669962
0.2667323 0.0743440 0.3542028
0.2600390 0.0722948 0.3417176
0.2567119 0.0713801 0.3356065
0.2468823 0.0690536 0.3178699
0.2405081 0.0678571 0.3065705
0.2343306 0.0669356 0.2957401
0.2283918 0.0662900 0.2854107
0.2227271 0.0659338 0.2755971
0.2173785 0.0658597 0.2663421
0.2123741 0.0660850 0.2576517
0.2100121 0.0663086 0.2535289
0.2035201 0.0674442 0.2420558
0.1997157 0.0685927 0.2351709
0.1960826 0.0703212 0.2287467
0.1919945 0.0731828 0.2224339
0.1873923 0.0771021 0.2161888
0.1877448 0.0772516 0.2138745
0.1931549 0.0736068 0.2154236
0.1981934 0.0709746 0.2169098
0.2029037 0.0694352 0.2183317
0.2053173 0.0689196 0.2191152
0.2133314 0.0678301 0.2220704
0.2193050 0.0674658 0.2245102
0.2257540 0.0673821 0.2272898
0.2326630 0.0675571 0.2303762
0.2399959 0.0679850 0.2337343
0.2477209 0.0686533 0.2373288
0.2558214 0.0695323 0.2411219
0.2642551 0.0706166 0.2450776
0.2729970 0.0718836 0.2491585
0.2820175 0.0733157 0.2533280
0.2912852 0.0748990 0.2575510
0.3007728 0.0766178 0.2617929
0.3104552 0.0784569 0.2660201
0.3202999 0.0804130 0.2702032
0.3302917 0.0824676 0.2743093
0.3353335 0.0835324 0.2763253
0.3506068 0.0868756 0.2821877
0.3608875 0.0892272 0.2859105
0.3712251 0.0916800 0.2894587
0.3816025 0.0942387 0.2928111
0.3919989 0.0969158 0.2959521
0.4023969 0.0997229 0.2988667
0.4127799 0.1026734 0.3015423
0.4231321 0.1057812 0.3039676
0.4334356 0.1090642 0.3061377
0.4436736 0.1125391 0.3080497
0.4538301 0.1162218 0.3097044
0.4638910 0.1201256 0.3111034
0.4738414 0.1242635 0.3122547
0.4836663 0.1286468 0.3131719
0.4933550 0.1332809 0.3138656
0.4981444 0.1356938 0.3141352
0.5122784 0.1433166 0.3146631
0.5214965 0.1487154 0.3148077
0.5305442 0.1543618 0.3148130
0.5394174 0.1602477 0.3147030
0.5481137 0.1663631 0.3145010
0.5566323 0.1726968 0.3142304
0.5649734 0.1792366 0.3139136
0.5731385 0.1859704 0.3135713
0.5811293 0.1928855 0.3132240
0.5889486 0.1999702 0.3128892
0.5965992 0.2072130 0.3125852
0.6040840 0.2146033 0.3123265
0.6114062 0.2221312 0.3121288
0.6185687 0.2297880 0.3120046
0.6255742 0.2375654 0.3119670
0.6290189 0.2414969 0.3119845
0.6391243 0.2534537 0.3121969
0.6456735 0.2615520 0.3124867
0.6520742 0.2697465 0.3129056
0.6583281 0.2780321 0.3134643
0.6644363 0.2864048 0.3141722
0.6703996 0.2948613 0.3150381
0.6762190 0.3033976 0.3160725
0.6818946 0.3120113 0.3172838
0.6874266 0.3206997 0.3186814
0.6928154 0.3294598 0.3202754
0.6980608 0.3382898 0.3220748
0.7031625 0.3471872 0.3240891
0.7081206 0.3561499 0.3263286
0.7129347 0.3651757 0.3288027
0.7176044 0.3742627 0.3315214
0.7198852 0.3788285 0.3329756
0.7265112 0.3926113 0.3377326
0.7307482 0.4018685 0.3412450
0.7348413 0.4111779 0.3450417
0.7387914 0.4205367 0.3491326
0.7425992 0.4299425 0.3535271
0.7462662 0.4393925 0.3582344
0.7497942 0.4488833 0.3632634
0.7531857 0.4584120 0.3686224
0.7564434 0.4679750 0.3743191
0.7595711 0.4775687 0.3803607
0.7625733 0.4871891 0.3867534
0.7654549 0.4968321 0.3935025
0.7682218 0.5064936 0.4006126
0.7708809 0.5161689 0.4080867
0.7734402 0.5258533 0.4159268
0.7746849 0.5306975 0.4199844
0.7782935 0.5452306 0.4327066
0.7806077 0.5549134 0.4416433
0.7828623 0.5645853 0.4509399
0.7850685 0.5742417 0.4605912
0.7872390 0.5838774 0.4705904
0.7893874 0.5934875 0.4809291
0.7915283 0.6030667 0.4915967
0.7936756 0.6126103 0.5025816
0.7958429 0.6221138 0.5138712
0.7980445 0.6315726 0.5254511
0.8002942 0.6409821 0.5373054
0.8026053 0.6503379 0.5494169
0.8049905 0.6596355 0.5617675
0.8074614 0.6688700 0.5743375
0.8100281 0.6780367 0.5871063
0.8113501 0.6825930 0.5935585
0.8154815 0.6961451 0.6131522
0.8183793 0.7050744 0.6263825
0.8213947 0.7139109 0.6397177
0.8245268 0.7226461 0.6531314
0.8277716 0.7312702 0.6665957
0.8311216 0.7397718 0.6800813
0.8345657 0.7481379 0.6935570
0.8380912 0.7563531 0.7069856
0.8416775 0.7644010 0.7203330
0.8452981 0.7722634 0.7335637
0.8489225 0.7799202 0.7466372
0.8525191 0.7873494 0.7594994
0.8560402 0.7945296 0.7721061
0.8594346 0.8014392 0.7843979
0.8626560 0.8080552 0.7962827
0.8641834 0.8112464 0.8020461
0.8683995 0.8203088 0.8184164
0.8709385 0.8258686 0.8283850
0.8733517 0.8309672 0.8374885
0.8757146 0.8355302 0.8457554
0.8780230 0.8395017 0.8533065
0.8801929 0.8428522 0.8602740
0.8821154 0.8455701 0.8667377
0.8836913 0.8476489 0.8727415
0.8848514 0.8490843 0.8782824
0.8855471 0.8498717 0.8833621
0.8857116 0.8500219 0.8857254
