posts/Davinci-Resolve-thermal-luts/colormaps-as-cube/viridis_r.cube
TITLE "Colormap viridis_r"
LUT_1D_SIZE 256
0.9932480 0.9061570 0.1439360
0.9838680 0.9048670 0.1368970
0.9744170 0.9035900 0.1302150
0.9648940 0.9023230 0.1239410
0.9553000 0.9010650 0.1181280
0.9456360 0.8998150 0.1128380
0.9359040 0.8985700 0.1081310
0.9261060 0.8973300 0.1040710
0.9162420 0.8960910 0.1007170
0.9063110 0.8948550 0.0981250
0.8963200 0.8936160 0.0963350
0.8862710 0.8923740 0.0953740
0.8761680 0.8911250 0.0952500
0.8660130 0.8898680 0.0959530
0.8558100 0.8886010 0.0974520
0.8455610 0.8873220 0.0997020
0.8352700 0.8860290 0.1026460
0.8249400 0.8847200 0.1062170
0.8145760 0.8833930 0.1103470
0.8041820 0.8820460 0.1149650
0.7937600 0.8806780 0.1200050
0.7833150 0.8792850 0.1254050
0.7728520 0.8778680 0.1311090
0.7623730 0.8764240 0.1370640
0.7518840 0.8749510 0.1432280
0.7413880 0.8734490 0.1495610
0.7308890 0.8719160 0.1560290
0.7203910 0.8703500 0.1626030
0.7098980 0.8687510 0.1692570
0.6994150 0.8671170 0.1759710
0.6889440 0.8654480 0.1827250
0.6784890 0.8637420 0.1895030
0.6680540 0.8619990 0.1962930
0.6576420 0.8602190 0.2030820
0.6472570 0.8584000 0.2098610
0.6369020 0.8565420 0.2166200
0.6265790 0.8546450 0.2233530
0.6162930 0.8527090 0.2300520
0.6060450 0.8507330 0.2367120
0.5958390 0.8487170 0.2433290
0.5856780 0.8466610 0.2498970
0.5755630 0.8445660 0.2564150
0.5654980 0.8424300 0.2628770
0.5554840 0.8402540 0.2692810
0.5455240 0.8380390 0.2756260
0.5356210 0.8357850 0.2819080
0.5257760 0.8334910 0.2881270
0.5159920 0.8311580 0.2942790
0.5062710 0.8287860 0.3003620
0.4966150 0.8263760 0.3063770
0.4870260 0.8239290 0.3123210
0.4775040 0.8214440 0.3181950
0.4680530 0.8189210 0.3239980
0.4586740 0.8163630 0.3297270
0.4493680 0.8137680 0.3353840
0.4401370 0.8111380 0.3409670
0.4309830 0.8084730 0.3464760
0.4219080 0.8057740 0.3519100
0.4129130 0.8030410 0.3572690
0.4040010 0.8002750 0.3625520
0.3951740 0.7974750 0.3677570
0.3864330 0.7946440 0.3728860
0.3777790 0.7917810 0.3779390
0.3692140 0.7888880 0.3829140
0.3607410 0.7859640 0.3878140
0.3523600 0.7830110 0.3926360
0.3440740 0.7800290 0.3973810
0.3358850 0.7770180 0.4020490
0.3277960 0.7739800 0.4066400
0.3198090 0.7709140 0.4111520
0.3119250 0.7678220 0.4155860
0.3041480 0.7647040 0.4199430
0.2964790 0.7615610 0.4242230
0.2889210 0.7583940 0.4284260
0.2814770 0.7552030 0.4325520
0.2741490 0.7519880 0.4366010
0.2669410 0.7487510 0.4405730
0.2598570 0.7454920 0.4444670
0.2528990 0.7422110 0.4482840
0.2460700 0.7389100 0.4520240
0.2393740 0.7355880 0.4556880
0.2328150 0.7322470 0.4592770
0.2263970 0.7288880 0.4627890
0.2201240 0.7255090 0.4662260
0.2140000 0.7221140 0.4695880
0.2080300 0.7187010 0.4728730
0.2022190 0.7152720 0.4760840
0.1965710 0.7118270 0.4792210
0.1910900 0.7083660 0.4822840
0.1857830 0.7048910 0.4852730
0.1806530 0.7014020 0.4881890
0.1757070 0.6979000 0.4910330
0.1709480 0.6943840 0.4938030
0.1663830 0.6908560 0.4965020
0.1620160 0.6873160 0.4991290
0.1578510 0.6837650 0.5016860
0.1538940 0.6802030 0.5041720
0.1501480 0.6766310 0.5065890
0.1466160 0.6730500 0.5089360
0.1433030 0.6694590 0.5112150
0.1402100 0.6658590 0.5134270
0.1373390 0.6622520 0.5155710
0.1346920 0.6586360 0.5176490
0.1322680 0.6550140 0.5196610
0.1300670 0.6513840 0.5216080
0.1280870 0.6477490 0.5234910
0.1263260 0.6441070 0.5253110
0.1247800 0.6404610 0.5270680
0.1234440 0.6368090 0.5287630
0.1223120 0.6331530 0.5303980
0.1213800 0.6294920 0.5319730
0.1206380 0.6258280 0.5334880
0.1200810 0.6221610 0.5349460
0.1196990 0.6184900 0.5363470
0.1194830 0.6148170 0.5376920
0.1194230 0.6111410 0.5389820
0.1195120 0.6074640 0.5402180
0.1197380 0.6037850 0.5414000
0.1200920 0.6001040 0.5425300
0.1205650 0.5964220 0.5436110
0.1211480 0.5927390 0.5446410
0.1218310 0.5890550 0.5456230
0.1226060 0.5853710 0.5465570
0.1234630 0.5816870 0.5474450
0.1243950 0.5780020 0.5482870
0.1253940 0.5743180 0.5490860
0.1264530 0.5706330 0.5498410
0.1275680 0.5669490 0.5505560
0.1287290 0.5632650 0.5512290
0.1299330 0.5595820 0.5518640
0.1311720 0.5558990 0.5524590
0.1324440 0.5522160 0.5530180
0.1337430 0.5485350 0.5535410
0.1350660 0.5448530 0.5540290
0.1364080 0.5411730 0.5544830
0.1377700 0.5374920 0.5549060
0.1391470 0.5338120 0.5552980
0.1405360 0.5301320 0.5556590
0.1419350 0.5264530 0.5559910
0.1433430 0.5227730 0.5562950
0.1447590 0.5190930 0.5565720
0.1461800 0.5154130 0.5568230
0.1476070 0.5117330 0.5570490
0.1490390 0.5080510 0.5572500
0.1504760 0.5043690 0.5574300
0.1519180 0.5006850 0.5575870
0.1533640 0.4970000 0.5577240
0.1548150 0.4933130 0.5578400
0.1562700 0.4896240 0.5579360
0.1577290 0.4859320 0.5580130
0.1591940 0.4822370 0.5580730
0.1606650 0.4785400 0.5581150
0.1621420 0.4748380 0.5581400
0.1636250 0.4711330 0.5581480
0.1651170 0.4674230 0.5581410
0.1666170 0.4637080 0.5581190
0.1681260 0.4599880 0.5580820
0.1696460 0.4562620 0.5580300
0.1711760 0.4525300 0.5579650
0.1727190 0.4487910 0.5578850
0.1742740 0.4450440 0.5577920
0.1758410 0.4412900 0.5576850
0.1774230 0.4375270 0.5575650
0.1790190 0.4337560 0.5574300
0.1806290 0.4299750 0.5572820
0.1822560 0.4261840 0.5571200
0.1838980 0.4223830 0.5569440
0.1855560 0.4185700 0.5567530
0.1872310 0.4147460 0.5565470
0.1889230 0.4109100 0.5563260
0.1906310 0.4070610 0.5560890
0.1923570 0.4031990 0.5558360
0.1941000 0.3993230 0.5555650
0.1958600 0.3954330 0.5552760
0.1976360 0.3915280 0.5549690
0.1994300 0.3876070 0.5546420
0.2012390 0.3836700 0.5542940
0.2030630 0.3797160 0.5539250
0.2049030 0.3757460 0.5535330
0.2067560 0.3717580 0.5531170
0.2086230 0.3677520 0.5526750
0.2105030 0.3637270 0.5522060
0.2123950 0.3596830 0.5517100
0.2142980 0.3556190 0.5511840
0.2162100 0.3515350 0.5506270
0.2181300 0.3474320 0.5500380
0.2200570 0.3433070 0.5494130
0.2219890 0.3391610 0.5487520
0.2239250 0.3349940 0.5480530
0.2258630 0.3308050 0.5473140
0.2278020 0.3265940 0.5465320
0.2297390 0.3223610 0.5457060
0.2316740 0.3181060 0.5448340
0.2336030 0.3138280 0.5439140
0.2355260 0.3095270 0.5429440
0.2374410 0.3052020 0.5419210
0.2393460 0.3008550 0.5408440
0.2412370 0.2964850 0.5397090
0.2431130 0.2920920 0.5385160
0.2449720 0.2876750 0.5372600
0.2468110 0.2832370 0.5359410
0.2486290 0.2787750 0.5345560
0.2504250 0.2742900 0.5331030
0.2521940 0.2697830 0.5315790
0.2539350 0.2652540 0.5299830
0.2556450 0.2607030 0.5283120
0.2573220 0.2561300 0.5265630
0.2589650 0.2515370 0.5247360
0.2605710 0.2469220 0.5228280
0.2621380 0.2422860 0.5208370
0.2636630 0.2376310 0.5187620
0.2651450 0.2329560 0.5165990
0.2665800 0.2282620 0.5143490
0.2679680 0.2235490 0.5120080
0.2693080 0.2188180 0.5095770
0.2705950 0.2140690 0.5070520
0.2718280 0.2093030 0.5044340
0.2730060 0.2045200 0.5017210
0.2741280 0.1997210 0.4989110
0.2751910 0.1949050 0.4960050
0.2761940 0.1900740 0.4930010
0.2771340 0.1852280 0.4898980
0.2780120 0.1803670 0.4866970
0.2788260 0.1754900 0.4833970
0.2795740 0.1705990 0.4799970
0.2802550 0.1656930 0.4764980
0.2808680 0.1607710 0.4728990
0.2814120 0.1558340 0.4692010
0.2818870 0.1508810 0.4654050
0.2822900 0.1459120 0.4615100
0.2826230 0.1409260 0.4575170
0.2828840 0.1359200 0.4534270
0.2830720 0.1308950 0.4492410
0.2831870 0.1258480 0.4449600
0.2832290 0.1207770 0.4405840
0.2831970 0.1156800 0.4361150
0.2830910 0.1105530 0.4315540
0.2829100 0.1053930 0.4269020
0.2826560 0.1001960 0.4221600
0.2823270 0.0949550 0.4173310
0.2819240 0.0896660 0.4124150
0.2814460 0.0843200 0.4074140
0.2808940 0.0789070 0.4023290
0.2802670 0.0734170 0.3971630
0.2795660 0.0678360 0.3919170
0.2787910 0.0621450 0.3865920
0.2779410 0.0563240 0.3811910
0.2770180 0.0503440 0.3757150
0.2760220 0.0441670 0.3701640
0.2749520 0.0377520 0.3645430
0.2738090 0.0314970 0.3588530
0.2725940 0.0255630 0.3530930
0.2713050 0.0199420 0.3472690
0.2699440 0.0146250 0.3413790
0.2685100 0.0096050 0.3354270
0.2670040 0.0048740 0.3294150
