posts/Davinci-Resolve-thermal-luts/colormaps-as-cube/winter_r.cube
TITLE "Colormap winter_r"
LUT_1D_SIZE 256
0.0000000 1.0000000 0.5000000
0.0000000 0.9960784 0.5019608
0.0000000 0.9921569 0.5039216
0.0000000 0.9882353 0.5058824
0.0000000 0.9843137 0.5078431
0.0000000 0.9803922 0.5098039
0.0000000 0.9764706 0.5117647
0.0000000 0.9725490 0.5137255
0.0000000 0.9686275 0.5156863
0.0000000 0.9647059 0.5176471
0.0000000 0.9607843 0.5196078
0.0000000 0.9568627 0.5215686
0.0000000 0.9529412 0.5235294
0.0000000 0.9490196 0.5254902
0.0000000 0.9450980 0.5274510
0.0000000 0.9411765 0.5294118
0.0000000 0.9372549 0.5313725
0.0000000 0.9333333 0.5333333
0.0000000 0.9294118 0.5352941
0.0000000 0.9254902 0.5372549
0.0000000 0.9215686 0.5392157
0.0000000 0.9176471 0.5411765
0.0000000 0.9137255 0.5431373
0.0000000 0.9098039 0.5450980
0.0000000 0.9058824 0.5470588
0.0000000 0.9019608 0.5490196
0.0000000 0.8980392 0.5509804
0.0000000 0.8941176 0.5529412
0.0000000 0.8901961 0.5549020
0.0000000 0.8862745 0.5568627
0.0000000 0.8823529 0.5588235
0.0000000 0.8784314 0.5607843
0.0000000 0.8745098 0.5627451
0.0000000 0.8705882 0.5647059
0.0000000 0.8666667 0.5666667
0.0000000 0.8627451 0.5686275
0.0000000 0.8588235 0.5705882
0.0000000 0.8549020 0.5725490
0.0000000 0.8509804 0.5745098
0.0000000 0.8470588 0.5764706
0.0000000 0.8431373 0.5784314
0.0000000 0.8392157 0.5803922
0.0000000 0.8352941 0.5823529
0.0000000 0.8313725 0.5843137
0.0000000 0.8274510 0.5862745
0.0000000 0.8235294 0.5882353
0.0000000 0.8196078 0.5901961
0.0000000 0.8156863 0.5921569
0.0000000 0.8117647 0.5941176
0.0000000 0.8078431 0.5960784
0.0000000 0.8039216 0.5980392
0.0000000 0.8000000 0.6000000
0.0000000 0.7960784 0.6019608
0.0000000 0.7921569 0.6039216
0.0000000 0.7882353 0.6058824
0.0000000 0.7843137 0.6078431
0.0000000 0.7803922 0.6098039
0.0000000 0.7764706 0.6117647
0.0000000 0.7725490 0.6137255
0.0000000 0.7686275 0.6156863
0.0000000 0.7647059 0.6176471
0.0000000 0.7607843 0.6196078
0.0000000 0.7568627 0.6215686
0.0000000 0.7529412 0.6235294
0.0000000 0.7490196 0.6254902
0.0000000 0.7450980 0.6274510
0.0000000 0.7411765 0.6294118
0.0000000 0.7372549 0.6313725
0.0000000 0.7333333 0.6333333
0.0000000 0.7294118 0.6352941
0.0000000 0.7254902 0.6372549
0.0000000 0.7215686 0.6392157
0.0000000 0.7176471 0.6411765
0.0000000 0.7137255 0.6431373
0.0000000 0.7098039 0.6450980
0.0000000 0.7058824 0.6470588
0.0000000 0.7019608 0.6490196
0.0000000 0.6980392 0.6509804
0.0000000 0.6941176 0.6529412
0.0000000 0.6901961 0.6549020
0.0000000 0.6862745 0.6568627
0.0000000 0.6823529 0.6588235
0.0000000 0.6784314 0.6607843
0.0000000 0.6745098 0.6627451
0.0000000 0.6705882 0.6647059
0.0000000 0.6666667 0.6666667
0.0000000 0.6627451 0.6686275
0.0000000 0.6588235 0.6705882
0.0000000 0.6549020 0.6725490
0.0000000 0.6509804 0.6745098
0.0000000 0.6470588 0.6764706
0.0000000 0.6431373 0.6784314
0.0000000 0.6392157 0.6803922
0.0000000 0.6352941 0.6823529
0.0000000 0.6313725 0.6843137
0.0000000 0.6274510 0.6862745
0.0000000 0.6235294 0.6882353
0.0000000 0.6196078 0.6901961
0.0000000 0.6156863 0.6921569
0.0000000 0.6117647 0.6941176
0.0000000 0.6078431 0.6960784
0.0000000 0.6039216 0.6980392
0.0000000 0.6000000 0.7000000
0.0000000 0.5960784 0.7019608
0.0000000 0.5921569 0.7039216
0.0000000 0.5882353 0.7058824
0.0000000 0.5843137 0.7078431
0.0000000 0.5803922 0.7098039
0.0000000 0.5764706 0.7117647
0.0000000 0.5725490 0.7137255
0.0000000 0.5686275 0.7156863
0.0000000 0.5647059 0.7176471
0.0000000 0.5607843 0.7196078
0.0000000 0.5568627 0.7215686
0.0000000 0.5529412 0.7235294
0.0000000 0.5490196 0.7254902
0.0000000 0.5450980 0.7274510
0.0000000 0.5411765 0.7294118
0.0000000 0.5372549 0.7313725
0.0000000 0.5333333 0.7333333
0.0000000 0.5294118 0.7352941
0.0000000 0.5254902 0.7372549
0.0000000 0.5215686 0.7392157
0.0000000 0.5176471 0.7411765
0.0000000 0.5137255 0.7431373
0.0000000 0.5098039 0.7450980
0.0000000 0.5058824 0.7470588
0.0000000 0.5019608 0.7490196
0.0000000 0.4980392 0.7509804
0.0000000 0.4941176 0.7529412
0.0000000 0.4901961 0.7549020
0.0000000 0.4862745 0.7568627
0.0000000 0.4823529 0.7588235
0.0000000 0.4784314 0.7607843
0.0000000 0.4745098 0.7627451
0.0000000 0.4705882 0.7647059
0.0000000 0.4666667 0.7666667
0.0000000 0.4627451 0.7686275
0.0000000 0.4588235 0.7705882
0.0000000 0.4549020 0.7725490
0.0000000 0.4509804 0.7745098
0.0000000 0.4470588 0.7764706
0.0000000 0.4431373 0.7784314
0.0000000 0.4392157 0.7803922
0.0000000 0.4352941 0.7823529
0.0000000 0.4313725 0.7843137
0.0000000 0.4274510 0.7862745
0.0000000 0.4235294 0.7882353
0.0000000 0.4196078 0.7901961
0.0000000 0.4156863 0.7921569
0.0000000 0.4117647 0.7941176
0.0000000 0.4078431 0.7960784
0.0000000 0.4039216 0.7980392
0.0000000 0.4000000 0.8000000
0.0000000 0.3960784 0.8019608
0.0000000 0.3921569 0.8039216
0.0000000 0.3882353 0.8058824
0.0000000 0.3843137 0.8078431
0.0000000 0.3803922 0.8098039
0.0000000 0.3764706 0.8117647
0.0000000 0.3725490 0.8137255
0.0000000 0.3686275 0.8156863
0.0000000 0.3647059 0.8176471
0.0000000 0.3607843 0.8196078
0.0000000 0.3568627 0.8215686
0.0000000 0.3529412 0.8235294
0.0000000 0.3490196 0.8254902
0.0000000 0.3450980 0.8274510
0.0000000 0.3411765 0.8294118
0.0000000 0.3372549 0.8313725
0.0000000 0.3333333 0.8333333
0.0000000 0.3294118 0.8352941
0.0000000 0.3254902 0.8372549
0.0000000 0.3215686 0.8392157
0.0000000 0.3176471 0.8411765
0.0000000 0.3137255 0.8431373
0.0000000 0.3098039 0.8450980
0.0000000 0.3058824 0.8470588
0.0000000 0.3019608 0.8490196
0.0000000 0.2980392 0.8509804
0.0000000 0.2941176 0.8529412
0.0000000 0.2901961 0.8549020
0.0000000 0.2862745 0.8568627
0.0000000 0.2823529 0.8588235
0.0000000 0.2784314 0.8607843
0.0000000 0.2745098 0.8627451
0.0000000 0.2705882 0.8647059
0.0000000 0.2666667 0.8666667
0.0000000 0.2627451 0.8686275
0.0000000 0.2588235 0.8705882
0.0000000 0.2549020 0.8725490
0.0000000 0.2509804 0.8745098
0.0000000 0.2470588 0.8764706
0.0000000 0.2431373 0.8784314
0.0000000 0.2392157 0.8803922
0.0000000 0.2352941 0.8823529
0.0000000 0.2313725 0.8843137
0.0000000 0.2274510 0.8862745
0.0000000 0.2235294 0.8882353
0.0000000 0.2196078 0.8901961
0.0000000 0.2156863 0.8921569
0.0000000 0.2117647 0.8941176
0.0000000 0.2078431 0.8960784
0.0000000 0.2039216 0.8980392
0.0000000 0.2000000 0.9000000
0.0000000 0.1960784 0.9019608
0.0000000 0.1921569 0.9039216
0.0000000 0.1882353 0.9058824
0.0000000 0.1843137 0.9078431
0.0000000 0.1803922 0.9098039
0.0000000 0.1764706 0.9117647
0.0000000 0.1725490 0.9137255
0.0000000 0.1686275 0.9156863
0.0000000 0.1647059 0.9176471
0.0000000 0.1607843 0.9196078
0.0000000 0.1568627 0.9215686
0.0000000 0.1529412 0.9235294
0.0000000 0.1490196 0.9254902
0.0000000 0.1450980 0.9274510
0.0000000 0.1411765 0.9294118
0.0000000 0.1372549 0.9313725
0.0000000 0.1333333 0.9333333
0.0000000 0.1294118 0.9352941
0.0000000 0.1254902 0.9372549
0.0000000 0.1215686 0.9392157
0.0000000 0.1176471 0.9411765
0.0000000 0.1137255 0.9431373
0.0000000 0.1098039 0.9450980
0.0000000 0.1058824 0.9470588
0.0000000 0.1019608 0.9490196
0.0000000 0.0980392 0.9509804
0.0000000 0.0941176 0.9529412
0.0000000 0.0901961 0.9549020
0.0000000 0.0862745 0.9568627
0.0000000 0.0823529 0.9588235
0.0000000 0.0784314 0.9607843
0.0000000 0.0745098 0.9627451
0.0000000 0.0705882 0.9647059
0.0000000 0.0666667 0.9666667
0.0000000 0.0627451 0.9686275
0.0000000 0.0588235 0.9705882
0.0000000 0.0549020 0.9725490
0.0000000 0.0509804 0.9745098
0.0000000 0.0470588 0.9764706
0.0000000 0.0431373 0.9784314
0.0000000 0.0392157 0.9803922
0.0000000 0.0352941 0.9823529
0.0000000 0.0313725 0.9843137
0.0000000 0.0274510 0.9862745
0.0000000 0.0235294 0.9882353
0.0000000 0.0196078 0.9901961
0.0000000 0.0156863 0.9921569
0.0000000 0.0117647 0.9941176
0.0000000 0.0078431 0.9960784
0.0000000 0.0039216 0.9980392
0.0000000 0.0000000 1.0000000
