posts/Davinci-Resolve-thermal-luts/colormaps-as-cube/Wistia.cube
TITLE "Colormap Wistia"
LUT_1D_SIZE 256
0.8941176 1.0000000 0.4784314
0.8957785 0.9985852 0.4725260
0.8974394 0.9971703 0.4666205
0.8991003 0.9957555 0.4607151
0.9007612 0.9943406 0.4548097
0.9024221 0.9929258 0.4489043
0.9040830 0.9915110 0.4429988
0.9057439 0.9900961 0.4370934
0.9074048 0.9886813 0.4311880
0.9090657 0.9872664 0.4252826
0.9107266 0.9858516 0.4193772
0.9123875 0.9844368 0.4134717
0.9140484 0.9830219 0.4075663
0.9157093 0.9816071 0.4016609
0.9173702 0.9801922 0.3957555
0.9190311 0.9787774 0.3898501
0.9206920 0.9773626 0.3839446
0.9223529 0.9759477 0.3780392
0.9240138 0.9745329 0.3721338
0.9256747 0.9731180 0.3662284
0.9273356 0.9717032 0.3603230
0.9289965 0.9702884 0.3544175
0.9306574 0.9688735 0.3485121
0.9323183 0.9674587 0.3426067
0.9339792 0.9660438 0.3367013
0.9356401 0.9646290 0.3307958
0.9373010 0.9632141 0.3248904
0.9389619 0.9617993 0.3189850
0.9406228 0.9603845 0.3130796
0.9422837 0.9589696 0.3071742
0.9439446 0.9575548 0.3012687
0.9456055 0.9561399 0.2953633
0.9472664 0.9547251 0.2894579
0.9489273 0.9533103 0.2835525
0.9505882 0.9518954 0.2776471
0.9522491 0.9504806 0.2717416
0.9539100 0.9490657 0.2658362
0.9555709 0.9476509 0.2599308
0.9572318 0.9462361 0.2540254
0.9588927 0.9448212 0.2481200
0.9605536 0.9434064 0.2422145
0.9622145 0.9419915 0.2363091
0.9638754 0.9405767 0.2304037
0.9655363 0.9391619 0.2244983
0.9671972 0.9377470 0.2185928
0.9688581 0.9363322 0.2126874
0.9705190 0.9349173 0.2067820
0.9721799 0.9335025 0.2008766
0.9738408 0.9320877 0.1949712
0.9755017 0.9306728 0.1890657
0.9771626 0.9292580 0.1831603
0.9788235 0.9278431 0.1772549
0.9804844 0.9264283 0.1713495
0.9821453 0.9250135 0.1654441
0.9838062 0.9235986 0.1595386
0.9854671 0.9221838 0.1536332
0.9871280 0.9207689 0.1477278
0.9887889 0.9193541 0.1418224
0.9904498 0.9179393 0.1359170
0.9921107 0.9165244 0.1300115
0.9937716 0.9151096 0.1241061
0.9954325 0.9136947 0.1182007
0.9970934 0.9122799 0.1122953
0.9987543 0.9108651 0.1063899
1.0000000 0.9091426 0.1015609
1.0000000 0.9064975 0.0999616
1.0000000 0.9038524 0.0983622
1.0000000 0.9012072 0.0967628
1.0000000 0.8985621 0.0951634
1.0000000 0.8959170 0.0935640
1.0000000 0.8932718 0.0919646
1.0000000 0.8906267 0.0903652
1.0000000 0.8879815 0.0887659
1.0000000 0.8853364 0.0871665
1.0000000 0.8826913 0.0855671
1.0000000 0.8800461 0.0839677
1.0000000 0.8774010 0.0823683
1.0000000 0.8747559 0.0807689
1.0000000 0.8721107 0.0791696
1.0000000 0.8694656 0.0775702
1.0000000 0.8668205 0.0759708
1.0000000 0.8641753 0.0743714
1.0000000 0.8615302 0.0727720
1.0000000 0.8588850 0.0711726
1.0000000 0.8562399 0.0695732
1.0000000 0.8535948 0.0679739
1.0000000 0.8509496 0.0663745
1.0000000 0.8483045 0.0647751
1.0000000 0.8456594 0.0631757
1.0000000 0.8430142 0.0615763
1.0000000 0.8403691 0.0599769
1.0000000 0.8377240 0.0583775
1.0000000 0.8350788 0.0567782
1.0000000 0.8324337 0.0551788
1.0000000 0.8297885 0.0535794
1.0000000 0.8271434 0.0519800
1.0000000 0.8244983 0.0503806
1.0000000 0.8218531 0.0487812
1.0000000 0.8192080 0.0471819
1.0000000 0.8165629 0.0455825
1.0000000 0.8139177 0.0439831
1.0000000 0.8112726 0.0423837
1.0000000 0.8086275 0.0407843
1.0000000 0.8059823 0.0391849
1.0000000 0.8033372 0.0375855
1.0000000 0.8006920 0.0359862
1.0000000 0.7980469 0.0343868
1.0000000 0.7954018 0.0327874
1.0000000 0.7927566 0.0311880
1.0000000 0.7901115 0.0295886
1.0000000 0.7874664 0.0279892
1.0000000 0.7848212 0.0263899
1.0000000 0.7821761 0.0247905
1.0000000 0.7795309 0.0231911
1.0000000 0.7768858 0.0215917
1.0000000 0.7742407 0.0199923
1.0000000 0.7715955 0.0183929
1.0000000 0.7689504 0.0167935
1.0000000 0.7663053 0.0151942
1.0000000 0.7636601 0.0135948
1.0000000 0.7610150 0.0119954
1.0000000 0.7583699 0.0103960
1.0000000 0.7557247 0.0087966
1.0000000 0.7530796 0.0071972
1.0000000 0.7504344 0.0055978
1.0000000 0.7477893 0.0039985
1.0000000 0.7451442 0.0023991
1.0000000 0.7424990 0.0007997
1.0000000 0.7402845 0.0000000
1.0000000 0.7385006 0.0000000
1.0000000 0.7367166 0.0000000
1.0000000 0.7349327 0.0000000
1.0000000 0.7331488 0.0000000
1.0000000 0.7313649 0.0000000
1.0000000 0.7295809 0.0000000
1.0000000 0.7277970 0.0000000
1.0000000 0.7260131 0.0000000
1.0000000 0.7242291 0.0000000
1.0000000 0.7224452 0.0000000
1.0000000 0.7206613 0.0000000
1.0000000 0.7188774 0.0000000
1.0000000 0.7170934 0.0000000
1.0000000 0.7153095 0.0000000
1.0000000 0.7135256 0.0000000
1.0000000 0.7117416 0.0000000
1.0000000 0.7099577 0.0000000
1.0000000 0.7081738 0.0000000
1.0000000 0.7063899 0.0000000
1.0000000 0.7046059 0.0000000
1.0000000 0.7028220 0.0000000
1.0000000 0.7010381 0.0000000
1.0000000 0.6992541 0.0000000
1.0000000 0.6974702 0.0000000
1.0000000 0.6956863 0.0000000
1.0000000 0.6939023 0.0000000
1.0000000 0.6921184 0.0000000
1.0000000 0.6903345 0.0000000
1.0000000 0.6885506 0.0000000
1.0000000 0.6867666 0.0000000
1.0000000 0.6849827 0.0000000
1.0000000 0.6831988 0.0000000
1.0000000 0.6814148 0.0000000
1.0000000 0.6796309 0.0000000
1.0000000 0.6778470 0.0000000
1.0000000 0.6760631 0.0000000
1.0000000 0.6742791 0.0000000
1.0000000 0.6724952 0.0000000
1.0000000 0.6707113 0.0000000
1.0000000 0.6689273 0.0000000
1.0000000 0.6671434 0.0000000
1.0000000 0.6653595 0.0000000
1.0000000 0.6635755 0.0000000
1.0000000 0.6617916 0.0000000
1.0000000 0.6600077 0.0000000
1.0000000 0.6582238 0.0000000
1.0000000 0.6564398 0.0000000
1.0000000 0.6546559 0.0000000
1.0000000 0.6528720 0.0000000
1.0000000 0.6510880 0.0000000
1.0000000 0.6493041 0.0000000
1.0000000 0.6475202 0.0000000
1.0000000 0.6457363 0.0000000
1.0000000 0.6439523 0.0000000
1.0000000 0.6421684 0.0000000
1.0000000 0.6403845 0.0000000
1.0000000 0.6386005 0.0000000
1.0000000 0.6368166 0.0000000
1.0000000 0.6350327 0.0000000
1.0000000 0.6332488 0.0000000
1.0000000 0.6314648 0.0000000
1.0000000 0.6296809 0.0000000
1.0000000 0.6278970 0.0000000
0.9998616 0.6259285 0.0000000
0.9996770 0.6238985 0.0000000
0.9994925 0.6218685 0.0000000
0.9993080 0.6198385 0.0000000
0.9991234 0.6178085 0.0000000
0.9989389 0.6157785 0.0000000
0.9987543 0.6137486 0.0000000
0.9985698 0.6117186 0.0000000
0.9983852 0.6096886 0.0000000
0.9982007 0.6076586 0.0000000
0.9980161 0.6056286 0.0000000
0.9978316 0.6035986 0.0000000
0.9976471 0.6015686 0.0000000
0.9974625 0.5995386 0.0000000
0.9972780 0.5975087 0.0000000
0.9970934 0.5954787 0.0000000
0.9969089 0.5934487 0.0000000
0.9967243 0.5914187 0.0000000
0.9965398 0.5893887 0.0000000
0.9963552 0.5873587 0.0000000
0.9961707 0.5853287 0.0000000
0.9959862 0.5832987 0.0000000
0.9958016 0.5812687 0.0000000
0.9956171 0.5792388 0.0000000
0.9954325 0.5772088 0.0000000
0.9952480 0.5751788 0.0000000
0.9950634 0.5731488 0.0000000
0.9948789 0.5711188 0.0000000
0.9946943 0.5690888 0.0000000
0.9945098 0.5670588 0.0000000
0.9943253 0.5650288 0.0000000
0.9941407 0.5629988 0.0000000
0.9939562 0.5609689 0.0000000
0.9937716 0.5589389 0.0000000
0.9935871 0.5569089 0.0000000
0.9934025 0.5548789 0.0000000
0.9932180 0.5528489 0.0000000
0.9930334 0.5508189 0.0000000
0.9928489 0.5487889 0.0000000
0.9926644 0.5467589 0.0000000
0.9924798 0.5447290 0.0000000
0.9922953 0.5426990 0.0000000
0.9921107 0.5406690 0.0000000
0.9919262 0.5386390 0.0000000
0.9917416 0.5366090 0.0000000
0.9915571 0.5345790 0.0000000
0.9913725 0.5325490 0.0000000
0.9911880 0.5305190 0.0000000
0.9910035 0.5284890 0.0000000
0.9908189 0.5264591 0.0000000
0.9906344 0.5244291 0.0000000
0.9904498 0.5223991 0.0000000
0.9902653 0.5203691 0.0000000
0.9900807 0.5183391 0.0000000
0.9898962 0.5163091 0.0000000
0.9897116 0.5142791 0.0000000
0.9895271 0.5122491 0.0000000
0.9893426 0.5102191 0.0000000
0.9891580 0.5081892 0.0000000
0.9889735 0.5061592 0.0000000
0.9887889 0.5041292 0.0000000
0.9886044 0.5020992 0.0000000
0.9884198 0.5000692 0.0000000
0.9882353 0.4980392 0.0000000
