posts/Davinci-Resolve-thermal-luts/colormaps-as-cube/YlGnBu.cube
TITLE "Colormap YlGnBu"
LUT_1D_SIZE 256
1.0000000 1.0000000 0.8509804
0.9977855 0.9991388 0.8460592
0.9955709 0.9982776 0.8411380
0.9933564 0.9974164 0.8362168
0.9911419 0.9965552 0.8312957
0.9889273 0.9956940 0.8263745
0.9867128 0.9948328 0.8214533
0.9844983 0.9939715 0.8165321
0.9822837 0.9931103 0.8116109
0.9800692 0.9922491 0.8066897
0.9778547 0.9913879 0.8017686
0.9756401 0.9905267 0.7968474
0.9734256 0.9896655 0.7919262
0.9712111 0.9888043 0.7870050
0.9689965 0.9879431 0.7820838
0.9667820 0.9870819 0.7771626
0.9645675 0.9862207 0.7722414
0.9623529 0.9853595 0.7673203
0.9601384 0.9844983 0.7623991
0.9579239 0.9836371 0.7574779
0.9557093 0.9827759 0.7525567
0.9534948 0.9819146 0.7476355
0.9512803 0.9810534 0.7427143
0.9490657 0.9801922 0.7377932
0.9468512 0.9793310 0.7328720
0.9446367 0.9784698 0.7279508
0.9424221 0.9776086 0.7230296
0.9402076 0.9767474 0.7181084
0.9379931 0.9758862 0.7131872
0.9357785 0.9750250 0.7082661
0.9335640 0.9741638 0.7033449
0.9313495 0.9733026 0.6984237
0.9288274 0.9723183 0.6941638
0.9241522 0.9704729 0.6945329
0.9194771 0.9686275 0.6949020
0.9148020 0.9667820 0.6952710
0.9101269 0.9649366 0.6956401
0.9054517 0.9630911 0.6960092
0.9007766 0.9612457 0.6963783
0.8961015 0.9594002 0.6967474
0.8914264 0.9575548 0.6971165
0.8867512 0.9557093 0.6974856
0.8820761 0.9538639 0.6978547
0.8774010 0.9520185 0.6982238
0.8727259 0.9501730 0.6985928
0.8680507 0.9483276 0.6989619
0.8633756 0.9464821 0.6993310
0.8587005 0.9446367 0.6997001
0.8540254 0.9427912 0.7000692
0.8493502 0.9409458 0.7004383
0.8446751 0.9391003 0.7008074
0.8400000 0.9372549 0.7011765
0.8353249 0.9354095 0.7015456
0.8306498 0.9335640 0.7019146
0.8259746 0.9317186 0.7022837
0.8212995 0.9298731 0.7026528
0.8166244 0.9280277 0.7030219
0.8119493 0.9261822 0.7033910
0.8072741 0.9243368 0.7037601
0.8025990 0.9224913 0.7041292
0.7979239 0.9206459 0.7044983
0.7932488 0.9188005 0.7048674
0.7885736 0.9169550 0.7052364
0.7838985 0.9151096 0.7056055
0.7781776 0.9128643 0.7060977
0.7693195 0.9094195 0.7069589
0.7604614 0.9059746 0.7078201
0.7516032 0.9025298 0.7086813
0.7427451 0.8990850 0.7095425
0.7338870 0.8956401 0.7104037
0.7250288 0.8921953 0.7112649
0.7161707 0.8887505 0.7121261
0.7073126 0.8853057 0.7129873
0.6984544 0.8818608 0.7138485
0.6895963 0.8784160 0.7147097
0.6807382 0.8749712 0.7155709
0.6718800 0.8715263 0.7164321
0.6630219 0.8680815 0.7172933
0.6541638 0.8646367 0.7181546
0.6453057 0.8611918 0.7190158
0.6364475 0.8577470 0.7198770
0.6275894 0.8543022 0.7207382
0.6187313 0.8508574 0.7215994
0.6098731 0.8474125 0.7224606
0.6010150 0.8439677 0.7233218
0.5921569 0.8405229 0.7241830
0.5832987 0.8370780 0.7250442
0.5744406 0.8336332 0.7259054
0.5655825 0.8301884 0.7267666
0.5567243 0.8267436 0.7276278
0.5478662 0.8232987 0.7284890
0.5390081 0.8198539 0.7293502
0.5301499 0.8164091 0.7302115
0.5212918 0.8129642 0.7310727
0.5124337 0.8095194 0.7319339
0.5035755 0.8060746 0.7327951
0.4951788 0.8028604 0.7337486
0.4875509 0.8000308 0.7348558
0.4799231 0.7972011 0.7359631
0.4722953 0.7943714 0.7370704
0.4646674 0.7915417 0.7381776
0.4570396 0.7887120 0.7392849
0.4494118 0.7858824 0.7403922
0.4417839 0.7830527 0.7414994
0.4341561 0.7802230 0.7426067
0.4265283 0.7773933 0.7437140
0.4189004 0.7745636 0.7448212
0.4112726 0.7717339 0.7459285
0.4036448 0.7689043 0.7470358
0.3960169 0.7660746 0.7481430
0.3883891 0.7632449 0.7492503
0.3807612 0.7604152 0.7503576
0.3731334 0.7575855 0.7514648
0.3655056 0.7547559 0.7525721
0.3578777 0.7519262 0.7536794
0.3502499 0.7490965 0.7547866
0.3426221 0.7462668 0.7558939
0.3349942 0.7434371 0.7570012
0.3273664 0.7406075 0.7581084
0.3197386 0.7377778 0.7592157
0.3121107 0.7349481 0.7603230
0.3044829 0.7321184 0.7614302
0.2968551 0.7292887 0.7625375
0.2892272 0.7264591 0.7636448
0.2815994 0.7236294 0.7647520
0.2739715 0.7207997 0.7658593
0.2663437 0.7179700 0.7669666
0.2587159 0.7151403 0.7680738
0.2526874 0.7114494 0.7683814
0.2482584 0.7068973 0.7678893
0.2438293 0.7023453 0.7673972
0.2394002 0.6977932 0.7669050
0.2349712 0.6932411 0.7664129
0.2305421 0.6886890 0.7659208
0.2261130 0.6841369 0.7654287
0.2216840 0.6795848 0.7649366
0.2172549 0.6750327 0.7644444
0.2128258 0.6704806 0.7639523
0.2083968 0.6659285 0.7634602
0.2039677 0.6613764 0.7629681
0.1995386 0.6568243 0.7624760
0.1951096 0.6522722 0.7619839
0.1906805 0.6477201 0.7614917
0.1862514 0.6431680 0.7609996
0.1818224 0.6386159 0.7605075
0.1773933 0.6340638 0.7600154
0.1729642 0.6295117 0.7595233
0.1685352 0.6249596 0.7590311
0.1641061 0.6204075 0.7585390
0.1596770 0.6158554 0.7580469
0.1552480 0.6113033 0.7575548
0.1508189 0.6067512 0.7570627
0.1463899 0.6021992 0.7565705
0.1419608 0.5976471 0.7560784
0.1375317 0.5930950 0.7555863
0.1331027 0.5885429 0.7550942
0.1286736 0.5839908 0.7546021
0.1242445 0.5794387 0.7541100
0.1198155 0.5748866 0.7536178
0.1153864 0.5703345 0.7531257
0.1141100 0.5647059 0.7510957
0.1147251 0.5584314 0.7481430
0.1153403 0.5521569 0.7451903
0.1159554 0.5458824 0.7422376
0.1165705 0.5396078 0.7392849
0.1171857 0.5333333 0.7363322
0.1178008 0.5270588 0.7333795
0.1184160 0.5207843 0.7304268
0.1190311 0.5145098 0.7274740
0.1196463 0.5082353 0.7245213
0.1202614 0.5019608 0.7215686
0.1208766 0.4956863 0.7186159
0.1214917 0.4894118 0.7156632
0.1221069 0.4831373 0.7127105
0.1227220 0.4768627 0.7097578
0.1233372 0.4705882 0.7068051
0.1239523 0.4643137 0.7038524
0.1245675 0.4580392 0.7008997
0.1251826 0.4517647 0.6979469
0.1257978 0.4454902 0.6949942
0.1264129 0.4392157 0.6920415
0.1270281 0.4329412 0.6890888
0.1276432 0.4266667 0.6861361
0.1282584 0.4203922 0.6831834
0.1288735 0.4141176 0.6802307
0.1294887 0.4078431 0.6772780
0.1301038 0.4015686 0.6743253
0.1307190 0.3952941 0.6713725
0.1313341 0.3890196 0.6684198
0.1319493 0.3827451 0.6654671
0.1325644 0.3764706 0.6625144
0.1331795 0.3701961 0.6595617
0.1336101 0.3647520 0.6569781
0.1339792 0.3595848 0.6545175
0.1343483 0.3544175 0.6520569
0.1347174 0.3492503 0.6495963
0.1350865 0.3440830 0.6471357
0.1354556 0.3389158 0.6446751
0.1358247 0.3337486 0.6422145
0.1361938 0.3285813 0.6397539
0.1365629 0.3234141 0.6372933
0.1369319 0.3182468 0.6348328
0.1373010 0.3130796 0.6323722
0.1376701 0.3079123 0.6299116
0.1380392 0.3027451 0.6274510
0.1384083 0.2975779 0.6249904
0.1387774 0.2924106 0.6225298
0.1391465 0.2872434 0.6200692
0.1395156 0.2820761 0.6176086
0.1398847 0.2769089 0.6151480
0.1402537 0.2717416 0.6126874
0.1406228 0.2665744 0.6102268
0.1409919 0.2614072 0.6077662
0.1413610 0.2562399 0.6053057
0.1417301 0.2510727 0.6028451
0.1420992 0.2459054 0.6003845
0.1424683 0.2407382 0.5979239
0.1428374 0.2355709 0.5954633
0.1432065 0.2304037 0.5930027
0.1435755 0.2252364 0.5905421
0.1439446 0.2200692 0.5880815
0.1443137 0.2149020 0.5856209
0.1446828 0.2097347 0.5831603
0.1450519 0.2045675 0.5806997
0.1419762 0.2014456 0.5739331
0.1384083 0.1986159 0.5665513
0.1348404 0.1957862 0.5591696
0.1312726 0.1929566 0.5517878
0.1277047 0.1901269 0.5444060
0.1241369 0.1872972 0.5370242
0.1205690 0.1844675 0.5296424
0.1170012 0.1816378 0.5222607
0.1134333 0.1788082 0.5148789
0.1098654 0.1759785 0.5074971
0.1062976 0.1731488 0.5001153
0.1027297 0.1703191 0.4927336
0.0991619 0.1674894 0.4853518
0.0955940 0.1646597 0.4779700
0.0920261 0.1618301 0.4705882
0.0884583 0.1590004 0.4632065
0.0848904 0.1561707 0.4558247
0.0813226 0.1533410 0.4484429
0.0777547 0.1505113 0.4410611
0.0741869 0.1476817 0.4336794
0.0706190 0.1448520 0.4262976
0.0670511 0.1420223 0.4189158
0.0634833 0.1391926 0.4115340
0.0599154 0.1363629 0.4041522
0.0563476 0.1335333 0.3967705
0.0527797 0.1307036 0.3893887
0.0492118 0.1278739 0.3820069
0.0456440 0.1250442 0.3746251
0.0420761 0.1222145 0.3672434
0.0385083 0.1193849 0.3598616
0.0349404 0.1165552 0.3524798
0.0313725 0.1137255 0.3450980
