posts/Davinci-Resolve-thermal-luts/colormaps-as-cube/YlGn.cube
TITLE "Colormap YlGn"
LUT_1D_SIZE 256
1.0000000 1.0000000 0.8980392
0.9990158 0.9996309 0.8926259
0.9980315 0.9992618 0.8872126
0.9970473 0.9988927 0.8817993
0.9960631 0.9985236 0.8763860
0.9950788 0.9981546 0.8709727
0.9940946 0.9977855 0.8655594
0.9931103 0.9974164 0.8601461
0.9921261 0.9970473 0.8547328
0.9911419 0.9966782 0.8493195
0.9901576 0.9963091 0.8439062
0.9891734 0.9959400 0.8384929
0.9881892 0.9955709 0.8330796
0.9872049 0.9952018 0.8276663
0.9862207 0.9948328 0.8222530
0.9852364 0.9944637 0.8168397
0.9842522 0.9940946 0.8114264
0.9832680 0.9937255 0.8060131
0.9822837 0.9933564 0.8005998
0.9812995 0.9929873 0.7951865
0.9803153 0.9926182 0.7897732
0.9793310 0.9922491 0.7843599
0.9783468 0.9918800 0.7789466
0.9773626 0.9915110 0.7735333
0.9763783 0.9911419 0.7681200
0.9753941 0.9907728 0.7627067
0.9744098 0.9904037 0.7572933
0.9734256 0.9900346 0.7518800
0.9724414 0.9896655 0.7464667
0.9714571 0.9892964 0.7410534
0.9704729 0.9889273 0.7356401
0.9694887 0.9885582 0.7302268
0.9681661 0.9880507 0.7251519
0.9644752 0.9865744 0.7224452
0.9607843 0.9850980 0.7197386
0.9570934 0.9836217 0.7170319
0.9534025 0.9821453 0.7143253
0.9497116 0.9806690 0.7116186
0.9460208 0.9791926 0.7089120
0.9423299 0.9777163 0.7062053
0.9386390 0.9762399 0.7034987
0.9349481 0.9747636 0.7007920
0.9312572 0.9732872 0.6980854
0.9275663 0.9718108 0.6953787
0.9238754 0.9703345 0.6926720
0.9201845 0.9688581 0.6899654
0.9164937 0.9673818 0.6872587
0.9128028 0.9659054 0.6845521
0.9091119 0.9644291 0.6818454
0.9054210 0.9629527 0.6791388
0.9017301 0.9614764 0.6764321
0.8980392 0.9600000 0.6737255
0.8943483 0.9585236 0.6710188
0.8906574 0.9570473 0.6683122
0.8869666 0.9555709 0.6656055
0.8832757 0.9540946 0.6628989
0.8795848 0.9526182 0.6601922
0.8758939 0.9511419 0.6574856
0.8722030 0.9496655 0.6547789
0.8685121 0.9481892 0.6520723
0.8648212 0.9467128 0.6493656
0.8611303 0.9452364 0.6466590
0.8574394 0.9437601 0.6439523
0.8537486 0.9422837 0.6412457
0.8496271 0.9405921 0.6385698
0.8442138 0.9382545 0.6359862
0.8388005 0.9359170 0.6334025
0.8333872 0.9335794 0.6308189
0.8279739 0.9312418 0.6282353
0.8225606 0.9289043 0.6256517
0.8171473 0.9265667 0.6230681
0.8117339 0.9242291 0.6204844
0.8063206 0.9218916 0.6179008
0.8009073 0.9195540 0.6153172
0.7954940 0.9172165 0.6127336
0.7900807 0.9148789 0.6101499
0.7846674 0.9125413 0.6075663
0.7792541 0.9102038 0.6049827
0.7738408 0.9078662 0.6023991
0.7684275 0.9055286 0.5998155
0.7630142 0.9031911 0.5972318
0.7576009 0.9008535 0.5946482
0.7521876 0.8985160 0.5920646
0.7467743 0.8961784 0.5894810
0.7413610 0.8938408 0.5868973
0.7359477 0.8915033 0.5843137
0.7305344 0.8891657 0.5817301
0.7251211 0.8868281 0.5791465
0.7197078 0.8844906 0.5765629
0.7142945 0.8821530 0.5739792
0.7088812 0.8798155 0.5713956
0.7034679 0.8774779 0.5688120
0.6980546 0.8751403 0.5662284
0.6926413 0.8728028 0.5636448
0.6872280 0.8704652 0.5610611
0.6818147 0.8681276 0.5584775
0.6759862 0.8656055 0.5558939
0.6694656 0.8627759 0.5533103
0.6629450 0.8599462 0.5507266
0.6564245 0.8571165 0.5481430
0.6499039 0.8542868 0.5455594
0.6433833 0.8514571 0.5429758
0.6368627 0.8486275 0.5403922
0.6303422 0.8457978 0.5378085
0.6238216 0.8429681 0.5352249
0.6173010 0.8401384 0.5326413
0.6107805 0.8373087 0.5300577
0.6042599 0.8344790 0.5274740
0.5977393 0.8316494 0.5248904
0.5912188 0.8288197 0.5223068
0.5846982 0.8259900 0.5197232
0.5781776 0.8231603 0.5171396
0.5716571 0.8203306 0.5145559
0.5651365 0.8175010 0.5119723
0.5586159 0.8146713 0.5093887
0.5520953 0.8118416 0.5068051
0.5455748 0.8090119 0.5042215
0.5390542 0.8061822 0.5016378
0.5325336 0.8033526 0.4990542
0.5260131 0.8005229 0.4964706
0.5194925 0.7976932 0.4938870
0.5129719 0.7948635 0.4913033
0.5064514 0.7920338 0.4887197
0.4999308 0.7892042 0.4861361
0.4934102 0.7863745 0.4835525
0.4868897 0.7835448 0.4809689
0.4803691 0.7807151 0.4783852
0.4738485 0.7778854 0.4758016
0.4672049 0.7748097 0.4727874
0.4604383 0.7714879 0.4693426
0.4536717 0.7681661 0.4658977
0.4469050 0.7648443 0.4624529
0.4401384 0.7615225 0.4590081
0.4333718 0.7582007 0.4555632
0.4266052 0.7548789 0.4521184
0.4198385 0.7515571 0.4486736
0.4130719 0.7482353 0.4452288
0.4063053 0.7449135 0.4417839
0.3995386 0.7415917 0.4383391
0.3927720 0.7382699 0.4348943
0.3860054 0.7349481 0.4314494
0.3792388 0.7316263 0.4280046
0.3724721 0.7283045 0.4245598
0.3657055 0.7249827 0.4211150
0.3589389 0.7216609 0.4176701
0.3521722 0.7183391 0.4142253
0.3454056 0.7150173 0.4107805
0.3386390 0.7116955 0.4073356
0.3318724 0.7083737 0.4038908
0.3251057 0.7050519 0.4004460
0.3183391 0.7017301 0.3970012
0.3115725 0.6984083 0.3935563
0.3048058 0.6950865 0.3901115
0.2980392 0.6917647 0.3866667
0.2912726 0.6884429 0.3832218
0.2845060 0.6851211 0.3797770
0.2777393 0.6817993 0.3763322
0.2709727 0.6784775 0.3728874
0.2642061 0.6751557 0.3694425
0.2574394 0.6718339 0.3659977
0.2525952 0.6675894 0.3627067
0.2489043 0.6627912 0.3595079
0.2452134 0.6579931 0.3563091
0.2415225 0.6531949 0.3531103
0.2378316 0.6483968 0.3499116
0.2341407 0.6435986 0.3467128
0.2304498 0.6388005 0.3435140
0.2267589 0.6340023 0.3403153
0.2230681 0.6292042 0.3371165
0.2193772 0.6244060 0.3339177
0.2156863 0.6196078 0.3307190
0.2119954 0.6148097 0.3275202
0.2083045 0.6100115 0.3243214
0.2046136 0.6052134 0.3211226
0.2009227 0.6004152 0.3179239
0.1972318 0.5956171 0.3147251
0.1935409 0.5908189 0.3115263
0.1898501 0.5860208 0.3083276
0.1861592 0.5812226 0.3051288
0.1824683 0.5764245 0.3019300
0.1787774 0.5716263 0.2987313
0.1750865 0.5668281 0.2955325
0.1713956 0.5620300 0.2923337
0.1677047 0.5572318 0.2891349
0.1640138 0.5524337 0.2859362
0.1603230 0.5476355 0.2827374
0.1566321 0.5428374 0.2795386
0.1529412 0.5380392 0.2763399
0.1492503 0.5332411 0.2731411
0.1455594 0.5284429 0.2699423
0.1418685 0.5236448 0.2667436
0.1381776 0.5188466 0.2635448
0.1340254 0.5150634 0.2616378
0.1297193 0.5116186 0.2601615
0.1254133 0.5081738 0.2586851
0.1211073 0.5047290 0.2572088
0.1168012 0.5012841 0.2557324
0.1124952 0.4978393 0.2542561
0.1081892 0.4943945 0.2527797
0.1038831 0.4909496 0.2513033
0.0995771 0.4875048 0.2498270
0.0952710 0.4840600 0.2483506
0.0909650 0.4806151 0.2468743
0.0866590 0.4771703 0.2453979
0.0823529 0.4737255 0.2439216
0.0780469 0.4702807 0.2424452
0.0737409 0.4668358 0.2409689
0.0694348 0.4633910 0.2394925
0.0651288 0.4599462 0.2380161
0.0608228 0.4565013 0.2365398
0.0565167 0.4530565 0.2350634
0.0522107 0.4496117 0.2335871
0.0479047 0.4461669 0.2321107
0.0435986 0.4427220 0.2306344
0.0392926 0.4392772 0.2291580
0.0349865 0.4358324 0.2276817
0.0306805 0.4323875 0.2262053
0.0263745 0.4289427 0.2247290
0.0220684 0.4254979 0.2232526
0.0177624 0.4220531 0.2217762
0.0134564 0.4186082 0.2202999
0.0091503 0.4151634 0.2188235
0.0048443 0.4117186 0.2173472
0.0005383 0.4082737 0.2158708
0.0000000 0.4040754 0.2141792
0.0000000 0.3997693 0.2124567
0.0000000 0.3954633 0.2107343
0.0000000 0.3911572 0.2090119
0.0000000 0.3868512 0.2072895
0.0000000 0.3825452 0.2055671
0.0000000 0.3782391 0.2038447
0.0000000 0.3739331 0.2021223
0.0000000 0.3696271 0.2003998
0.0000000 0.3653210 0.1986774
0.0000000 0.3610150 0.1969550
0.0000000 0.3567090 0.1952326
0.0000000 0.3524029 0.1935102
0.0000000 0.3480969 0.1917878
0.0000000 0.3437908 0.1900654
0.0000000 0.3394848 0.1883429
0.0000000 0.3351788 0.1866205
0.0000000 0.3308727 0.1848981
0.0000000 0.3265667 0.1831757
0.0000000 0.3222607 0.1814533
0.0000000 0.3179546 0.1797309
0.0000000 0.3136486 0.1780085
0.0000000 0.3093426 0.1762860
0.0000000 0.3050365 0.1745636
0.0000000 0.3007305 0.1728412
0.0000000 0.2964245 0.1711188
0.0000000 0.2921184 0.1693964
0.0000000 0.2878124 0.1676740
0.0000000 0.2835063 0.1659516
0.0000000 0.2792003 0.1642291
0.0000000 0.2748943 0.1625067
0.0000000 0.2705882 0.1607843
