posts/Davinci-Resolve-thermal-luts/colormaps-as-cube/YlOrBr_r.cube
TITLE "Colormap YlOrBr_r"
LUT_1D_SIZE 256
0.4000000 0.1450980 0.0235294
0.4062745 0.1469435 0.0232834
0.4125490 0.1487889 0.0230373
0.4188235 0.1506344 0.0227912
0.4250980 0.1524798 0.0225452
0.4313725 0.1543253 0.0222991
0.4376471 0.1561707 0.0220531
0.4439216 0.1580161 0.0218070
0.4501961 0.1598616 0.0215609
0.4564706 0.1617070 0.0213149
0.4627451 0.1635525 0.0210688
0.4690196 0.1653979 0.0208228
0.4752941 0.1672434 0.0205767
0.4815686 0.1690888 0.0203306
0.4878431 0.1709343 0.0200846
0.4941176 0.1727797 0.0198385
0.5003922 0.1746251 0.0195925
0.5066667 0.1764706 0.0193464
0.5129412 0.1783160 0.0191003
0.5192157 0.1801615 0.0188543
0.5254902 0.1820069 0.0186082
0.5317647 0.1838524 0.0183622
0.5380392 0.1856978 0.0181161
0.5443137 0.1875433 0.0178700
0.5505882 0.1893887 0.0176240
0.5568627 0.1912341 0.0173779
0.5631373 0.1930796 0.0171319
0.5694118 0.1949250 0.0168858
0.5756863 0.1967705 0.0166398
0.5819608 0.1986159 0.0163937
0.5882353 0.2004614 0.0161476
0.5945098 0.2023068 0.0159016
0.6007843 0.2042907 0.0156555
0.6070588 0.2072434 0.0154095
0.6133333 0.2101961 0.0151634
0.6196078 0.2131488 0.0149173
0.6258824 0.2161015 0.0146713
0.6321569 0.2190542 0.0144252
0.6384314 0.2220069 0.0141792
0.6447059 0.2249596 0.0139331
0.6509804 0.2279123 0.0136870
0.6572549 0.2308651 0.0134410
0.6635294 0.2338178 0.0131949
0.6698039 0.2367705 0.0129489
0.6760784 0.2397232 0.0127028
0.6823529 0.2426759 0.0124567
0.6886275 0.2456286 0.0122107
0.6949020 0.2485813 0.0119646
0.7011765 0.2515340 0.0117186
0.7074510 0.2544867 0.0114725
0.7137255 0.2574394 0.0112265
0.7200000 0.2603922 0.0109804
0.7262745 0.2633449 0.0107343
0.7325490 0.2662976 0.0104883
0.7388235 0.2692503 0.0102422
0.7450980 0.2722030 0.0099962
0.7513725 0.2751557 0.0097501
0.7576471 0.2781084 0.0095040
0.7639216 0.2810611 0.0092580
0.7701961 0.2840138 0.0090119
0.7764706 0.2869666 0.0087659
0.7827451 0.2899193 0.0085198
0.7890196 0.2928720 0.0082737
0.7952941 0.2958247 0.0080277
0.8009842 0.2991465 0.0083968
0.8049212 0.3035755 0.0106113
0.8088581 0.3080046 0.0128258
0.8127951 0.3124337 0.0150404
0.8167320 0.3168627 0.0172549
0.8206690 0.3212918 0.0194694
0.8246059 0.3257209 0.0216840
0.8285429 0.3301499 0.0238985
0.8324798 0.3345790 0.0261130
0.8364168 0.3390081 0.0283276
0.8403537 0.3434371 0.0305421
0.8442907 0.3478662 0.0327566
0.8482276 0.3522953 0.0349712
0.8521646 0.3567243 0.0371857
0.8561015 0.3611534 0.0394002
0.8600384 0.3655825 0.0416148
0.8639754 0.3700115 0.0438293
0.8679123 0.3744406 0.0460438
0.8718493 0.3788697 0.0482584
0.8757862 0.3832987 0.0504729
0.8797232 0.3877278 0.0526874
0.8836601 0.3921569 0.0549020
0.8875971 0.3965859 0.0571165
0.8915340 0.4010150 0.0593310
0.8954710 0.4054441 0.0615456
0.8994079 0.4098731 0.0637601
0.9033449 0.4143022 0.0659746
0.9072818 0.4187313 0.0681892
0.9112188 0.4231603 0.0704037
0.9151557 0.4275894 0.0726182
0.9190927 0.4320185 0.0748328
0.9230296 0.4364475 0.0770473
0.9263206 0.4411073 0.0794002
0.9285352 0.4461515 0.0819839
0.9307497 0.4511957 0.0845675
0.9329642 0.4562399 0.0871511
0.9351788 0.4612841 0.0897347
0.9373933 0.4663283 0.0923183
0.9396078 0.4713725 0.0949020
0.9418224 0.4764168 0.0974856
0.9440369 0.4814610 0.1000692
0.9462514 0.4865052 0.1026528
0.9484660 0.4915494 0.1052364
0.9506805 0.4965936 0.1078201
0.9528950 0.5016378 0.1104037
0.9551096 0.5066820 0.1129873
0.9573241 0.5117263 0.1155709
0.9595386 0.5167705 0.1181546
0.9617532 0.5218147 0.1207382
0.9639677 0.5268589 0.1233218
0.9661822 0.5319031 0.1259054
0.9683968 0.5369473 0.1284890
0.9706113 0.5419915 0.1310727
0.9728258 0.5470358 0.1336563
0.9750404 0.5520800 0.1362399
0.9772549 0.5571242 0.1388235
0.9794694 0.5621684 0.1414072
0.9816840 0.5672126 0.1439908
0.9838985 0.5722568 0.1465744
0.9861130 0.5773010 0.1491580
0.9883276 0.5823453 0.1517416
0.9905421 0.5873895 0.1543253
0.9927566 0.5924337 0.1569089
0.9949712 0.5974779 0.1594925
0.9960784 0.6026451 0.1631219
0.9960784 0.6079354 0.1677970
0.9960784 0.6132257 0.1724721
0.9960784 0.6185160 0.1771473
0.9960784 0.6238062 0.1818224
0.9960784 0.6290965 0.1864975
0.9960784 0.6343868 0.1911726
0.9960784 0.6396770 0.1958478
0.9960784 0.6449673 0.2005229
0.9960784 0.6502576 0.2051980
0.9960784 0.6555479 0.2098731
0.9960784 0.6608381 0.2145483
0.9960784 0.6661284 0.2192234
0.9960784 0.6714187 0.2238985
0.9960784 0.6767090 0.2285736
0.9960784 0.6819992 0.2332488
0.9960784 0.6872895 0.2379239
0.9960784 0.6925798 0.2425990
0.9960784 0.6978700 0.2472741
0.9960784 0.7031603 0.2519493
0.9960784 0.7084506 0.2566244
0.9960784 0.7137409 0.2612995
0.9960784 0.7190311 0.2659746
0.9960784 0.7243214 0.2706498
0.9960784 0.7296117 0.2753249
0.9960784 0.7349020 0.2800000
0.9960784 0.7401922 0.2846751
0.9960784 0.7454825 0.2893502
0.9960784 0.7507728 0.2940254
0.9960784 0.7560631 0.2987005
0.9960784 0.7613533 0.3033756
0.9960784 0.7666436 0.3080507
0.9960784 0.7710111 0.3148789
0.9960784 0.7748251 0.3229988
0.9960784 0.7786390 0.3311188
0.9960784 0.7824529 0.3392388
0.9960784 0.7862668 0.3473587
0.9960784 0.7900807 0.3554787
0.9960784 0.7938947 0.3635986
0.9960784 0.7977086 0.3717186
0.9960784 0.8015225 0.3798385
0.9960784 0.8053364 0.3879585
0.9960784 0.8091503 0.3960784
0.9960784 0.8129642 0.4041984
0.9960784 0.8167782 0.4123183
0.9960784 0.8205921 0.4204383
0.9960784 0.8244060 0.4285582
0.9960784 0.8282199 0.4366782
0.9960784 0.8320338 0.4447982
0.9960784 0.8358478 0.4529181
0.9960784 0.8396617 0.4610381
0.9960784 0.8434756 0.4691580
0.9960784 0.8472895 0.4772780
0.9960784 0.8511034 0.4853979
0.9960784 0.8549173 0.4935179
0.9960784 0.8587313 0.5016378
0.9960784 0.8625452 0.5097578
0.9960784 0.8663591 0.5178777
0.9960784 0.8701730 0.5259977
0.9960784 0.8739869 0.5341176
0.9960784 0.8778008 0.5422376
0.9960784 0.8816148 0.5503576
0.9960784 0.8854287 0.5584775
0.9960784 0.8892426 0.5665975
0.9961707 0.8920415 0.5725952
0.9962937 0.8945021 0.5778854
0.9964168 0.8969627 0.5831757
0.9965398 0.8994233 0.5884660
0.9966628 0.9018839 0.5937562
0.9967859 0.9043445 0.5990465
0.9969089 0.9068051 0.6043368
0.9970319 0.9092657 0.6096271
0.9971549 0.9117263 0.6149173
0.9972780 0.9141869 0.6202076
0.9974010 0.9166474 0.6254979
0.9975240 0.9191080 0.6307882
0.9976471 0.9215686 0.6360784
0.9977701 0.9240292 0.6413687
0.9978931 0.9264898 0.6466590
0.9980161 0.9289504 0.6519493
0.9981392 0.9314110 0.6572395
0.9982622 0.9338716 0.6625298
0.9983852 0.9363322 0.6678201
0.9985083 0.9387928 0.6731103
0.9986313 0.9412534 0.6784006
0.9987543 0.9437140 0.6836909
0.9988774 0.9461745 0.6889812
0.9990004 0.9486351 0.6942714
0.9991234 0.9510957 0.6995617
0.9992464 0.9535563 0.7048520
0.9993695 0.9560169 0.7101423
0.9994925 0.9584775 0.7154325
0.9996155 0.9609381 0.7207228
0.9997386 0.9633987 0.7260131
0.9998616 0.9658593 0.7313033
0.9999846 0.9683199 0.7365936
1.0000000 0.9694887 0.7416686
1.0000000 0.9704729 0.7467128
1.0000000 0.9714571 0.7517570
1.0000000 0.9724414 0.7568012
1.0000000 0.9734256 0.7618454
1.0000000 0.9744098 0.7668897
1.0000000 0.9753941 0.7719339
1.0000000 0.9763783 0.7769781
1.0000000 0.9773626 0.7820223
1.0000000 0.9783468 0.7870665
1.0000000 0.9793310 0.7921107
1.0000000 0.9803153 0.7971549
1.0000000 0.9812995 0.8021992
1.0000000 0.9822837 0.8072434
1.0000000 0.9832680 0.8122876
1.0000000 0.9842522 0.8173318
1.0000000 0.9852364 0.8223760
1.0000000 0.9862207 0.8274202
1.0000000 0.9872049 0.8324644
1.0000000 0.9881892 0.8375087
1.0000000 0.9891734 0.8425529
1.0000000 0.9901576 0.8475971
1.0000000 0.9911419 0.8526413
1.0000000 0.9921261 0.8576855
1.0000000 0.9931103 0.8627297
1.0000000 0.9940946 0.8677739
1.0000000 0.9950788 0.8728181
1.0000000 0.9960631 0.8778624
1.0000000 0.9970473 0.8829066
1.0000000 0.9980315 0.8879508
1.0000000 0.9990158 0.8929950
1.0000000 1.0000000 0.8980392
