posts/Davinci-Resolve-thermal-luts/colormaps-as-cube/YlOrRd.cube
TITLE "Colormap YlOrRd"
LUT_1D_SIZE 256
1.0000000 1.0000000 0.8000000
1.0000000 0.9977855 0.7945867
1.0000000 0.9955709 0.7891734
1.0000000 0.9933564 0.7837601
1.0000000 0.9911419 0.7783468
1.0000000 0.9889273 0.7729335
1.0000000 0.9867128 0.7675202
1.0000000 0.9844983 0.7621069
1.0000000 0.9822837 0.7566936
1.0000000 0.9800692 0.7512803
1.0000000 0.9778547 0.7458670
1.0000000 0.9756401 0.7404537
1.0000000 0.9734256 0.7350404
1.0000000 0.9712111 0.7296271
1.0000000 0.9689965 0.7242138
1.0000000 0.9667820 0.7188005
1.0000000 0.9645675 0.7133872
1.0000000 0.9623529 0.7079739
1.0000000 0.9601384 0.7025606
1.0000000 0.9579239 0.6971473
1.0000000 0.9557093 0.6917339
1.0000000 0.9534948 0.6863206
1.0000000 0.9512803 0.6809073
1.0000000 0.9490657 0.6754940
1.0000000 0.9468512 0.6700807
1.0000000 0.9446367 0.6646674
1.0000000 0.9424221 0.6592541
1.0000000 0.9402076 0.6538408
1.0000000 0.9379931 0.6484275
1.0000000 0.9357785 0.6430142
1.0000000 0.9335640 0.6376009
1.0000000 0.9313495 0.6321876
0.9999846 0.9291042 0.6268051
0.9998616 0.9266436 0.6216378
0.9997386 0.9241830 0.6164706
0.9996155 0.9217224 0.6113033
0.9994925 0.9192618 0.6061361
0.9993695 0.9168012 0.6009689
0.9992464 0.9143406 0.5958016
0.9991234 0.9118800 0.5906344
0.9990004 0.9094195 0.5854671
0.9988774 0.9069589 0.5802999
0.9987543 0.9044983 0.5751326
0.9986313 0.9020377 0.5699654
0.9985083 0.8995771 0.5647982
0.9983852 0.8971165 0.5596309
0.9982622 0.8946559 0.5544637
0.9981392 0.8921953 0.5492964
0.9980161 0.8897347 0.5441292
0.9978931 0.8872741 0.5389619
0.9977701 0.8848135 0.5337947
0.9976471 0.8823529 0.5286275
0.9975240 0.8798923 0.5234602
0.9974010 0.8774318 0.5182930
0.9972780 0.8749712 0.5131257
0.9971549 0.8725106 0.5079585
0.9970319 0.8700500 0.5027912
0.9969089 0.8675894 0.4976240
0.9967859 0.8651288 0.4924567
0.9966628 0.8626682 0.4872895
0.9965398 0.8602076 0.4821223
0.9964168 0.8577470 0.4769550
0.9962937 0.8552864 0.4717878
0.9961707 0.8528258 0.4666205
0.9960784 0.8497809 0.4614533
0.9960784 0.8449827 0.4562860
0.9960784 0.8401845 0.4511188
0.9960784 0.8353864 0.4459516
0.9960784 0.8305882 0.4407843
0.9960784 0.8257901 0.4356171
0.9960784 0.8209919 0.4304498
0.9960784 0.8161938 0.4252826
0.9960784 0.8113956 0.4201153
0.9960784 0.8065975 0.4149481
0.9960784 0.8017993 0.4097809
0.9960784 0.7970012 0.4046136
0.9960784 0.7922030 0.3994464
0.9960784 0.7874048 0.3942791
0.9960784 0.7826067 0.3891119
0.9960784 0.7778085 0.3839446
0.9960784 0.7730104 0.3787774
0.9960784 0.7682122 0.3736101
0.9960784 0.7634141 0.3684429
0.9960784 0.7586159 0.3632757
0.9960784 0.7538178 0.3581084
0.9960784 0.7490196 0.3529412
0.9960784 0.7442215 0.3477739
0.9960784 0.7394233 0.3426067
0.9960784 0.7346251 0.3374394
0.9960784 0.7298270 0.3322722
0.9960784 0.7250288 0.3271050
0.9960784 0.7202307 0.3219377
0.9960784 0.7154325 0.3167705
0.9960784 0.7106344 0.3116032
0.9960784 0.7058362 0.3064360
0.9960784 0.7010381 0.3012687
0.9960323 0.6963322 0.2973010
0.9959093 0.6917801 0.2953326
0.9957862 0.6872280 0.2933641
0.9956632 0.6826759 0.2913956
0.9955402 0.6781238 0.2894271
0.9954171 0.6735717 0.2874587
0.9952941 0.6690196 0.2854902
0.9951711 0.6644675 0.2835217
0.9950481 0.6599154 0.2815532
0.9949250 0.6553633 0.2795848
0.9948020 0.6508112 0.2776163
0.9946790 0.6462591 0.2756478
0.9945559 0.6417070 0.2736794
0.9944329 0.6371549 0.2717109
0.9943099 0.6326028 0.2697424
0.9941869 0.6280507 0.2677739
0.9940638 0.6234987 0.2658055
0.9939408 0.6189466 0.2638370
0.9938178 0.6143945 0.2618685
0.9936947 0.6098424 0.2599000
0.9935717 0.6052903 0.2579316
0.9934487 0.6007382 0.2559631
0.9933256 0.5961861 0.2539946
0.9932026 0.5916340 0.2520261
0.9930796 0.5870819 0.2500577
0.9929566 0.5825298 0.2480892
0.9928335 0.5779777 0.2461207
0.9927105 0.5734256 0.2441522
0.9925875 0.5688735 0.2421838
0.9924644 0.5643214 0.2402153
0.9923414 0.5597693 0.2382468
0.9922184 0.5552172 0.2362784
0.9920953 0.5490657 0.2341869
0.9919723 0.5413149 0.2319723
0.9918493 0.5335640 0.2297578
0.9917263 0.5258131 0.2275433
0.9916032 0.5180623 0.2253287
0.9914802 0.5103114 0.2231142
0.9913572 0.5025606 0.2208997
0.9912341 0.4948097 0.2186851
0.9911111 0.4870588 0.2164706
0.9909881 0.4793080 0.2142561
0.9908651 0.4715571 0.2120415
0.9907420 0.4638062 0.2098270
0.9906190 0.4560554 0.2076125
0.9904960 0.4483045 0.2053979
0.9903729 0.4405536 0.2031834
0.9902499 0.4328028 0.2009689
0.9901269 0.4250519 0.1987543
0.9900038 0.4173010 0.1965398
0.9898808 0.4095502 0.1943253
0.9897578 0.4017993 0.1921107
0.9896348 0.3940484 0.1898962
0.9895117 0.3862976 0.1876817
0.9893887 0.3785467 0.1854671
0.9892657 0.3707958 0.1832526
0.9891426 0.3630450 0.1810381
0.9890196 0.3552941 0.1788235
0.9888966 0.3475433 0.1766090
0.9887735 0.3397924 0.1743945
0.9886505 0.3320415 0.1721799
0.9885275 0.3242907 0.1699654
0.9884045 0.3165398 0.1677509
0.9882814 0.3087889 0.1655363
0.9863130 0.3018839 0.1636294
0.9832372 0.2954864 0.1619070
0.9801615 0.2890888 0.1601845
0.9770857 0.2826913 0.1584621
0.9740100 0.2762937 0.1567397
0.9709343 0.2698962 0.1550173
0.9678585 0.2634987 0.1532949
0.9647828 0.2571011 0.1515725
0.9617070 0.2507036 0.1498501
0.9586313 0.2443060 0.1481276
0.9555556 0.2379085 0.1464052
0.9524798 0.2315110 0.1446828
0.9494041 0.2251134 0.1429604
0.9463283 0.2187159 0.1412380
0.9432526 0.2123183 0.1395156
0.9401769 0.2059208 0.1377932
0.9371011 0.1995233 0.1360707
0.9340254 0.1931257 0.1343483
0.9309496 0.1867282 0.1326259
0.9278739 0.1803306 0.1309035
0.9247982 0.1739331 0.1291811
0.9217224 0.1675356 0.1274587
0.9186467 0.1611380 0.1257363
0.9155709 0.1547405 0.1240138
0.9124952 0.1483429 0.1222914
0.9094195 0.1419454 0.1205690
0.9063437 0.1355479 0.1188466
0.9032680 0.1291503 0.1171242
0.9001922 0.1227528 0.1154018
0.8971165 0.1163552 0.1136794
0.8940408 0.1099577 0.1119569
0.8909650 0.1035602 0.1102345
0.8866897 0.0995617 0.1107266
0.8820146 0.0963629 0.1119569
0.8773395 0.0931642 0.1131872
0.8726644 0.0899654 0.1144175
0.8679892 0.0867666 0.1156478
0.8633141 0.0835679 0.1168781
0.8586390 0.0803691 0.1181084
0.8539639 0.0771703 0.1193387
0.8492887 0.0739715 0.1205690
0.8446136 0.0707728 0.1217993
0.8399385 0.0675740 0.1230296
0.8352634 0.0643752 0.1242599
0.8305882 0.0611765 0.1254902
0.8259131 0.0579777 0.1267205
0.8212380 0.0547789 0.1279508
0.8165629 0.0515802 0.1291811
0.8118877 0.0483814 0.1304114
0.8072126 0.0451826 0.1316417
0.8025375 0.0419839 0.1328720
0.7978624 0.0387851 0.1341023
0.7931872 0.0355863 0.1353326
0.7885121 0.0323875 0.1365629
0.7838370 0.0291888 0.1377932
0.7791619 0.0259900 0.1390235
0.7744867 0.0227912 0.1402537
0.7698116 0.0195925 0.1414840
0.7651365 0.0163937 0.1427143
0.7604614 0.0131949 0.1439446
0.7557862 0.0099962 0.1451749
0.7511111 0.0067974 0.1464052
0.7464360 0.0035986 0.1476355
0.7417609 0.0003998 0.1488658
0.7346098 0.0000000 0.1490196
0.7271050 0.0000000 0.1490196
0.7196002 0.0000000 0.1490196
0.7120953 0.0000000 0.1490196
0.7045905 0.0000000 0.1490196
0.6970857 0.0000000 0.1490196
0.6895809 0.0000000 0.1490196
0.6820761 0.0000000 0.1490196
0.6745713 0.0000000 0.1490196
0.6670665 0.0000000 0.1490196
0.6595617 0.0000000 0.1490196
0.6520569 0.0000000 0.1490196
0.6445521 0.0000000 0.1490196
0.6370473 0.0000000 0.1490196
0.6295425 0.0000000 0.1490196
0.6220377 0.0000000 0.1490196
0.6145329 0.0000000 0.1490196
0.6070281 0.0000000 0.1490196
0.5995233 0.0000000 0.1490196
0.5920185 0.0000000 0.1490196
0.5845136 0.0000000 0.1490196
0.5770088 0.0000000 0.1490196
0.5695040 0.0000000 0.1490196
0.5619992 0.0000000 0.1490196
0.5544944 0.0000000 0.1490196
0.5469896 0.0000000 0.1490196
0.5394848 0.0000000 0.1490196
0.5319800 0.0000000 0.1490196
0.5244752 0.0000000 0.1490196
0.5169704 0.0000000 0.1490196
0.5094656 0.0000000 0.1490196
0.5019608 0.0000000 0.1490196
